;FLAVOR:Marlin
;TIME:2972
;Filament used: 2.60363m
;Layer height: 0.28
;MINX:101.097
;MINY:105.335
;MINZ:0.28
;MAXX:133.915
;MAXY:129.665
;MAXZ:35.84
;Generated with Cura_SteamEngine 5.0.0
M140 S60
M105
M190 S60
M104 S200
M105
M109 S200
M82 ;absolute extrusion mode
; Ender 3 Custom Start G-code
G92 E0 ; Reset Extruder
G28 ; Home all axes
G1 Z2.0 F3000 ; Move Z Axis up little to prevent scratching of Heat Bed
G1 X0.1 Y20 Z0.3 F5000.0 ; Move to start position
G1 X0.1 Y200.0 Z0.3 F1500.0 E15 ; Draw the first line
G1 X0.4 Y200.0 Z0.3 F5000.0 ; Move to side a little
G1 X0.4 Y20 Z0.3 F1500.0 E30 ; Draw the second line
G92 E0 ; Reset Extruder
G1 Z2.0 F3000 ; Move Z Axis up little to prevent scratching of Heat Bed
G1 X5 Y20 Z0.3 F5000.0 ; Move over to prevent blob squish
G92 E0
G92 E0
G1 F1500 E-6.5
;LAYER_COUNT:129
;LAYER:0
M107
G0 F6000 X114.85 Y109.8 Z0.28
G0 X114.724 Y110.762
;TYPE:SKIRT
G1 F1500 E0
G1 F1200 X114.823 Y110.253 E0.02415
G1 X114.85 Y109.8 E0.04528
G1 X129.45 Y109.8 E0.72511
G1 X129.45 Y125.2 E1.4422
G1 X114.85 Y125.2 E2.12204
G1 X114.85 Y111.7 E2.75066
G1 X114.81 Y111.15 E2.77633
G1 X114.724 Y110.762 E2.79484
G0 F6000 X114.307 Y110.742
G1 F1200 X114.389 Y110.442 E2.80932
G1 X114.45 Y109.8 E2.83935
G1 X114.45 Y109.4 E2.85798
G1 X129.85 Y109.4 E3.57506
G1 X129.85 Y125.6 E4.3294
G1 X114.45 Y125.6 E5.04649
G1 X114.45 Y111.7 E5.69373
G1 X114.41 Y111.18 E5.71802
G1 X114.307 Y110.742 E5.73897
G0 F6000 X113.891 Y110.736
G1 F1200 X114.035 Y110.102 E5.76924
G1 X114.05 Y109.8 E5.78332
G1 X114.05 Y109 E5.82058
G1 X130.25 Y109 E6.57492
G1 X130.25 Y126 E7.36651
G1 X114.05 Y126 E8.12085
G1 X114.05 Y111.7 E8.78671
G1 X114.01 Y111.212 E8.80951
G1 X113.891 Y110.736 E8.83236
G0 F6000 X113.465 Y110.748
G1 F1200 X113.614 Y110.232 E8.85737
G1 X113.65 Y109.8 E8.87755
G1 X113.65 Y108.6 E8.93343
G1 X130.65 Y108.6 E9.72502
G1 X130.65 Y126.4 E10.55387
G1 X113.65 Y126.4 E11.34546
G1 X113.65 Y111.7 E12.02995
G1 X113.61 Y111.246 E12.05117
G1 X113.492 Y110.806 E12.07238
G1 X113.465 Y110.748 E12.07536
G0 F6000 X113.027 Y110.755
G1 F1200 X113.189 Y110.313 E12.09728
G1 X113.25 Y109.8 E12.12134
G1 X113.25 Y108.2 E12.19584
G1 X131.05 Y108.2 E13.02468
G1 X131.05 Y126.8 E13.89078
G1 X113.25 Y126.8 E14.71962
G1 X113.25 Y111.7 E15.42274
G1 X113.21 Y111.283 E15.44225
G1 X113.092 Y110.881 E15.46176
G1 X113.027 Y110.755 E15.46836
G0 F6000 X112.569 Y110.752
G1 F1200 X112.767 Y110.341 E15.4896
G1 X112.85 Y109.8 E15.51509
G1 X112.85 Y107.8 E15.60821
G1 X131.45 Y107.8 E16.47431
G1 X131.45 Y127.2 E17.37765
G1 X112.85 Y127.2 E18.24375
G1 X112.85 Y111.7 E18.96549
G1 X112.81 Y111.323 E18.98315
G1 X112.692 Y110.963 E19.00079
G1 X112.569 Y110.752 E19.01216
G0 F6000 X112.069 Y110.746
G1 F1200 X112.194 Y110.607 E19.02086
G1 X112.353 Y110.313 E19.03643
G1 X112.437 Y109.989 E19.05201
G1 X112.45 Y109.8 E19.06083
G1 X112.45 Y107.4 E19.17259
G1 X131.85 Y107.4 E20.07593
G1 X131.85 Y127.6 E21.01653
G1 X112.45 Y127.6 E21.91988
G1 X112.45 Y111.7 E22.66025
G1 X112.41 Y111.368 E22.67582
G1 X112.293 Y111.056 E22.69133
G1 X112.105 Y110.779 E22.70692
G1 X112.069 Y110.746 E22.7092
G0 F6000 X111.342 Y110.754
G1 F1200 X111.586 Y110.644 E22.72166
G1 X111.801 Y110.461 E22.73481
G1 X111.955 Y110.225 E22.74793
G1 X112.038 Y109.955 E22.76108
G1 X112.05 Y109.8 E22.76832
G1 X112.05 Y107 E22.8987
G1 X132.25 Y107 E23.8393
G1 X132.25 Y128 E24.81714
G1 X112.05 Y128 E25.75774
G1 X112.05 Y111.7 E26.51674
G1 X112.01 Y111.421 E26.52986
G1 X111.894 Y111.164 E26.54299
G1 X111.711 Y110.949 E26.55614
G1 X111.475 Y110.795 E26.56926
G1 X111.342 Y110.754 E26.57574
G0 F6000 X111.05 Y110.4
G1 F1200 X111.265 Y110.36 E26.58592
G1 X111.451 Y110.247 E26.59606
G1 X111.584 Y110.074 E26.60622
G1 X111.65 Y109.8 E26.61934
G1 X111.65 Y106.6 E26.76835
G1 X132.65 Y106.6 E27.74619
G1 X132.65 Y128.4 E28.76129
G1 X111.65 Y128.4 E29.73914
G1 X111.65 Y111.7 E30.51676
G1 X111.61 Y111.485 E30.52695
G1 X111.497 Y111.299 E30.53708
G1 X111.324 Y111.166 E30.54724
G1 X111.05 Y111.1 E30.56037
G1 X106.15 Y111.1 E30.78853
G1 X106.15 Y110.4 E30.82112
G1 X111.05 Y110.4 E31.04929
G0 F6000 X111.05 Y110
G1 F1200 X111.169 Y109.961 E31.05512
G1 X111.25 Y109.8 E31.06351
G1 X111.25 Y106.2 E31.23114
G1 X133.05 Y106.2 E32.24624
G1 X133.05 Y128.8 E33.29859
G1 X111.25 Y128.8 E34.31369
G1 X111.25 Y111.7 E35.10994
G1 X111.211 Y111.581 E35.11577
G1 X111.05 Y111.5 E35.12416
G1 X105.75 Y111.5 E35.37095
G1 X105.75 Y110 E35.4408
G1 X111.05 Y110 E35.68759
G1 F1500 E29.18759
G0 F6000 X114.385 Y110.08
G0 X115.13 Y110.08
;TYPE:SUPPORT
G1 F1500 E35.68759
G1 F1200 X115.13 Y124.92 E36.3786
G1 X129.17 Y124.92 E37.03236
G1 X129.17 Y117.1 E37.3965
G1 X129.17 Y110.08 E37.72338
G1 X115.13 Y110.08 E38.37714
G0 F6000 X115.209 Y112
G1 F1200 X129.089 Y112 E39.02345
G0 F6000 X128 Y110.16
G1 F1200 X128 Y124.84 E39.70701
G1 F1500 E33.20701
G0 F6000 X128 Y125.665
G0 X129.903 Y125.653
G0 X129.915 Y120
G0 X129.089 Y120
G1 F1500 E39.70701
G1 F1200 X115.209 Y120 E40.35332
G1 F1500 E33.85332
G0 F6000 X114.385 Y120
G0 X114.397 Y125.653
G0 X120 Y125.665
G0 X120 Y124.84
G1 F1500 E40.35332
G1 F1200 X120 Y110.16 E41.03688
G1 F1500 E34.53688
;MESH:roof arm holder.stl
G0 F6000 X120 Y109.335
G0 X114.397 Y109.347
G0 X110.915 Y112.924
G0 X109.826 Y112.924
G0 X109.67 Y128.42
G1 F1500 E41.03688
G0 F6000 X110.05 Y128.8
;TYPE:WALL-OUTER
G1 F1200 X110.05 Y116.75 E41.59798
G1 X110.05 Y112.7 E41.78657
G1 X104.75 Y112.7 E42.03336
G1 X104.63 Y112.66 E42.03925
G1 X104.552 Y112.535 E42.04611
G1 X104.55 Y112.5 E42.04774
G1 X104.55 Y109 E42.21072
G1 X104.608 Y108.858 E42.21786
G1 X104.75 Y108.8 E42.225
G1 X110.05 Y108.8 E42.47179
G1 X110.05 Y106.2 E42.59286
G1 X101.95 Y106.2 E42.97003
G1 X101.95 Y128.8 E44.02238
G1 X110.05 Y128.8 E44.39955
G0 F6000 X109.65 Y128.4
;TYPE:WALL-INNER
G1 F1200 X109.65 Y116.75 E44.94202
G1 X109.65 Y113.1 E45.11198
G1 X104.75 Y113.1 E45.34015
G1 X104.581 Y113.077 E45.34809
G1 X104.39 Y112.98 E45.35806
G1 X104.22 Y112.783 E45.37018
G1 X104.15 Y112.5 E45.38375
G1 X104.15 Y109 E45.54673
G1 X104.199 Y108.761 E45.55809
G1 X104.325 Y108.575 E45.56855
G1 X104.511 Y108.449 E45.57901
G1 X104.75 Y108.4 E45.59037
G1 X109.65 Y108.4 E45.81854
G1 X109.65 Y106.6 E45.90235
G1 X102.35 Y106.6 E46.24227
G1 X102.35 Y128.4 E47.25737
G1 X109.65 Y128.4 E47.59729
G0 F6000 X109.29 Y128.04
;TYPE:SKIN
G1 F1200 X109.29 Y116.75 E48.123
G1 X109.29 Y113.46 E48.27619
G1 X104.729 Y113.459 E48.48857
G1 X104.447 Y113.41 E48.5019
G1 X104.202 Y113.286 E48.51469
G1 X103.927 Y112.99 E48.5335
G1 X103.795 Y112.549 E48.55493
G1 X103.79 Y112.5 E48.55723
G1 X103.79 Y109.005 E48.71997
G1 X103.856 Y108.656 E48.73651
G1 X104.047 Y108.35 E48.75331
G1 X104.337 Y108.135 E48.77012
G1 X104.715 Y108.043 E48.78823
G1 X104.755 Y108.04 E48.7901
G1 X109.29 Y108.04 E49.00127
G1 X109.29 Y106.96 E49.05156
G1 X102.711 Y106.961 E49.3579
G1 X102.71 Y113.051 E49.64148
G1 X102.71 Y128.04 E50.33943
G1 X109.29 Y128.04 E50.64582
G0 F6000 X109.55 Y128.04
G0 X103.514 Y128.3
G0 X103.514 Y127.839
G1 F1200 X102.909 Y127.233 E50.68569
G0 F6000 X102.909 Y126.668
G1 F1200 X104.08 Y127.839 E50.76281
G0 F6000 X104.646 Y127.839
G1 F1200 X102.909 Y126.102 E50.87719
G0 F6000 X102.909 Y125.536
G1 F1200 X105.211 Y127.839 E51.02881
G0 F6000 X105.777 Y127.839
G1 F1200 X102.909 Y124.971 E51.21768
G0 F6000 X102.909 Y124.405
G1 F1200 X106.343 Y127.839 E51.44381
G0 F6000 X106.908 Y127.839
G1 F1200 X102.909 Y123.839 E51.70719
G0 F6000 X102.909 Y123.274
G1 F1200 X107.474 Y127.839 E52.0078
G0 F6000 X108.04 Y127.839
G1 F1200 X102.909 Y122.708 E52.34568
G0 F6000 X102.909 Y122.142
G1 F1200 X108.605 Y127.839 E52.72081
G0 F6000 X109.09 Y127.757
G1 F1200 X102.909 Y121.577 E53.1278
G0 F6000 X102.909 Y121.011
G1 F1200 X109.09 Y127.192 E53.53483
G0 F6000 X109.09 Y126.626
G1 F1200 X102.909 Y120.445 E53.94186
G0 F6000 X102.909 Y119.88
G1 F1200 X109.09 Y126.06 E54.34886
G0 F6000 X109.09 Y125.495
G1 F1200 X102.909 Y119.314 E54.75589
G0 F6000 X102.909 Y118.748
G1 F1200 X109.09 Y124.929 E55.16292
G0 F6000 X109.09 Y124.363
G1 F1200 X102.909 Y118.182 E55.56995
G0 F6000 X102.909 Y117.617
G1 F1200 X109.09 Y123.798 E55.97698
G0 F6000 X109.09 Y123.232
G1 F1200 X102.91 Y117.052 E56.38394
G0 F6000 X102.91 Y116.486
G1 F1200 X109.09 Y122.666 E56.7909
G0 F6000 X109.09 Y122.101
G1 F1200 X102.91 Y115.92 E57.1979
G0 F6000 X102.91 Y115.355
G1 F1200 X109.09 Y121.535 E57.60486
G0 F6000 X109.09 Y120.969
G1 F1200 X102.91 Y114.789 E58.01183
G0 F6000 X102.91 Y114.223
G1 F1200 X109.09 Y120.404 E58.41882
G0 F6000 X109.09 Y119.838
G1 F1200 X102.91 Y113.658 E58.82579
G0 F6000 X102.91 Y113.092
G1 F1200 X109.09 Y119.272 E59.23275
G0 F6000 X109.09 Y118.706
G1 F1200 X102.91 Y112.526 E59.63972
G0 F6000 X102.91 Y111.961
G1 F1200 X103.62 Y112.671 E59.68647
G0 F6000 X103.595 Y112.08
G1 F1200 X102.91 Y111.395 E59.73158
G0 F6000 X102.91 Y110.829
G1 F1200 X103.593 Y111.513 E59.77659
G0 F6000 X103.593 Y110.947
G1 F1200 X102.91 Y110.264 E59.82156
G0 F6000 X102.91 Y109.698
G1 F1200 X103.592 Y110.38 E59.86648
G0 F6000 X103.591 Y109.814
G1 F1200 X102.91 Y109.132 E59.91135
G0 F6000 X102.91 Y108.567
G1 F1200 X103.591 Y109.247 E59.95617
G0 F6000 X103.648 Y108.739
G1 F1200 X102.91 Y108.001 E60.00476
G0 F6000 X102.91 Y107.435
G1 F1200 X103.82 Y108.345 E60.06469
G0 F6000 X104.103 Y108.062
G1 F1200 X103.2 Y107.16 E60.12412
G0 F6000 X103.766 Y107.16
G1 F1200 X104.489 Y107.883 E60.17173
G0 F6000 X105.015 Y107.843
G1 F1200 X104.332 Y107.16 E60.21671
G0 F6000 X104.897 Y107.16
G1 F1200 X105.58 Y107.842 E60.26165
G0 F6000 X106.145 Y107.842
G1 F1200 X105.463 Y107.16 E60.30656
G0 F6000 X106.029 Y107.16
G1 F1200 X106.71 Y107.842 E60.35144
G0 F6000 X107.275 Y107.841
G1 F1200 X106.594 Y107.16 E60.39629
G0 F6000 X107.16 Y107.16
G1 F1200 X107.84 Y107.84 E60.44106
G0 F6000 X108.405 Y107.84
G1 F1200 X107.726 Y107.16 E60.48581
G0 F6000 X108.291 Y107.16
G1 F1200 X108.971 Y107.84 E60.53059
G0 F6000 X109.088 Y107.391
G1 F1200 X108.857 Y107.16 E60.5458
G0 F6000 X108.857 Y106.7
G0 X109.478 Y106.772
G0 X109.478 Y108.228
G0 X104.212 Y108.462
G0 X104.212 Y113.038
G0 X108.568 Y113.2
G0 X108.568 Y113.659
G1 F1200 X109.09 Y114.181 E60.58018
G0 F6000 X109.09 Y114.747
G1 F1200 X108.002 Y113.658 E60.65186
G0 F6000 X107.436 Y113.658
G1 F1200 X109.09 Y115.312 E60.76078
G0 F6000 X109.09 Y115.878
G1 F1200 X106.869 Y113.658 E60.907
G0 F6000 X106.303 Y113.657
G1 F1200 X109.09 Y116.444 E61.09053
G0 F6000 X109.09 Y117.009
G1 F1200 X105.737 Y113.657 E61.3113
G0 F6000 X105.171 Y113.656
G1 F1200 X109.09 Y117.575 E61.56937
G0 F6000 X109.09 Y118.141
G1 F1200 X104.581 Y113.632 E61.86629
G1 F1500 E55.36629
;MESH:NONMESH
G0 F300 X104.581 Y113.632 Z0.56
G0 F6000 X104.643 Y113.185
G0 X104.312 Y112.938
G0 X104.32 Y109.88
G0 X105.63 Y109.88
;TIME_ELAPSED:82.722336
;LAYER:1
M106 S85
;TYPE:SUPPORT
G1 F1500 E61.86629
G1 F1350 X105.63 Y111.62 E61.94732
G1 X110.93 Y111.62 E62.19411
G1 X111.096 Y111.708 E62.20285
G1 X111.13 Y111.82 E62.2083
G1 X111.13 Y128.92 E63.00455
G1 X133.17 Y128.92 E64.03083
G1 X133.17 Y106.08 E65.09435
G1 X111.13 Y106.08 E66.12063
G1 X111.13 Y109.68 E66.28826
G1 X111.126 Y109.724 E66.29032
G1 X111.05 Y109.841 E66.29681
G1 X110.93 Y109.88 E66.30269
G1 X105.63 Y109.88 E66.54948
G0 F7500 X111.209 Y112
G1 F1350 X133.089 Y112 E67.5683
G1 F1500 E61.0683
G0 F7500 X133.915 Y112
G0 X133.903 Y105.347
G0 X128 Y105.335
G0 X128 Y106.16
G1 F1500 E67.5683
G1 F1350 X128 Y128.84 E68.62438
G1 F1500 E62.12438
G0 F7500 X128 Y129.665
G0 X133.903 Y129.653
G0 X133.915 Y128
G0 X133.089 Y128
G1 F1500 E68.62438
G1 F1350 X111.209 Y128 E69.6432
G0 F7500 X112 Y128.84
G1 F1350 X112 Y106.16 E70.69928
G1 F1500 E64.19928
G0 F7500 X112 Y105.335
G0 X120 Y105.335
G0 X120 Y106.16
G1 F1500 E70.69928
G1 F1350 X120 Y128.84 E71.75535
G1 F1500 E65.25535
G0 F7500 X120 Y129.665
G0 X111.209 Y129.665
G0 X111.209 Y120
G1 F1500 E71.75535
G1 F1350 X133.089 Y120 E72.77418
G1 F1500 E66.27418
;MESH:roof arm holder.stl
G0 F7500 X133.915 Y120
G0 X133.903 Y129.653
G0 X109.84 Y129.665
G0 X109.812 Y128.562
G1 F1500 E72.77418
G0 F7500 X110.05 Y128.8
;TYPE:WALL-OUTER
G1 F1350 X110.05 Y116.75 E73.33528
G1 X110.05 Y112.7 E73.52386
G1 X104.75 Y112.7 E73.77065
G1 X104.63 Y112.66 E73.77654
G1 X104.552 Y112.535 E73.7834
G1 X104.55 Y112.5 E73.78504
G1 X104.55 Y109 E73.94801
G1 X104.608 Y108.858 E73.95515
G1 X104.75 Y108.8 E73.96229
G1 X110.05 Y108.8 E74.20909
G1 X110.05 Y106.2 E74.33015
G1 X101.95 Y106.2 E74.70732
G1 X101.95 Y128.8 E75.75967
G1 X110.05 Y128.8 E76.13684
G0 F7500 X109.65 Y128.4
;TYPE:WALL-INNER
G1 F1350 X109.65 Y116.75 E76.67932
G1 X109.65 Y113.1 E76.84927
G1 X104.75 Y113.1 E77.07744
G1 X104.581 Y113.077 E77.08538
G1 X104.39 Y112.98 E77.09536
G1 X104.22 Y112.783 E77.10747
G1 X104.15 Y112.5 E77.12105
G1 X104.15 Y109 E77.28402
G1 X104.199 Y108.761 E77.29538
G1 X104.325 Y108.575 E77.30584
G1 X104.511 Y108.449 E77.3163
G1 X104.75 Y108.4 E77.32766
G1 X109.65 Y108.4 E77.55583
G1 X109.65 Y106.6 E77.63964
G1 X102.35 Y106.6 E77.97956
G1 X102.35 Y128.4 E78.99466
G1 X109.65 Y128.4 E79.33458
G0 F7500 X109.29 Y128.04
;TYPE:SKIN
G1 F1350 X109.29 Y116.75 E79.86029
G1 X109.29 Y113.46 E80.01349
G1 X104.729 Y113.459 E80.22587
G1 X104.447 Y113.41 E80.23919
G1 X104.202 Y113.286 E80.25198
G1 X103.927 Y112.99 E80.27079
G1 X103.795 Y112.549 E80.29223
G1 X103.79 Y112.5 E80.29452
G1 X103.79 Y109.005 E80.45726
G1 X103.856 Y108.656 E80.4738
G1 X104.047 Y108.35 E80.4906
G1 X104.337 Y108.135 E80.50741
G1 X104.715 Y108.043 E80.52552
G1 X104.755 Y108.04 E80.52739
G1 X109.29 Y108.04 E80.73856
G1 X109.29 Y106.96 E80.78885
G1 X102.711 Y106.961 E81.0952
G1 X102.71 Y113.051 E81.37877
G1 X102.71 Y128.04 E82.07672
G1 X109.29 Y128.04 E82.38311
G0 F7500 X108.617 Y127.839
G1 F1350 X109.089 Y127.366 E82.41423
G0 F7500 X109.089 Y126.801
G1 F1350 X108.051 Y127.839 E82.48258
G0 F7500 X107.485 Y127.839
G1 F1350 X109.089 Y126.235 E82.58821
G0 F7500 X109.089 Y125.669
G1 F1350 X106.92 Y127.839 E82.73108
G0 F7500 X106.354 Y127.839
G1 F1350 X109.089 Y125.104 E82.91118
G0 F7500 X109.089 Y124.538
G1 F1350 X105.788 Y127.839 E83.12856
G0 F7500 X105.223 Y127.839
G1 F1350 X109.089 Y123.972 E83.38317
G0 F7500 X109.089 Y123.407
G1 F1350 X104.657 Y127.839 E83.67503
G0 F7500 X104.091 Y127.839
G1 F1350 X109.089 Y122.841 E84.00415
G0 F7500 X109.089 Y122.275
G1 F1350 X103.526 Y127.839 E84.37052
G0 F7500 X102.96 Y127.839
G1 F1350 X109.089 Y121.71 E84.77412
G0 F7500 X109.089 Y121.144
G1 F1350 X102.91 Y127.323 E85.18102
G0 F7500 X102.91 Y126.758
G1 F1350 X109.089 Y120.578 E85.58795
G0 F7500 X109.089 Y120.012
G1 F1350 X102.91 Y126.192 E85.99488
G0 F7500 X102.91 Y125.626
G1 F1350 X109.089 Y119.447 E86.40178
G0 F7500 X109.089 Y118.881
G1 F1350 X102.91 Y125.061 E86.80871
G0 F7500 X102.91 Y124.495
G1 F1350 X109.089 Y118.315 E87.21564
G0 F7500 X109.089 Y117.75
G1 F1350 X102.91 Y123.929 E87.62254
G0 F7500 X102.91 Y123.363
G1 F1350 X109.089 Y117.184 E88.02944
G0 F7500 X109.089 Y116.618
G1 F1350 X102.91 Y122.798 E88.43637
G0 F7500 X102.91 Y122.232
G1 F1350 X109.089 Y116.053 E88.84327
G0 F7500 X109.089 Y115.487
G1 F1350 X102.91 Y121.666 E89.25016
G0 F7500 X102.91 Y121.101
G1 F1350 X109.089 Y114.921 E89.65709
G0 F7500 X109.089 Y114.356
G1 F1350 X102.91 Y120.535 E90.06399
G0 F7500 X102.91 Y119.969
G1 F1350 X109.089 Y113.79 E90.47089
G0 F7500 X108.655 Y113.658
G1 F1350 X102.91 Y119.404 E90.84924
G0 F7500 X102.91 Y118.838
G1 F1350 X108.09 Y113.658 E91.19035
G0 F7500 X107.524 Y113.658
G1 F1350 X102.91 Y118.272 E91.49419
G0 F7500 X102.91 Y117.707
G1 F1350 X106.959 Y113.657 E91.76086
G0 F7500 X106.394 Y113.656
G1 F1350 X102.91 Y117.14 E91.99029
G0 F7500 X102.91 Y116.575
G1 F1350 X105.829 Y113.656 E92.18251
G0 F7500 X105.264 Y113.656
G1 F1350 X102.91 Y116.009 E92.33749
G0 F7500 X102.91 Y115.443
G1 F1350 X104.699 Y113.655 E92.45527
G0 F7500 X104.259 Y113.529
G1 F1350 X102.91 Y114.877 E92.54407
G0 F7500 X102.91 Y114.312
G1 F1350 X103.927 Y113.296 E92.611
G0 F7500 X103.693 Y112.963
G1 F1350 X102.91 Y113.746 E92.66257
G0 F7500 X102.91 Y113.18
G1 F1350 X103.594 Y112.497 E92.70758
G0 F7500 X103.593 Y111.932
G1 F1350 X102.91 Y112.615 E92.75255
G0 F7500 X102.91 Y112.049
G1 F1350 X103.593 Y111.367 E92.7975
G0 F7500 X103.592 Y110.802
