;FLAVOR:Marlin
;TIME:1674
;Filament used: 1.3874m
;Layer height: 0.28
;MINX:103.2
;MINY:107.7
;MINZ:0.28
;MAXX:131.8
;MAXY:127.3
;MAXZ:26.88
;Generated with Cura_SteamEngine 5.0.0
M140 S60
M105
M190 S60
M104 S200
M105
M109 S200
M82 ;absolute extrusion mode
; Ender 3 Custom Start G-code
G92 E0 ; Reset Extruder
G28 ; Home all axes
G1 Z2.0 F3000 ; Move Z Axis up little to prevent scratching of Heat Bed
G1 X0.1 Y20 Z0.3 F5000.0 ; Move to start position
G1 X0.1 Y200.0 Z0.3 F1500.0 E15 ; Draw the first line
G1 X0.4 Y200.0 Z0.3 F5000.0 ; Move to side a little
G1 X0.4 Y20 Z0.3 F1500.0 E30 ; Draw the second line
G92 E0 ; Reset Extruder
G1 Z2.0 F3000 ; Move Z Axis up little to prevent scratching of Heat Bed
G1 X5 Y20 Z0.3 F5000.0 ; Move over to prevent blob squish
G92 E0
G92 E0
G1 F1500 E-6.5
;LAYER_COUNT:96
;LAYER:0
M107
;MESH:microswitch cover.stl
G0 F6000 X103.2 Y127.3 Z0.28
;TYPE:WALL-OUTER
G1 F1500 E0
G1 F1200 X131.8 Y127.3 E1.33174
G1 X131.8 Y117.5 E1.78806
G1 X131.8 Y107.7 E2.24439
G1 X103.2 Y107.7 E3.57613
G1 X103.2 Y127.3 E4.48879
G0 F6000 X103.6 Y126.9
;TYPE:WALL-INNER
G1 F1200 X131.4 Y126.9 E5.78327
G1 X131.4 Y117.5 E6.22098
G1 X131.4 Y108.1 E6.65868
G1 X103.6 Y108.1 E7.95316
G1 X103.6 Y126.9 E8.82857
G0 F6000 X103.96 Y126.54
;TYPE:SKIN
G1 F1200 X131.04 Y126.54 E10.08953
G1 X131.04 Y117.5 E10.51047
G1 X131.04 Y108.46 E10.93141
G1 X103.96 Y108.46 E12.19237
G1 X103.96 Y126.54 E13.03425
G0 F6000 X104.277 Y126.339
G1 F1200 X104.16 Y126.222 E13.04195
G0 F6000 X104.16 Y125.656
G1 F1200 X104.843 Y126.339 E13.08693
G0 F6000 X105.409 Y126.339
G1 F1200 X104.16 Y125.09 E13.16918
G0 F6000 X104.16 Y124.525
G1 F1200 X105.974 Y126.339 E13.28863
G0 F6000 X106.54 Y126.339
G1 F1200 X104.16 Y123.959 E13.44536
G0 F6000 X104.16 Y123.393
G1 F1200 X107.106 Y126.339 E13.63936
G0 F6000 X107.671 Y126.339
G1 F1200 X104.16 Y122.827 E13.8706
G0 F6000 X104.16 Y122.262
G1 F1200 X108.237 Y126.339 E14.13907
G0 F6000 X108.803 Y126.339
G1 F1200 X104.16 Y121.696 E14.44482
G0 F6000 X104.16 Y121.13
G1 F1200 X109.368 Y126.339 E14.78781
G0 F6000 X109.934 Y126.339
G1 F1200 X104.16 Y120.565 E15.16804
G0 F6000 X104.16 Y119.999
G1 F1200 X110.5 Y126.339 E15.58554
G0 F6000 X111.065 Y126.339
G1 F1200 X104.16 Y119.433 E16.04028
G0 F6000 X104.16 Y118.868
G1 F1200 X111.631 Y126.339 E16.53226
G0 F6000 X112.197 Y126.339
G1 F1200 X104.16 Y118.302 E17.06151
G0 F6000 X104.16 Y117.736
G1 F1200 X112.763 Y126.339 E17.62803
G0 F6000 X113.328 Y126.339
G1 F1200 X104.16 Y117.171 E18.23176
G0 F6000 X104.16 Y116.605
G1 F1200 X113.894 Y126.339 E18.87276
G0 F6000 X114.46 Y126.339
G1 F1200 X104.16 Y116.039 E19.55103
G0 F6000 X104.16 Y115.474
G1 F1200 X115.025 Y126.339 E20.26651
G0 F6000 X115.591 Y126.339
G1 F1200 X104.16 Y114.908 E21.01926
G0 F6000 X104.16 Y114.342
G1 F1200 X116.157 Y126.339 E21.80928
G0 F6000 X116.722 Y126.339
G1 F1200 X104.16 Y113.777 E22.63651
G0 F6000 X104.16 Y113.211
G1 F1200 X117.288 Y126.339 E23.50101
G0 F6000 X117.854 Y126.339
G1 F1200 X104.16 Y112.645 E24.40279
G0 F6000 X104.16 Y112.079
G1 F1200 X118.419 Y126.339 E25.3418
G0 F6000 X118.985 Y126.339
G1 F1200 X104.16 Y111.514 E26.31805
G0 F6000 X104.16 Y110.948
G1 F1200 X119.551 Y126.339 E27.33158
G0 F6000 X120.116 Y126.339
G1 F1200 X104.16 Y110.382 E28.38234
G0 F6000 X104.16 Y109.817
G1 F1200 X120.682 Y126.339 E29.47034
G0 F6000 X121.248 Y126.339
G1 F1200 X104.16 Y109.251 E30.59561
G0 F6000 X104.16 Y108.685
G1 F1200 X121.813 Y126.339 E31.75813
G0 F6000 X122.379 Y126.339
G1 F1200 X104.699 Y108.659 E32.92239
G0 F6000 X105.265 Y108.659
G1 F1200 X122.945 Y126.339 E34.08664
G0 F6000 X123.511 Y126.339
G1 F1200 X105.831 Y108.659 E35.2509
G0 F6000 X106.396 Y108.659
G1 F1200 X124.076 Y126.339 E36.41516
G0 F6000 X124.642 Y126.339
G1 F1200 X106.962 Y108.659 E37.57942
G0 F6000 X107.528 Y108.659
G1 F1200 X125.208 Y126.339 E38.74368
G0 F6000 X125.773 Y126.339
G1 F1200 X108.093 Y108.659 E39.90793
G0 F6000 X108.659 Y108.659
G1 F1200 X126.339 Y126.339 E41.07219
G0 F6000 X126.905 Y126.339
G1 F1200 X109.225 Y108.659 E42.23645
G0 F6000 X109.791 Y108.659
G1 F1200 X127.47 Y126.339 E43.40068
G0 F6000 X128.036 Y126.339
G1 F1200 X110.356 Y108.659 E44.56493
G0 F6000 X110.922 Y108.659
G1 F1200 X128.602 Y126.339 E45.72919
G0 F6000 X129.167 Y126.339
G1 F1200 X111.488 Y108.659 E46.89342
G0 F6000 X112.053 Y108.659
G1 F1200 X129.733 Y126.339 E48.05768
G0 F6000 X130.299 Y126.339
G1 F1200 X112.619 Y108.659 E49.22193
G0 F6000 X113.185 Y108.659
G1 F1200 X130.839 Y126.314 E50.38451
G0 F6000 X130.839 Y125.748
G1 F1200 X113.75 Y108.659 E51.50985
G0 F6000 X114.316 Y108.659
G1 F1200 X130.839 Y125.182 E52.59792
G0 F6000 X130.839 Y124.616
G1 F1200 X114.882 Y108.659 E53.64872
G0 F6000 X115.447 Y108.659
G1 F1200 X130.839 Y124.051 E54.66231
G0 F6000 X130.839 Y123.485
G1 F1200 X116.013 Y108.659 E55.63862
G0 F6000 X116.579 Y108.659
G1 F1200 X130.839 Y122.919 E56.57767
G0 F6000 X130.839 Y122.354
G1 F1200 X117.144 Y108.659 E57.47951
G0 F6000 X117.711 Y108.66
G1 F1200 X130.839 Y121.788 E58.34401
G0 F6000 X130.839 Y121.222
G1 F1200 X118.277 Y108.66 E59.17124
G0 F6000 X118.842 Y108.66
G1 F1200 X130.839 Y120.657 E59.96126
G0 F6000 X130.839 Y120.091
G1 F1200 X119.408 Y108.66 E60.71401
G0 F6000 X119.974 Y108.66
G1 F1200 X130.839 Y119.525 E61.42949
G0 F6000 X130.839 Y118.96
G1 F1200 X120.539 Y108.66 E62.10776
G0 F6000 X121.105 Y108.66
G1 F1200 X130.839 Y118.394 E62.74876
G0 F6000 X130.839 Y117.828
G1 F1200 X121.671 Y108.66 E63.35249
G0 F6000 X122.236 Y108.66
G1 F1200 X130.839 Y117.263 E63.91901
G0 F6000 X130.839 Y116.697
G1 F1200 X122.802 Y108.66 E64.44826
G0 F6000 X123.368 Y108.66
G1 F1200 X130.839 Y116.131 E64.94024
G0 F6000 X130.839 Y115.565
G1 F1200 X123.933 Y108.66 E65.39498
G0 F6000 X124.499 Y108.66
G1 F1200 X130.839 Y115 E65.81248
G0 F6000 X130.839 Y114.434
G1 F1200 X125.065 Y108.66 E66.19271
G0 F6000 X125.63 Y108.66
G1 F1200 X130.839 Y113.868 E66.5357
G0 F6000 X130.839 Y113.303
G1 F1200 X126.196 Y108.66 E66.84145
G0 F6000 X126.762 Y108.66
G1 F1200 X130.839 Y112.737 E67.10993
G0 F6000 X130.839 Y112.171
G1 F1200 X127.328 Y108.66 E67.34113
G0 F6000 X127.893 Y108.66
G1 F1200 X130.839 Y111.606 E67.53513
G0 F6000 X130.839 Y111.04
G1 F1200 X128.459 Y108.66 E67.69186
G0 F6000 X129.025 Y108.66
G1 F1200 X130.839 Y110.474 E67.81131
G0 F6000 X130.839 Y109.909
G1 F1200 X129.59 Y108.66 E67.89356
G0 F6000 X130.156 Y108.66
G1 F1200 X130.839 Y109.343 E67.93854
G0 F6000 X130.839 Y108.777
G1 F1200 X130.722 Y108.66 E67.94624
G1 F1500 E61.44624
;MESH:NONMESH
G0 F300 X130.722 Y108.66 Z0.56
G0 F6000 X130.722 Y108.2
G0 X103.772 Y108.272
G0 X103.58 Y126.92
G1 F1500 E67.94624
G0 F6000 X103.2 Y127.3
;TIME_ELAPSED:84.894226
;LAYER:1
M106 S85
;TYPE:WALL-OUTER
;MESH:microswitch cover.stl
G1 F1350 X131.8 Y127.3 E69.27798
G1 X131.8 Y117.5 E69.73431
G1 X131.8 Y107.7 E70.19064
G1 X103.2 Y107.7 E71.52237
G1 X103.2 Y127.3 E72.43503
G0 F7500 X103.6 Y126.9
;TYPE:WALL-INNER
G1 F1350 X131.4 Y126.9 E73.72951
G1 X131.4 Y117.5 E74.16722
G1 X131.4 Y108.1 E74.60492
G1 X103.6 Y108.1 E75.89941
G1 X103.6 Y126.9 E76.77481
G0 F7500 X103.96 Y126.54
;TYPE:SKIN
G1 F1350 X131.04 Y126.54 E78.03577
G1 X131.04 Y117.5 E78.45671
G1 X131.04 Y108.46 E78.87765
G1 X103.96 Y108.46 E80.13861
G1 X103.96 Y126.54 E80.98049
G0 F7500 X103.7 Y126.54
G0 X103.7 Y109.103
G0 X104.16 Y109.103
G1 F1350 X104.604 Y108.658 E81.00976
G0 F7500 X105.17 Y108.658
G1 F1350 X104.16 Y109.668 E81.07627
G0 F7500 X104.16 Y110.234
G1 F1350 X105.735 Y108.658 E81.18002
G0 F7500 X106.301 Y108.658
G1 F1350 X104.16 Y110.8 E81.32104
G0 F7500 X104.16 Y111.365
G1 F1350 X106.867 Y108.658 E81.4993
G0 F7500 X107.432 Y108.658
G1 F1350 X104.16 Y111.931 E81.7148
G0 F7500 X104.16 Y112.497
G1 F1350 X107.998 Y108.658 E81.96757
G0 F7500 X108.564 Y108.658
G1 F1350 X104.16 Y113.062 E82.25758
G0 F7500 X104.16 Y113.628
G1 F1350 X109.129 Y108.658 E82.58483
G0 F7500 X109.695 Y108.658
G1 F1350 X104.16 Y114.194 E82.94936
G0 F7500 X104.16 Y114.759
G1 F1350 X110.261 Y108.658 E83.35112
G0 F7500 X110.826 Y108.658
G1 F1350 X104.16 Y115.325 E83.79012
G0 F7500 X104.16 Y115.891
G1 F1350 X111.392 Y108.658 E84.26639
G0 F7500 X111.958 Y108.658
G1 F1350 X104.16 Y116.456 E84.7799
G0 F7500 X104.16 Y117.022
G1 F1350 X112.524 Y108.658 E85.33069
G0 F7500 X113.089 Y108.658
G1 F1350 X104.16 Y117.588 E85.91871
G0 F7500 X104.16 Y118.154
G1 F1350 X113.655 Y108.658 E86.544
G0 F7500 X114.221 Y108.658
G1 F1350 X104.16 Y118.719 E87.20654
G0 F7500 X104.16 Y119.285
G1 F1350 X114.786 Y108.658 E87.90631
G0 F7500 X115.352 Y108.658
G1 F1350 X104.16 Y119.851 E88.64336
G0 F7500 X104.16 Y120.416
G1 F1350 X115.918 Y108.658 E89.41764
G0 F7500 X116.483 Y108.658
G1 F1350 X104.16 Y120.982 E90.22916
G0 F7500 X104.16 Y121.548
G1 F1350 X117.049 Y108.658 E91.07796
G0 F7500 X117.614 Y108.659
G1 F1350 X104.16 Y122.113 E91.96393
G0 F7500 X104.16 Y122.679
G1 F1350 X118.18 Y108.659 E92.88717
G0 F7500 X118.745 Y108.659
G1 F1350 X104.16 Y123.245 E93.84765
G0 F7500 X104.16 Y123.81
G1 F1350 X119.311 Y108.659 E94.84537
G0 F7500 X119.877 Y108.659
G1 F1350 X104.16 Y124.376 E95.88036
G0 F7500 X104.16 Y124.942
G1 F1350 X120.442 Y108.659 E96.95259
G0 F7500 X121.008 Y108.659
G1 F1350 X104.16 Y125.507 E98.06206
G0 F7500 X104.16 Y126.073
G1 F1350 X121.574 Y108.659 E99.2088
G0 F7500 X122.139 Y108.659
G1 F1350 X104.459 Y126.34 E100.37309
G0 F7500 X105.025 Y126.34
G1 F1350 X122.705 Y108.659 E101.53738
G0 F7500 X123.271 Y108.659
G1 F1350 X105.59 Y126.34 E102.70171
G0 F7500 X106.156 Y126.34
G1 F1350 X123.837 Y108.659 E103.86603
G0 F7500 X124.402 Y108.659
G1 F1350 X106.722 Y126.34 E105.03032
G0 F7500 X107.287 Y126.34
G1 F1350 X124.968 Y108.659 E106.19465
G0 F7500 X125.534 Y108.659
G1 F1350 X107.853 Y126.34 E107.35897
G0 F7500 X108.419 Y126.34
G1 F1350 X126.099 Y108.659 E108.52326
G0 F7500 X126.665 Y108.659
G1 F1350 X108.984 Y126.34 E109.68759
G0 F7500 X109.55 Y126.34
G1 F1350 X127.231 Y108.659 E110.85191
G0 F7500 X127.796 Y108.659
G1 F1350 X110.116 Y126.34 E112.0162
G0 F7500 X110.682 Y126.34
G1 F1350 X128.362 Y108.659 E113.18049
G0 F7500 X128.928 Y108.659
G1 F1350 X111.247 Y126.34 E114.34482
G0 F7500 X111.813 Y126.34
G1 F1350 X129.493 Y108.659 E115.50911
G0 F7500 X130.059 Y108.659
G1 F1350 X112.379 Y126.34 E116.6734
G0 F7500 X112.944 Y126.34
G1 F1350 X130.625 Y108.659 E117.83772
G0 F7500 X130.838 Y109.011
G1 F1350 X113.51 Y126.34 E118.97883
G0 F7500 X114.076 Y126.34
G1 F1350 X130.838 Y109.577 E120.08267
G0 F7500 X130.838 Y110.143
G1 F1350 X114.641 Y126.34 E121.14927
G0 F7500 X115.207 Y126.34
G1 F1350 X130.838 Y110.708 E122.17864
G0 F7500 X130.838 Y111.274
G1 F1350 X115.773 Y126.34 E123.17072
G0 F7500 X116.338 Y126.34
G1 F1350 X130.838 Y111.84 E124.12557
G0 F7500 X130.838 Y112.405
G1 F1350 X116.904 Y126.34 E125.04318
G0 F7500 X117.47 Y126.34
G1 F1350 X130.838 Y112.971 E125.92352
G0 F7500 X130.838 Y113.537
G1 F1350 X118.035 Y126.34 E126.76662
G0 F7500 X118.601 Y126.34
G1 F1350 X130.838 Y114.102 E127.57248
G0 F7500 X130.838 Y114.668
G1 F1350 X119.167 Y126.34 E128.34107
G0 F7500 X119.732 Y126.34
G1 F1350 X130.838 Y115.234 E129.07242
G0 F7500 X130.838 Y115.8
G1 F1350 X120.298 Y126.34 E129.7665
G0 F7500 X120.864 Y126.34
G1 F1350 X130.838 Y116.365 E130.42333
G0 F7500 X130.838 Y116.931
G1 F1350 X121.43 Y126.34 E131.0429
G0 F7500 X121.995 Y126.34
G1 F1350 X130.838 Y117.497 E131.62523
G0 F7500 X130.838 Y118.062
G1 F1350 X122.561 Y126.34 E132.17031
G0 F7500 X123.127 Y126.34
G1 F1350 X130.838 Y118.628 E132.67813
G0 F7500 X130.838 Y119.194
G1 F1350 X123.692 Y126.34 E133.14871
G0 F7500 X124.258 Y126.34
G1 F1350 X130.838 Y119.759 E133.58204
G0 F7500 X130.838 Y120.325
G1 F1350 X124.824 Y126.34 E133.97811
G0 F7500 X125.389 Y126.34
G1 F1350 X130.838 Y120.891 E134.33693
G0 F7500 X130.838 Y121.456
G1 F1350 X125.955 Y126.34 E134.65852
G0 F7500 X126.521 Y126.34
G1 F1350 X130.838 Y122.022 E134.94284
G0 F7500 X130.838 Y122.588
G1 F1350 X127.086 Y126.34 E135.18991
G0 F7500 X127.652 Y126.34
G1 F1350 X130.838 Y123.153 E135.39975
G0 F7500 X130.838 Y123.719
G1 F1350 X128.218 Y126.34 E135.57231
G0 F7500 X128.783 Y126.34
G1 F1350 X130.838 Y124.285 E135.70764
G0 F7500 X130.838 Y124.851
G1 F1350 X129.349 Y126.34 E135.80569
G0 F7500 X129.915 Y126.34
G1 F1350 X130.838 Y125.416 E135.86651
G0 F7500 X130.838 Y125.982
G1 F1350 X130.481 Y126.34 E135.89005
G1 F1500 E129.39005
;MESH:NONMESH
G0 F300 X130.481 Y126.34 Z0.84
G0 F7500 X130.481 Y126.8
G0 X103.58 Y126.92
G1 F1500 E135.89005
G0 F7500 X103.2 Y127.3
;TIME_ELAPSED:157.562285
;LAYER:2
M106 S170
;TYPE:WALL-OUTER
;MESH:microswitch cover.stl
G1 F1500 X131.8 Y127.3 E137.22178
G1 X131.8 Y117.5 E137.67811
G1 X131.8 Y107.7 E138.13444
G1 X103.2 Y107.7 E139.46618
G1 X103.2 Y127.3 E140.37883
G0 F9000 X103.6 Y126.9
;TYPE:WALL-INNER
G1 F1500 X131.4 Y126.9 E141.67332
G1 X131.4 Y117.5 E142.11102
G1 X131.4 Y108.1 E142.54873
G1 X103.6 Y108.1 E143.84321
G1 X103.6 Y126.9 E144.71862
G0 F9000 X103.96 Y126.54
;TYPE:SKIN
G1 F1500 X131.04 Y126.54 E145.97958
G1 X131.04 Y117.5 E146.40052
G1 X131.04 Y108.46 E146.82146
G1 X103.96 Y108.46 E148.08241
G1 X103.96 Y126.54 E148.92429
G0 F9000 X104.277 Y126.339
G1 F1500 X104.16 Y126.222 E148.932
G0 F9000 X104.16 Y125.656
G1 F1500 X104.843 Y126.339 E148.97698
G0 F9000 X105.409 Y126.339
G1 F1500 X104.16 Y125.09 E149.05923
G0 F9000 X104.16 Y124.525
G1 F1500 X105.974 Y126.339 E149.17868
G0 F9000 X106.54 Y126.339
G1 F1500 X104.16 Y123.959 E149.33541
G0 F9000 X104.16 Y123.393
G1 F1500 X107.106 Y126.339 E149.52941
G0 F9000 X107.671 Y126.339
G1 F1500 X104.16 Y122.827 E149.76064
G0 F9000 X104.16 Y122.262
G1 F1500 X108.237 Y126.339 E150.02912
G0 F9000 X108.803 Y126.339
G1 F1500 X104.16 Y121.696 E150.33487
G0 F9000 X104.16 Y121.13
G1 F1500 X109.368 Y126.339 E150.67786
G0 F9000 X109.934 Y126.339
G1 F1500 X104.16 Y120.565 E151.05809
G0 F9000 X104.16 Y119.999
G1 F1500 X110.5 Y126.339 E151.47559
G0 F9000 X111.065 Y126.339
G1 F1500 X104.16 Y119.433 E151.93033
G0 F9000 X104.16 Y118.868
G1 F1500 X111.631 Y126.339 E152.4223
G0 F9000 X112.197 Y126.339
G1 F1500 X104.16 Y118.302 E152.95155
G0 F9000 X104.16 Y117.736
G1 F1500 X112.763 Y126.339 E153.51808
G0 F9000 X113.328 Y126.339
G1 F1500 X104.16 Y117.171 E154.12181
G0 F9000 X104.16 Y116.605
G1 F1500 X113.894 Y126.339 E154.76281
G0 F9000 X114.46 Y126.339
G1 F1500 X104.16 Y116.039 E155.44108
G0 F9000 X104.16 Y115.474
G1 F1500 X115.025 Y126.339 E156.15656
G0 F9000 X115.591 Y126.339
G1 F1500 X104.16 Y114.908 E156.90931
G0 F9000 X104.16 Y114.342
G1 F1500 X116.157 Y126.339 E157.69933
G0 F9000 X116.722 Y126.339
G1 F1500 X104.16 Y113.777 E158.52656
G0 F9000 X104.16 Y113.211
G1 F1500 X117.288 Y126.339 E159.39106
G0 F9000 X117.854 Y126.339
G1 F1500 X104.16 Y112.645 E160.29284
G0 F9000 X104.16 Y112.079
G1 F1500 X118.419 Y126.339 E161.23185
G0 F9000 X118.985 Y126.339
G1 F1500 X104.16 Y111.514 E162.2081
G0 F9000 X104.16 Y110.948
G1 F1500 X119.551 Y126.339 E163.22162
G0 F9000 X120.116 Y126.339
G1 F1500 X104.16 Y110.382 E164.27239
G0 F9000 X104.16 Y109.817
G1 F1500 X120.682 Y126.339 E165.36039
G0 F9000 X121.248 Y126.339
G1 F1500 X104.16 Y109.251 E166.48566
G0 F9000 X104.16 Y108.685
G1 F1500 X121.813 Y126.339 E167.64817
G0 F9000 X122.379 Y126.339
G1 F1500 X104.699 Y108.659 E168.81243
G0 F9000 X105.265 Y108.659
G1 F1500 X122.945 Y126.339 E169.97669
G0 F9000 X123.511 Y126.339
G1 F1500 X105.831 Y108.659 E171.14095
G0 F9000 X106.396 Y108.659
G1 F1500 X124.076 Y126.339 E172.30521
G0 F9000 X124.642 Y126.339
G1 F1500 X106.962 Y108.659 E173.46947
G0 F9000 X107.528 Y108.659
G1 F1500 X125.208 Y126.339 E174.63372
G0 F9000 X125.773 Y126.339
G1 F1500 X108.093 Y108.659 E175.79798
G0 F9000 X108.659 Y108.659
G1 F1500 X126.339 Y126.339 E176.96224
G0 F9000 X126.905 Y126.339
G1 F1500 X109.225 Y108.659 E178.1265
G0 F9000 X109.791 Y108.659
G1 F1500 X127.47 Y126.339 E179.29072
G0 F9000 X128.036 Y126.339
G1 F1500 X110.356 Y108.659 E180.45498
G0 F9000 X110.922 Y108.659
G1 F1500 X128.602 Y126.339 E181.61924
G0 F9000 X129.167 Y126.339
G1 F1500 X111.488 Y108.659 E182.78347
G0 F9000 X112.053 Y108.659
G1 F1500 X129.733 Y126.339 E183.94772
G0 F9000 X130.299 Y126.339
G1 F1500 X112.619 Y108.659 E185.11198
G0 F9000 X113.185 Y108.659
G1 F1500 X130.839 Y126.314 E186.27456
G0 F9000 X130.839 Y125.748
