;FLAVOR:Marlin
;TIME:209
;Filament used: 0.112133m
;Layer height: 0.28
;MINX:102.853
;MINY:112.196
;MINZ:0.28
;MAXX:132.147
;MAXY:122.804
;MAXZ:3.08
;Generated with Cura_SteamEngine 5.0.0
M140 S60
M105
M190 S60
M104 S200
M105
M109 S200
M82 ;absolute extrusion mode
; Ender 3 Custom Start G-code
G92 E0 ; Reset Extruder
G28 ; Home all axes
G1 Z2.0 F3000 ; Move Z Axis up little to prevent scratching of Heat Bed
G1 X0.1 Y20 Z0.3 F5000.0 ; Move to start position
G1 X0.1 Y200.0 Z0.3 F1500.0 E15 ; Draw the first line
G1 X0.4 Y200.0 Z0.3 F5000.0 ; Move to side a little
G1 X0.4 Y20 Z0.3 F1500.0 E30 ; Draw the second line
G92 E0 ; Reset Extruder
G1 Z2.0 F3000 ; Move Z Axis up little to prevent scratching of Heat Bed
G1 X5 Y20 Z0.3 F5000.0 ; Move over to prevent blob squish
G92 E0
G92 E0
G1 F1500 E-6.5
;LAYER_COUNT:11
;LAYER:0
M107
;MESH:solder T connector.stl
G0 F6000 X111.453 Y122.796 Z0.28
;TYPE:WALL-OUTER
G1 F1500 E0
G1 F1200 X111.453 Y116.996 E0.27007
G1 X111.511 Y116.854 E0.27721
G1 X112.511 Y115.854 E0.34307
G1 X112.653 Y115.796 E0.35021
G1 X116.453 Y115.796 E0.52715
G1 X116.453 Y113.996 E0.61097
G1 X116.453 Y112.196 E0.69478
G1 X102.853 Y112.196 E1.32806
G1 X102.853 Y115.796 E1.49569
G1 X106.653 Y115.796 E1.67263
G1 X106.795 Y115.854 E1.67977
G1 X107.795 Y116.854 E1.74563
G1 X107.853 Y116.996 E1.75277
G1 X107.853 Y122.796 E2.02284
G1 X111.453 Y122.796 E2.19047
G0 F6000 X111.053 Y122.396
;TYPE:WALL-INNER
G1 F1200 X111.053 Y116.996 E2.44192
G1 X111.116 Y116.727 E2.45478
G1 X111.278 Y116.521 E2.46699
G1 X112.228 Y115.571 E2.52955
G1 X112.414 Y115.445 E2.54001
G1 X112.653 Y115.396 E2.55137
G1 X116.053 Y115.396 E2.70968
G1 X116.053 Y113.996 E2.77487
G1 X116.053 Y112.596 E2.84006
G1 X103.253 Y112.596 E3.43609
G1 X103.253 Y115.396 E3.56647
G1 X106.653 Y115.396 E3.72478
G1 X106.892 Y115.445 E3.73614
G1 X107.078 Y115.571 E3.74661
G1 X108.078 Y116.571 E3.81246
G1 X108.236 Y116.85 E3.82739
G1 X108.253 Y116.996 E3.83423
G1 X108.253 Y122.396 E4.08568
G1 X111.053 Y122.396 E4.21606
G0 F6000 X110.693 Y122.036
;TYPE:SKIN
G1 F1200 X110.693 Y117.002 E4.45046
G1 X110.774 Y116.616 E4.46883
G1 X110.952 Y116.341 E4.48408
G1 X111.022 Y116.267 E4.48882
G1 X111.97 Y115.319 E4.55125
G1 X112.24 Y115.131 E4.56657
G1 X112.618 Y115.039 E4.58469
G1 X112.658 Y115.036 E4.58655
G1 X115.693 Y115.036 E4.72788
G1 X115.693 Y113.996 E4.7763
G1 X115.693 Y112.956 E4.82473
G1 X103.613 Y112.956 E5.38723
G1 X103.613 Y115.036 E5.48408
G1 X106.648 Y115.036 E5.6254
G1 X106.996 Y115.103 E5.6419
G1 X107.308 Y115.298 E5.65904
G1 X107.336 Y115.321 E5.66072
G1 X108.33 Y116.315 E5.72618
G1 X108.498 Y116.541 E5.73929
G1 X108.608 Y116.953 E5.75915
G1 X108.613 Y117.002 E5.76144
G1 X108.613 Y122.036 E5.99585
G1 X110.693 Y122.036 E6.0927
G0 F6000 X110.953 Y122.036
G0 X109.39 Y122.296
G0 X109.39 Y121.835
G1 F1200 X108.813 Y121.258 E6.1307
G0 F6000 X108.813 Y120.692
G1 F1200 X109.955 Y121.835 E6.20593
G0 F6000 X110.493 Y121.806
G1 F1200 X108.813 Y120.126 E6.31656
G0 F6000 X108.813 Y119.561
G1 F1200 X110.493 Y121.241 E6.42719
G0 F6000 X110.493 Y120.675
G1 F1200 X108.813 Y118.995 E6.53782
G0 F6000 X108.813 Y118.429
G1 F1200 X110.493 Y120.109 E6.64845
G0 F6000 X110.493 Y119.544
G1 F1200 X108.813 Y117.864 E6.75909
G0 F6000 X108.813 Y117.298
G1 F1200 X110.493 Y118.978 E6.86972
G0 F6000 X110.493 Y118.412
G1 F1200 X108.743 Y116.663 E6.98492
G0 F6000 X108.33 Y116.817
G0 X108.425 Y122.224
G0 X110.881 Y122.224
G0 X110.973 Y116.824
G0 X110.539 Y116.761
G1 F1200 X106.933 Y113.156 E7.22235
G0 F6000 X106.367 Y113.156
G1 F1200 X110.493 Y117.281 E7.49402
G0 F6000 X110.493 Y117.847
G1 F1200 X105.802 Y113.156 E7.80293
G0 F6000 X105.236 Y113.156
G1 F1200 X106.997 Y114.916 E7.91887
G0 F6000 X106.349 Y114.834
G1 F1200 X104.67 Y113.156 E8.0294
G0 F6000 X104.105 Y113.156
G1 F1200 X105.783 Y114.834 E8.1399
G0 F6000 X105.218 Y114.834
G1 F1200 X103.813 Y113.429 E8.23242
G0 F6000 X103.813 Y113.995
G1 F1200 X104.652 Y114.834 E8.28767
G0 F6000 X104.086 Y114.834
G1 F1200 X103.813 Y114.561 E8.30565
G0 F6000 X103.353 Y114.561
G0 X103.425 Y112.768
G0 X107.499 Y112.696
G0 X107.499 Y113.156
G1 F1200 X110.698 Y116.355 E8.51631
G0 F6000 X110.96 Y116.051
G1 F1200 X108.065 Y113.156 E8.70695
G0 F6000 X108.63 Y113.156
G1 F1200 X111.242 Y115.767 E8.87892
G0 F6000 X111.523 Y115.483
G1 F1200 X109.196 Y113.156 E9.03215
G0 F6000 X109.762 Y113.156
G1 F1200 X111.805 Y115.199 E9.16669
G0 F6000 X112.147 Y114.976
G1 F1200 X110.327 Y113.156 E9.28654
G0 F6000 X110.893 Y113.156
G1 F1200 X112.579 Y114.841 E9.39753
G0 F6000 X113.142 Y114.839
G1 F1200 X111.459 Y113.156 E9.50836
G0 F6000 X112.024 Y113.156
G1 F1200 X113.707 Y114.838 E9.61916
G0 F6000 X114.271 Y114.837
G1 F1200 X112.59 Y113.156 E9.72985
G0 F6000 X113.156 Y113.156
G1 F1200 X114.836 Y114.836 E9.84048
G0 F6000 X115.401 Y114.836
G1 F1200 X113.721 Y113.156 E9.95112
G0 F6000 X114.287 Y113.156
G1 F1200 X115.492 Y114.361 E10.03047
G0 F6000 X115.492 Y113.795
G1 F1200 X114.853 Y113.156 E10.07255
G0 F6000 X115.418 Y113.156
G1 F1200 X115.492 Y113.229 E10.07739
G1 F1500 E3.57739
G0 F6000 X115.953 Y113.229
G0 X116.229 Y115.572
G0 X117.318 Y115.572
G0 X117.694 Y116.657
G0 X122.686 Y117.278
G0 X123.775 Y116.827
G0 X123.927 Y122.424
G1 F1500 E10.07739
G0 F6000 X123.547 Y122.804
;TYPE:WALL-OUTER
G1 F1200 X127.147 Y122.804 E10.24502
G1 X127.147 Y117.004 E10.51509
G1 X127.205 Y116.862 E10.52223
G1 X128.205 Y115.862 E10.58808
G1 X128.347 Y115.804 E10.59523
G1 X132.147 Y115.804 E10.77217
G1 X132.147 Y114.004 E10.85599
G1 X132.147 Y112.204 E10.9398
G1 X118.547 Y112.204 E11.57307
G1 X118.547 Y115.804 E11.74071
G1 X122.347 Y115.804 E11.91765
G1 X122.489 Y115.862 E11.92479
G1 X123.489 Y116.862 E11.99064
G1 X123.547 Y117.004 E11.99779
G1 X123.547 Y122.804 E12.26786
G0 F6000 X123.947 Y122.404
;TYPE:WALL-INNER
G1 F1200 X126.747 Y122.404 E12.39824
G1 X126.747 Y117.004 E12.64968
G1 X126.81 Y116.735 E12.66255
G1 X126.972 Y116.529 E12.67475
G1 X127.922 Y115.579 E12.73731
G1 X128.108 Y115.453 E12.74777
G1 X128.347 Y115.404 E12.75913
G1 X131.747 Y115.404 E12.91745
G1 X131.747 Y114.004 E12.98264
G1 X131.747 Y112.604 E13.04783
G1 X118.947 Y112.604 E13.64385
G1 X118.947 Y115.404 E13.77423
G1 X122.347 Y115.404 E13.93255
G1 X122.586 Y115.453 E13.94391
G1 X122.772 Y115.579 E13.95437
G1 X123.772 Y116.579 E14.02022
G1 X123.93 Y116.858 E14.03515
G1 X123.947 Y117.004 E14.042
G1 X123.947 Y122.404 E14.29344
G0 F6000 X124.307 Y122.044
;TYPE:SKIN
G1 F1200 X126.387 Y122.044 E14.3903
G1 X126.387 Y117.01 E14.6247
G1 X126.468 Y116.624 E14.64307
G1 X126.646 Y116.349 E14.65832
G1 X126.716 Y116.275 E14.66306
G1 X127.664 Y115.327 E14.72549
G1 X127.934 Y115.139 E14.74081
G1 X128.312 Y115.047 E14.75893
G1 X128.352 Y115.044 E14.76079
G1 X131.387 Y115.044 E14.90212
G1 X131.387 Y112.964 E14.99897
G1 X122.342 Y112.964 E15.42014
G1 X119.307 Y112.964 E15.56147
G1 X119.307 Y115.044 E15.65832
G1 X122.342 Y115.044 E15.79964
G1 X122.69 Y115.111 E15.81614
G1 X123.002 Y115.306 E15.83327
G1 X123.03 Y115.329 E15.83496
G1 X124.024 Y116.323 E15.90042
G1 X124.192 Y116.549 E15.91353
G1 X124.302 Y116.961 E15.93339
G1 X124.307 Y117.01 E15.93568
G1 X124.307 Y122.044 E16.17009
G0 F6000 X124.506 Y121.678
G1 F1200 X124.672 Y121.843 E16.18098
G0 F6000 X125.237 Y121.843
G1 F1200 X124.506 Y121.112 E16.22912
G0 F6000 X124.506 Y120.546
G1 F1200 X125.803 Y121.843 E16.31453
G0 F6000 X126.186 Y121.661
G1 F1200 X124.506 Y119.981 E16.42516
G0 F6000 X124.506 Y119.415
G1 F1200 X126.186 Y121.095 E16.53579
G0 F6000 X126.186 Y120.529
G1 F1200 X124.506 Y118.849 E16.64642
G0 F6000 X124.506 Y118.284
G1 F1200 X126.186 Y119.964 E16.75705
G0 F6000 X126.186 Y119.398
G1 F1200 X124.506 Y117.718 E16.86769
G0 F6000 X124.506 Y117.152
G1 F1200 X126.186 Y118.832 E16.97832
G0 F6000 X126.186 Y118.267
G1 F1200 X124.353 Y116.433 E17.09906
G0 F6000 X123.963 Y116.675
G0 X124.119 Y122.232
G0 X126.575 Y122.232
G0 X126.678 Y116.803
G0 X126.263 Y116.647
G1 F1200 X122.78 Y113.163 E17.32845
G0 F6000 X122.214 Y113.163
G1 F1200 X126.186 Y117.135 E17.59001
G0 F6000 X126.186 Y117.701
G1 F1200 X121.649 Y113.163 E17.88882
G0 F6000 X121.083 Y113.163
G1 F1200 X122.95 Y115.03 E18.01176
G0 F6000 X122.197 Y114.844
G1 F1200 X120.517 Y113.163 E18.12242
G0 F6000 X119.952 Y113.163
G1 F1200 X121.632 Y114.844 E18.23309
G0 F6000 X121.066 Y114.844
G1 F1200 X119.506 Y113.284 E18.33582
G0 F6000 X119.506 Y113.849
G1 F1200 X120.5 Y114.844 E18.40131
G0 F6000 X119.935 Y114.844
G1 F1200 X119.506 Y114.415 E18.42956
G0 F6000 X119.047 Y114.415
G0 X119.119 Y112.776
G0 X123.346 Y112.704
G0 X123.346 Y113.163
G1 F1200 X126.455 Y116.273 E18.63432
G0 F6000 X126.73 Y115.982
G1 F1200 X123.911 Y113.163 E18.81996
G0 F6000 X124.477 Y113.163
G1 F1200 X127.011 Y115.698 E18.98686
G0 F6000 X127.294 Y115.414
G1 F1200 X125.043 Y113.163 E19.13509
G0 F6000 X125.609 Y113.163
G1 F1200 X127.581 Y115.136 E19.26498
G0 F6000 X127.938 Y114.928
G1 F1200 X126.174 Y113.163 E19.38118
G0 F6000 X126.74 Y113.163
G1 F1200 X128.424 Y114.848 E19.49211
G0 F6000 X128.989 Y114.847
G1 F1200 X127.306 Y113.163 E19.60297
G0 F6000 X127.871 Y113.163
G1 F1200 X129.553 Y114.846 E19.71376
G0 F6000 X130.118 Y114.845
G1 F1200 X128.437 Y113.163 E19.82449
G0 F6000 X129.003 Y113.163
G1 F1200 X130.683 Y114.844 E19.93516
G0 F6000 X131.186 Y114.781
G1 F1200 X129.568 Y113.163 E20.04171
G0 F6000 X130.134 Y113.163
G1 F1200 X131.186 Y114.216 E20.11101
G0 F6000 X131.186 Y113.65
G1 F1200 X130.7 Y113.163 E20.14305
G1 F1500 E13.64305
;MESH:NONMESH
G0 F300 X130.7 Y113.163 Z0.56
G0 F6000 X130.7 Y112.704
G0 X119.147 Y112.804
G0 X117.682 Y112.804
G0 X117.318 Y112.804
G0 X116.223 Y112.804
G0 X115.881 Y115.224
G0 X112.468 Y115.55
G0 X111.207 Y116.811
G0 X111.073 Y122.416
G1 F1500 E20.14305
G0 F6000 X111.453 Y122.796
;TIME_ELAPSED:36.099415
;LAYER:1
M106 S85
;TYPE:WALL-OUTER
;MESH:solder T connector.stl
G1 F1350 X111.453 Y116.996 E20.41312
G1 X111.511 Y116.854 E20.42027
G1 X112.511 Y115.854 E20.48612
G1 X112.653 Y115.796 E20.49326
G1 X116.453 Y115.796 E20.6702
G1 X116.453 Y113.996 E20.75402
G1 X116.453 Y112.196 E20.83783
G1 X102.853 Y112.196 E21.47111
G1 X102.853 Y115.796 E21.63874
G1 X106.653 Y115.796 E21.81568
G1 X106.795 Y115.854 E21.82283
G1 X107.795 Y116.854 E21.88868
G1 X107.853 Y116.996 E21.89582
G1 X107.853 Y122.796 E22.16589
G1 X111.453 Y122.796 E22.33352
G0 F7500 X111.053 Y122.396
;TYPE:WALL-INNER
G1 F1350 X111.053 Y116.996 E22.58497
G1 X111.116 Y116.727 E22.59783
G1 X111.278 Y116.521 E22.61004
G1 X112.228 Y115.571 E22.6726
G1 X112.414 Y115.445 E22.68306
G1 X112.653 Y115.396 E22.69442
G1 X116.053 Y115.396 E22.85274
G1 X116.053 Y113.996 E22.91793
G1 X116.053 Y112.596 E22.98312
G1 X103.253 Y112.596 E23.57914
G1 X103.253 Y115.396 E23.70952
G1 X106.653 Y115.396 E23.86783
G1 X106.892 Y115.445 E23.8792
G1 X107.078 Y115.571 E23.88966
G1 X108.078 Y116.571 E23.95551
G1 X108.236 Y116.85 E23.97044
G1 X108.253 Y116.996 E23.97728
G1 X108.253 Y122.396 E24.22873
G1 X111.053 Y122.396 E24.35911
G0 F7500 X110.693 Y122.036
;TYPE:SKIN
G1 F1350 X110.693 Y117.002 E24.59351
G1 X110.774 Y116.616 E24.61188
G1 X110.952 Y116.341 E24.62713
G1 X111.022 Y116.267 E24.63187
G1 X111.97 Y115.319 E24.6943
G1 X112.24 Y115.131 E24.70962
G1 X112.618 Y115.039 E24.72774
G1 X112.658 Y115.036 E24.7296
G1 X115.693 Y115.036 E24.87093
G1 X115.693 Y112.956 E24.96778
G1 X103.613 Y112.956 E25.53028
G1 X103.613 Y115.036 E25.62713
G1 X106.648 Y115.036 E25.76845
G1 X106.996 Y115.103 E25.78495
G1 X107.308 Y115.298 E25.80209
G1 X107.336 Y115.321 E25.80377
G1 X108.33 Y116.315 E25.86923
G1 X108.498 Y116.541 E25.88234
G1 X108.608 Y116.953 E25.9022
G1 X108.613 Y117.002 E25.90449
G1 X108.613 Y122.036 E26.1389
G1 X110.693 Y122.036 E26.23575
G0 F7500 X110.095 Y121.835
G1 F1350 X110.493 Y121.437 E26.26196
G0 F7500 X110.493 Y120.872
G1 F1350 X109.53 Y121.835 E26.32537
G0 F7500 X108.964 Y121.835
G1 F1350 X110.493 Y120.306 E26.42606
G0 F7500 X110.493 Y119.74
G1 F1350 X108.813 Y121.42 E26.53669
G0 F7500 X108.813 Y120.855
G1 F1350 X110.493 Y119.175 E26.64732
G0 F7500 X110.493 Y118.609
G1 F1350 X108.813 Y120.289 E26.75795
G0 F7500 X108.813 Y119.723
G1 F1350 X110.493 Y118.043 E26.86859
G0 F7500 X110.493 Y117.478
G1 F1350 X108.813 Y119.158 E26.97922
G0 F7500 X108.813 Y118.592
G1 F1350 X110.503 Y116.902 E27.09051
G0 F7500 X110.958 Y116.956
G0 X110.881 Y122.224
G0 X108.425 Y122.224
G0 X108.349 Y116.964
G0 X108.795 Y116.913
G1 F1350 X112.553 Y113.155 E27.33798
G0 F7500 X113.118 Y113.155
G1 F1350 X108.813 Y117.461 E27.6215
G0 F7500 X108.813 Y118.026
G1 F1350 X113.684 Y113.155 E27.94226
G0 F7500 X114.25 Y113.155
G1 F1350 X112.558 Y114.846 E28.05365
G0 F7500 X113.131 Y114.839
G1 F1350 X114.815 Y113.155 E28.16455
G0 F7500 X115.381 Y113.155
G1 F1350 X113.697 Y114.839 E28.27544
G0 F7500 X114.264 Y114.838
G1 F1350 X115.492 Y113.61 E28.35631
G0 F7500 X115.492 Y114.175
G1 F1350 X114.83 Y114.837 E28.3999
G0 F7500 X115.396 Y114.836
G1 F1350 X115.492 Y114.741 E28.40619
G0 F7500 X115.953 Y114.741
G0 X115.881 Y112.768
G0 X111.987 Y112.696
G0 X111.987 Y113.155
G1 F1350 X108.678 Y116.464 E28.62409
G0 F7500 X108.437 Y116.139
G1 F1350 X111.421 Y113.155 E28.82059
G0 F7500 X110.855 Y113.155
G1 F1350 X108.154 Y115.856 E28.99846
G0 F7500 X107.871 Y115.573
G1 F1350 X110.29 Y113.155 E29.15772
G0 F7500 X109.724 Y113.155
G1 F1350 X107.589 Y115.29 E29.29832
G0 F7500 X107.277 Y115.037
G1 F1350 X109.158 Y113.155 E29.42222
G0 F7500 X108.593 Y113.155
G1 F1350 X106.867 Y114.881 E29.53588
G0 F7500 X106.347 Y114.835
G1 F1350 X108.027 Y113.155 E29.64651
G0 F7500 X107.461 Y113.155
G1 F1350 X105.781 Y114.835 E29.75714
G0 F7500 X105.216 Y114.835
G1 F1350 X106.896 Y113.155 E29.86777
G0 F7500 X106.33 Y113.155
G1 F1350 X104.65 Y114.835 E29.9784
G0 F7500 X104.084 Y114.835
G1 F1350 X105.764 Y113.155 E30.08903
G0 F7500 X105.199 Y113.155
G1 F1350 X103.813 Y114.541 E30.1803
G0 F7500 X103.813 Y113.975
G1 F1350 X104.633 Y113.155 E30.2343
G0 F7500 X104.067 Y113.155
G1 F1350 X103.813 Y113.41 E30.25106
G1 F1500 E23.75106
G0 F7500 X103.353 Y113.41
G0 X103.425 Y115.224
G0 X106.838 Y115.55
G0 X108.099 Y116.811
G0 X108.425 Y122.224
G0 X111.223 Y122.424
G0 X112.318 Y122.424
G0 X122.682 Y122.424
G0 X123.777 Y122.424
G1 F1500 E30.25106
G0 F7500 X123.547 Y122.804
;TYPE:WALL-OUTER
G1 F1350 X127.147 Y122.804 E30.41869
G1 X127.147 Y117.004 E30.68876
G1 X127.205 Y116.862 E30.6959
G1 X128.205 Y115.862 E30.76176
G1 X128.347 Y115.804 E30.7689
G1 X132.147 Y115.804 E30.94584
G1 X132.147 Y112.204 E31.11347
G1 X118.547 Y112.204 E31.74675
G1 X118.547 Y115.804 E31.91438
G1 X122.347 Y115.804 E32.09132
G1 X122.427 Y115.82 E32.09512
G1 X122.489 Y115.862 E32.09861
G1 X123.489 Y116.862 E32.16446
G1 X123.547 Y117.004 E32.1716
G1 X123.547 Y122.804 E32.44167
G0 F7500 X123.947 Y122.404
;TYPE:WALL-INNER
G1 F1350 X126.747 Y122.404 E32.57205
G1 X126.747 Y117.004 E32.8235
G1 X126.81 Y116.735 E32.83636
G1 X126.972 Y116.529 E32.84857
G1 X127.922 Y115.579 E32.91113
G1 X128.108 Y115.453 E32.92159
G1 X128.347 Y115.404 E32.93295
G1 X131.747 Y115.404 E33.09127
G1 X131.747 Y112.604 E33.22165
G1 X118.947 Y112.604 E33.81767
G1 X118.947 Y115.404 E33.94805
G1 X122.347 Y115.404 E34.10637
G1 X122.586 Y115.453 E34.11773
G1 X122.772 Y115.579 E34.12819
G1 X123.772 Y116.579 E34.19404
G1 X123.93 Y116.858 E34.20897
G1 X123.947 Y117.004 E34.21581
G1 X123.947 Y122.404 E34.46726
G0 F7500 X124.307 Y122.044
;TYPE:SKIN
G1 F1350 X126.387 Y122.044 E34.56411
G1 X126.387 Y117.01 E34.79852
G1 X126.468 Y116.624 E34.81688
G1 X126.646 Y116.349 E34.83214
G1 X126.716 Y116.275 E34.83688
G1 X127.664 Y115.327 E34.89931
G1 X127.934 Y115.139 E34.91463
G1 X128.312 Y115.047 E34.93274
G1 X128.352 Y115.044 E34.93461
G1 X131.387 Y115.044 E35.07593
G1 X131.387 Y114.004 E35.12436
G1 X131.387 Y112.964 E35.17279
G1 X119.307 Y112.964 E35.73528
G1 X119.307 Y115.044 E35.83213
G1 X122.342 Y115.044 E35.97346
G1 X122.69 Y115.111 E35.98996
G1 X123.002 Y115.306 E36.00709
G1 X123.03 Y115.329 E36.00878
G1 X124.024 Y116.323 E36.07423
G1 X124.192 Y116.549 E36.08735
G1 X124.302 Y116.961 E36.1072
G1 X124.307 Y117.01 E36.1095
G1 X124.307 Y122.044 E36.3439
G0 F7500 X124.047 Y122.044
G0 X126.575 Y122.232
G0 X126.647 Y121.584
G0 X126.186 Y121.584
