;FLAVOR:Marlin
;TIME:1195
;Filament used: 1.0867m
;Layer height: 0.28
;MINX:114.7
;MINY:77.7
;MINZ:0.28
;MAXX:120.3
;MAXY:157.3
;MAXZ:8.96
;Generated with Cura_SteamEngine 5.0.0
M140 S60
M105
M190 S60
M104 S200
M105
M109 S200
M82 ;absolute extrusion mode
; Ender 3 Custom Start G-code
G92 E0 ; Reset Extruder
G28 ; Home all axes
G1 Z2.0 F3000 ; Move Z Axis up little to prevent scratching of Heat Bed
G1 X0.1 Y20 Z0.3 F5000.0 ; Move to start position
G1 X0.1 Y200.0 Z0.3 F1500.0 E15 ; Draw the first line
G1 X0.4 Y200.0 Z0.3 F5000.0 ; Move to side a little
G1 X0.4 Y20 Z0.3 F1500.0 E30 ; Draw the second line
G92 E0 ; Reset Extruder
G1 Z2.0 F3000 ; Move Z Axis up little to prevent scratching of Heat Bed
G1 X5 Y20 Z0.3 F5000.0 ; Move over to prevent blob squish
G92 E0
G92 E0
G1 F1500 E-6.5
;LAYER_COUNT:32
;LAYER:0
M107
;MESH:roof arm.stl
G0 F6000 X114.7 Y157.3 Z0.28
;TYPE:WALL-OUTER
G1 F1500 E0
G1 F1200 X120.3 Y157.3 E0.26076
G1 X120.3 Y80.5 E3.83689
G1 X120.3 Y77.7 E3.96727
G1 X114.7 Y77.7 E4.22803
G1 X114.7 Y157.3 E7.93454
G0 F6000 X115.1 Y156.9
;TYPE:WALL-INNER
G1 F1200 X119.9 Y156.9 E8.15805
G1 X119.9 Y80.5 E11.71555
G1 X119.9 Y78.1 E11.8273
G1 X115.1 Y78.1 E12.05081
G1 X115.1 Y156.9 E15.72007
G0 F6000 X115.46 Y156.54
;TYPE:SKIN
G1 F1200 X119.54 Y156.54 E15.91005
G1 X119.54 Y80.5 E19.45079
G1 X119.54 Y78.46 E19.54578
G1 X115.46 Y78.46 E19.73577
G1 X115.46 Y156.54 E23.3715
G0 F6000 X116.175 Y156.339
G1 F1200 X115.659 Y155.823 E23.40548
G0 F6000 X115.659 Y155.257
G1 F1200 X116.741 Y156.339 E23.47673
G0 F6000 X117.306 Y156.339
G1 F1200 X115.659 Y154.691 E23.58522
G0 F6000 X115.659 Y154.125
G1 F1200 X117.872 Y156.339 E23.73098
G0 F6000 X118.438 Y156.339
G1 F1200 X115.659 Y153.56 E23.91398
G0 F6000 X115.659 Y152.994
G1 F1200 X119.003 Y156.339 E24.13423
G0 F6000 X119.34 Y156.11
G1 F1200 X115.659 Y152.428 E24.37666
G0 F6000 X115.659 Y151.863
G1 F1200 X119.34 Y155.544 E24.61906
G0 F6000 X119.34 Y154.978
G1 F1200 X115.659 Y151.297 E24.86146
G0 F6000 X115.659 Y150.731
G1 F1200 X119.34 Y154.413 E25.10389
G0 F6000 X119.34 Y153.847
G1 F1200 X115.659 Y150.166 E25.34629
G0 F6000 X115.659 Y149.6
G1 F1200 X119.34 Y153.281 E25.58869
G0 F6000 X119.34 Y152.715
G1 F1200 X115.659 Y149.034 E25.83109
G0 F6000 X115.659 Y148.469
G1 F1200 X119.34 Y152.15 E26.07349
G0 F6000 X119.34 Y151.584
G1 F1200 X115.659 Y147.903 E26.31589
G0 F6000 X115.659 Y147.337
G1 F1200 X119.34 Y151.018 E26.55829
G0 F6000 X119.34 Y150.453
G1 F1200 X115.659 Y146.772 E26.80069
G0 F6000 X115.659 Y146.206
G1 F1200 X119.34 Y149.887 E27.04309
G0 F6000 X119.34 Y149.321
G1 F1200 X115.659 Y145.64 E27.28549
G0 F6000 X115.659 Y145.074
G1 F1200 X119.34 Y148.756 E27.52793
G0 F6000 X119.34 Y148.19
G1 F1200 X115.659 Y144.509 E27.77033
G0 F6000 X115.659 Y143.943
G1 F1200 X119.34 Y147.624 E28.01273
G0 F6000 X119.34 Y147.059
G1 F1200 X115.659 Y143.377 E28.25516
G0 F6000 X115.659 Y142.812
G1 F1200 X119.34 Y146.493 E28.49756
G0 F6000 X119.34 Y145.927
G1 F1200 X115.659 Y142.246 E28.73996
G0 F6000 X115.659 Y141.68
G1 F1200 X119.34 Y145.362 E28.98239
G0 F6000 X119.34 Y144.796
G1 F1200 X115.659 Y141.115 E29.22479
G0 F6000 X115.659 Y140.549
G1 F1200 X119.34 Y144.23 E29.46719
G0 F6000 X119.34 Y143.665
G1 F1200 X115.659 Y139.983 E29.70963
G0 F6000 X115.659 Y139.418
G1 F1200 X119.34 Y143.099 E29.95203
G0 F6000 X119.34 Y142.533
G1 F1200 X115.659 Y138.852 E30.19443
G0 F6000 X115.659 Y138.286
G1 F1200 X119.34 Y141.967 E30.43683
G0 F6000 X119.34 Y141.402
G1 F1200 X115.659 Y137.721 E30.67923
G0 F6000 X115.659 Y137.155
G1 F1200 X119.34 Y140.836 E30.92163
G0 F6000 X119.34 Y140.27
G1 F1200 X115.659 Y136.589 E31.16403
G0 F6000 X115.659 Y136.024
G1 F1200 X119.34 Y139.705 E31.40643
G0 F6000 X119.34 Y139.139
G1 F1200 X115.659 Y135.458 E31.64883
G0 F6000 X115.659 Y134.892
G1 F1200 X119.34 Y138.573 E31.89123
G0 F6000 X119.34 Y138.008
G1 F1200 X115.659 Y134.326 E32.13366
G0 F6000 X115.659 Y133.761
G1 F1200 X119.34 Y137.442 E32.37606
G0 F6000 X119.34 Y136.876
G1 F1200 X115.659 Y133.195 E32.61846
G0 F6000 X115.659 Y132.629
G1 F1200 X119.34 Y136.311 E32.86089
G0 F6000 X119.34 Y135.745
G1 F1200 X115.659 Y132.064 E33.10329
G0 F6000 X115.659 Y131.498
G1 F1200 X119.34 Y135.179 E33.34569
G0 F6000 X119.34 Y134.614
G1 F1200 X115.659 Y130.932 E33.58813
G0 F6000 X115.659 Y130.367
G1 F1200 X119.34 Y134.048 E33.83053
G0 F6000 X119.34 Y133.482
G1 F1200 X115.659 Y129.801 E34.07293
G0 F6000 X115.659 Y129.235
G1 F1200 X119.34 Y132.916 E34.31533
G0 F6000 X119.34 Y132.351
G1 F1200 X115.659 Y128.67 E34.55773
G0 F6000 X115.659 Y128.104
G1 F1200 X119.34 Y131.785 E34.80013
G0 F6000 X119.34 Y131.219
G1 F1200 X115.659 Y127.538 E35.04253
G0 F6000 X115.659 Y126.973
G1 F1200 X119.34 Y130.654 E35.28493
G0 F6000 X119.34 Y130.088
G1 F1200 X115.659 Y126.407 E35.52733
G0 F6000 X115.659 Y125.841
G1 F1200 X119.34 Y129.522 E35.76973
G0 F6000 X119.34 Y128.957
G1 F1200 X115.659 Y125.275 E36.01216
G0 F6000 X115.659 Y124.71
G1 F1200 X119.34 Y128.391 E36.25456
G0 F6000 X119.34 Y127.825
G1 F1200 X115.659 Y124.144 E36.49696
G0 F6000 X115.659 Y123.578
G1 F1200 X119.34 Y127.26 E36.73939
G0 F6000 X119.34 Y126.694
G1 F1200 X115.659 Y123.013 E36.98179
G0 F6000 X115.659 Y122.447
G1 F1200 X119.34 Y126.128 E37.22419
G0 F6000 X119.34 Y125.563
G1 F1200 X115.659 Y121.881 E37.46663
G0 F6000 X115.659 Y121.316
G1 F1200 X119.34 Y124.997 E37.70903
G0 F6000 X119.34 Y124.431
G1 F1200 X115.659 Y120.75 E37.95143
G0 F6000 X115.659 Y120.184
G1 F1200 X119.34 Y123.866 E38.19386
G0 F6000 X119.34 Y123.3
G1 F1200 X115.659 Y119.619 E38.43626
G0 F6000 X115.659 Y119.053
G1 F1200 X119.34 Y122.734 E38.67866
G0 F6000 X119.34 Y122.168
G1 F1200 X115.659 Y118.487 E38.92106
G0 F6000 X115.659 Y117.922
G1 F1200 X119.34 Y121.603 E39.16346
G0 F6000 X119.34 Y121.037
G1 F1200 X115.658 Y117.355 E39.40593
G0 F6000 X115.658 Y116.789
G1 F1200 X119.34 Y120.471 E39.64839
G0 F6000 X119.34 Y119.906
G1 F1200 X115.658 Y116.224 E39.89086
G0 F6000 X115.658 Y115.658
G1 F1200 X119.34 Y119.34 E40.13333
G0 F6000 X119.34 Y118.774
G1 F1200 X115.658 Y115.092 E40.37579
G0 F6000 X115.658 Y114.527
G1 F1200 X119.34 Y118.209 E40.61826
G0 F6000 X119.34 Y117.643
G1 F1200 X115.658 Y113.961 E40.86072
G0 F6000 X115.658 Y113.395
G1 F1200 X119.34 Y117.077 E41.10319
G0 F6000 X119.34 Y116.512
G1 F1200 X115.658 Y112.83 E41.34566
G0 F6000 X115.658 Y112.264
G1 F1200 X119.34 Y115.946 E41.58812
G0 F6000 X119.34 Y115.38
G1 F1200 X115.658 Y111.698 E41.83059
G0 F6000 X115.658 Y111.133
G1 F1200 X119.34 Y114.815 E42.07305
G0 F6000 X119.34 Y114.249
G1 F1200 X115.658 Y110.567 E42.31552
G0 F6000 X115.658 Y110.001
G1 F1200 X119.34 Y113.683 E42.55799
G0 F6000 X119.34 Y113.117
G1 F1200 X115.658 Y109.436 E42.80042
G0 F6000 X115.658 Y108.87
G1 F1200 X119.34 Y112.552 E43.04288
G0 F6000 X119.34 Y111.986
G1 F1200 X115.658 Y108.304 E43.28535
G0 F6000 X115.658 Y107.739
G1 F1200 X119.34 Y111.42 E43.52778
G0 F6000 X119.34 Y110.855
G1 F1200 X115.658 Y107.173 E43.77025
G0 F6000 X115.658 Y106.607
G1 F1200 X119.34 Y110.289 E44.01272
G0 F6000 X119.34 Y109.723
G1 F1200 X115.658 Y106.041 E44.25518
G0 F6000 X115.658 Y105.476
G1 F1200 X119.34 Y109.158 E44.49765
G0 F6000 X119.34 Y108.592
G1 F1200 X115.658 Y104.91 E44.74011
G0 F6000 X115.658 Y104.344
G1 F1200 X119.34 Y108.026 E44.98258
G0 F6000 X119.34 Y107.461
G1 F1200 X115.658 Y103.779 E45.22505
G0 F6000 X115.658 Y103.213
G1 F1200 X119.34 Y106.895 E45.46751
G0 F6000 X119.34 Y106.329
G1 F1200 X115.658 Y102.647 E45.70998
G0 F6000 X115.658 Y102.082
G1 F1200 X119.34 Y105.764 E45.95244
G0 F6000 X119.34 Y105.198
G1 F1200 X115.658 Y101.516 E46.19491
G0 F6000 X115.658 Y100.95
G1 F1200 X119.34 Y104.632 E46.43738
G0 F6000 X119.34 Y104.067
G1 F1200 X115.658 Y100.385 E46.67984
G0 F6000 X115.658 Y99.819
G1 F1200 X119.34 Y103.501 E46.92231
G0 F6000 X119.34 Y102.935
G1 F1200 X115.658 Y99.253 E47.16477
G0 F6000 X115.658 Y98.688
G1 F1200 X119.34 Y102.369 E47.40721
G0 F6000 X119.34 Y101.804
G1 F1200 X115.658 Y98.122 E47.64967
G0 F6000 X115.658 Y97.556
G1 F1200 X119.34 Y101.238 E47.89214
G0 F6000 X119.34 Y100.672
G1 F1200 X115.658 Y96.991 E48.13457
G0 F6000 X115.658 Y96.425
G1 F1200 X119.34 Y100.107 E48.37704
G0 F6000 X119.34 Y99.541
G1 F1200 X115.658 Y95.859 E48.6195
G0 F6000 X115.658 Y95.293
G1 F1200 X119.34 Y98.975 E48.86197
G0 F6000 X119.34 Y98.41
G1 F1200 X115.658 Y94.728 E49.10444
G0 F6000 X115.658 Y94.162
G1 F1200 X119.34 Y97.844 E49.3469
G0 F6000 X119.34 Y97.278
G1 F1200 X115.658 Y93.596 E49.58937
G0 F6000 X115.658 Y93.031
G1 F1200 X119.34 Y96.713 E49.83183
G0 F6000 X119.34 Y96.147
G1 F1200 X115.658 Y92.465 E50.0743
G0 F6000 X115.658 Y91.899
G1 F1200 X119.34 Y95.581 E50.31677
G0 F6000 X119.34 Y95.016
G1 F1200 X115.658 Y91.334 E50.55923
G0 F6000 X115.658 Y90.768
G1 F1200 X119.34 Y94.45 E50.8017
G0 F6000 X119.34 Y93.884
G1 F1200 X115.658 Y90.202 E51.04416
G0 F6000 X115.658 Y89.637
G1 F1200 X119.34 Y93.319 E51.28663
G0 F6000 X119.34 Y92.753
G1 F1200 X115.658 Y89.071 E51.5291
G0 F6000 X115.658 Y88.505
G1 F1200 X119.34 Y92.187 E51.77156
G0 F6000 X119.34 Y91.621
G1 F1200 X115.658 Y87.94 E52.01399
G0 F6000 X115.658 Y87.374
G1 F1200 X119.34 Y91.056 E52.25646
G0 F6000 X119.34 Y90.49
G1 F1200 X115.658 Y86.808 E52.49893
G0 F6000 X115.658 Y86.242
G1 F1200 X119.34 Y89.924 E52.74139
G0 F6000 X119.34 Y89.359
G1 F1200 X115.658 Y85.677 E52.98386
G0 F6000 X115.658 Y85.111
G1 F1200 X119.34 Y88.793 E53.22632
G0 F6000 X119.34 Y88.227
G1 F1200 X115.658 Y84.545 E53.46879
G0 F6000 X115.658 Y83.98
G1 F1200 X119.34 Y87.662 E53.71126
G0 F6000 X119.34 Y87.096
G1 F1200 X115.658 Y83.414 E53.95372
G0 F6000 X115.658 Y82.848
G1 F1200 X119.34 Y86.53 E54.19619
G0 F6000 X119.34 Y85.965
G1 F1200 X115.658 Y82.283 E54.43865
G0 F6000 X115.658 Y81.717
G1 F1200 X119.34 Y85.399 E54.68112
G0 F6000 X119.34 Y84.833
G1 F1200 X115.658 Y81.151 E54.92359
G0 F6000 X115.658 Y80.586
G1 F1200 X119.34 Y84.268 E55.16605
G0 F6000 X119.34 Y83.702
G1 F1200 X115.658 Y80.02 E55.40852
G0 F6000 X115.658 Y79.454
G1 F1200 X119.34 Y83.136 E55.65098
G0 F6000 X119.34 Y82.57
G1 F1200 X115.658 Y78.889 E55.89342
G0 F6000 X115.995 Y78.659
G1 F1200 X119.34 Y82.005 E56.11372
G0 F6000 X119.34 Y81.439
G1 F1200 X116.56 Y78.659 E56.29679
G0 F6000 X117.126 Y78.659
G1 F1200 X119.34 Y80.873 E56.44259
G0 F6000 X119.34 Y80.308
G1 F1200 X117.692 Y78.659 E56.55114
G0 F6000 X118.257 Y78.659
G1 F1200 X119.34 Y79.742 E56.62246
G0 F6000 X119.34 Y79.176
G1 F1200 X118.823 Y78.659 E56.65651
G1 F1500 E50.15651
;MESH:NONMESH
G0 F300 X118.823 Y78.659 Z0.56
G0 F6000 X118.823 Y78.2
G0 X115.272 Y78.272
G0 X115.08 Y156.92
G1 F1500 E56.65651
G0 F6000 X114.7 Y157.3
;TIME_ELAPSED:77.621153
;LAYER:1
M106 S85
;TYPE:WALL-OUTER
;MESH:roof arm.stl
G1 F1350 X120.3 Y157.3 E56.91727
G1 X120.3 Y80.5 E60.4934
G1 X120.3 Y77.7 E60.62378
G1 X114.7 Y77.7 E60.88454
G1 X114.7 Y157.3 E64.59104
G0 F7500 X115.1 Y156.9
;TYPE:WALL-INNER
G1 F1350 X119.9 Y156.9 E64.81455
G1 X119.9 Y80.5 E68.37206
G1 X119.9 Y78.1 E68.48381
G1 X115.1 Y78.1 E68.70732
G1 X115.1 Y156.9 E72.37658
G0 F7500 X115.46 Y156.54
;TYPE:SKIN
G1 F1350 X119.54 Y156.54 E72.56656
G1 X119.54 Y78.46 E76.20229
G1 X115.46 Y78.46 E76.39227
G1 X115.46 Y154.5 E79.93301
G1 X115.46 Y156.54 E80.028
G0 F7500 X115.2 Y156.54
G0 X119.148 Y156.8
G0 X119.148 Y156.339
G1 F1350 X119.339 Y156.148 E80.04058
G0 F7500 X119.339 Y155.583
G1 F1350 X118.583 Y156.339 E80.09037
G0 F7500 X118.017 Y156.339
G1 F1350 X119.339 Y155.017 E80.17742
G0 F7500 X119.339 Y154.451
G1 F1350 X117.451 Y156.339 E80.30175
G0 F7500 X116.886 Y156.339
G1 F1350 X119.339 Y153.886 E80.46328
G0 F7500 X119.339 Y153.32
G1 F1350 X116.32 Y156.339 E80.66209
G0 F7500 X115.754 Y156.339
G1 F1350 X119.339 Y152.754 E80.89817
G0 F7500 X119.339 Y152.189
G1 F1350 X115.66 Y155.868 E81.14044
G0 F7500 X115.66 Y155.303
G1 F1350 X119.339 Y151.623 E81.38274
G0 F7500 X119.339 Y151.057
G1 F1350 X115.66 Y154.737 E81.62504
G0 F7500 X115.66 Y154.171
G1 F1350 X119.339 Y150.492 E81.86731
G0 F7500 X119.339 Y149.926
G1 F1350 X115.66 Y153.606 E82.10961
G0 F7500 X115.66 Y153.04
G1 F1350 X119.339 Y149.36 E82.35191
G0 F7500 X119.339 Y148.795
G1 F1350 X115.66 Y152.474 E82.59418
G0 F7500 X115.66 Y151.909
G1 F1350 X119.339 Y148.229 E82.83648
G0 F7500 X119.339 Y147.663
G1 F1350 X115.66 Y151.343 E83.07878
G0 F7500 X115.66 Y150.777
G1 F1350 X119.339 Y147.098 E83.32105
G0 F7500 X119.339 Y146.532
G1 F1350 X115.66 Y150.212 E83.56335
G0 F7500 X115.66 Y149.646
G1 F1350 X119.339 Y145.966 E83.80565
G0 F7500 X119.339 Y145.4
G1 F1350 X115.66 Y149.08 E84.04796
G0 F7500 X115.66 Y148.515
G1 F1350 X119.339 Y144.835 E84.29026
G0 F7500 X119.339 Y144.269
G1 F1350 X115.66 Y147.949 E84.53256
G0 F7500 X115.66 Y147.383
G1 F1350 X119.339 Y143.703 E84.77486
G0 F7500 X119.339 Y143.138
G1 F1350 X115.66 Y146.817 E85.01713
G0 F7500 X115.66 Y146.252
G1 F1350 X119.339 Y142.572 E85.25943
G0 F7500 X119.339 Y142.006
G1 F1350 X115.66 Y145.686 E85.50173
G0 F7500 X115.66 Y145.12
G1 F1350 X119.339 Y141.441 E85.744
G0 F7500 X119.339 Y140.875
G1 F1350 X115.66 Y144.555 E85.9863
G0 F7500 X115.66 Y143.989
G1 F1350 X119.339 Y140.309 E86.2286
G0 F7500 X119.339 Y139.744
G1 F1350 X115.66 Y143.423 E86.47087
G0 F7500 X115.66 Y142.858
G1 F1350 X119.339 Y139.178 E86.71317
G0 F7500 X119.339 Y138.612
G1 F1350 X115.66 Y142.292 E86.95547
G0 F7500 X115.66 Y141.726
G1 F1350 X119.339 Y138.047 E87.19774
G0 F7500 X119.339 Y137.481
G1 F1350 X115.66 Y141.161 E87.44004
G0 F7500 X115.66 Y140.595
G1 F1350 X119.339 Y136.915 E87.68234
G0 F7500 X119.339 Y136.349
G1 F1350 X115.66 Y140.029 E87.92465
G0 F7500 X115.66 Y139.464
G1 F1350 X119.339 Y135.784 E88.16695
G0 F7500 X119.339 Y135.218
G1 F1350 X115.66 Y138.898 E88.40925
G0 F7500 X115.66 Y138.332
G1 F1350 X119.339 Y134.652 E88.65155
G0 F7500 X119.339 Y134.087
G1 F1350 X115.66 Y137.767 E88.89385
G0 F7500 X115.66 Y137.201
G1 F1350 X119.339 Y133.521 E89.13615
G0 F7500 X119.339 Y132.955
G1 F1350 X115.66 Y136.635 E89.37845
G0 F7500 X115.66 Y136.069
G1 F1350 X119.339 Y132.39 E89.62072
G0 F7500 X119.339 Y131.824
G1 F1350 X115.66 Y135.504 E89.86302
G0 F7500 X115.66 Y134.938
G1 F1350 X119.339 Y131.258 E90.10532
G0 F7500 X119.339 Y130.693
G1 F1350 X115.66 Y134.372 E90.34759
G0 F7500 X115.66 Y133.807
G1 F1350 X119.339 Y130.127 E90.58989
G0 F7500 X119.339 Y129.561
G1 F1350 X115.66 Y133.241 E90.8322
G0 F7500 X115.66 Y132.675
G1 F1350 X119.339 Y128.996 E91.07446
G0 F7500 X119.339 Y128.43
G1 F1350 X115.66 Y132.11 E91.31677
G0 F7500 X115.66 Y131.544
G1 F1350 X119.339 Y127.864 E91.55907
G0 F7500 X119.339 Y127.299
G1 F1350 X115.66 Y130.978 E91.80134
G0 F7500 X115.66 Y130.413
G1 F1350 X119.339 Y126.733 E92.04364
G0 F7500 X119.339 Y126.167
G1 F1350 X115.66 Y129.847 E92.28594
G0 F7500 X115.66 Y129.281
G1 F1350 X119.339 Y125.601 E92.52824
G0 F7500 X119.339 Y125.036
G1 F1350 X115.66 Y128.716 E92.77054
G0 F7500 X115.66 Y128.15
G1 F1350 X119.339 Y124.47 E93.01284
G0 F7500 X119.339 Y123.904
G1 F1350 X115.66 Y127.584 E93.25514
G0 F7500 X115.66 Y127.019
G1 F1350 X119.339 Y123.339 E93.49744
G0 F7500 X119.339 Y122.773
G1 F1350 X115.66 Y126.453 E93.73975
G0 F7500 X115.66 Y125.887
G1 F1350 X119.339 Y122.207 E93.98205
G0 F7500 X119.339 Y121.642
G1 F1350 X115.66 Y125.321 E94.22432
G0 F7500 X115.66 Y124.756
G1 F1350 X119.339 Y121.076 E94.46662
G0 F7500 X119.339 Y120.51
G1 F1350 X115.66 Y124.19 E94.70892
G0 F7500 X115.66 Y123.624
G1 F1350 X119.339 Y119.945 E94.95119
G0 F7500 X119.339 Y119.379
G1 F1350 X115.66 Y123.059 E95.19349
G0 F7500 X115.66 Y122.493
G1 F1350 X119.339 Y118.813 E95.43579
G0 F7500 X119.339 Y118.248
G1 F1350 X115.66 Y121.927 E95.67806
G0 F7500 X115.66 Y121.362
G1 F1350 X119.339 Y117.682 E95.92036
G0 F7500 X119.339 Y117.116
G1 F1350 X115.66 Y120.796 E96.16266
G0 F7500 X115.66 Y120.23
G1 F1350 X119.339 Y116.55 E96.40496
G0 F7500 X119.339 Y115.985
G1 F1350 X115.66 Y119.665 E96.64726
G0 F7500 X115.66 Y119.099
G1 F1350 X119.339 Y115.419 E96.88957
G0 F7500 X119.339 Y114.853
G1 F1350 X115.66 Y118.533 E97.13187
G0 F7500 X115.66 Y117.968
G1 F1350 X119.339 Y114.288 E97.37417
G0 F7500 X119.339 Y113.722
G1 F1350 X115.659 Y117.403 E97.61653
G0 F7500 X115.659 Y116.837
G1 F1350 X119.339 Y113.156 E97.8589
G0 F7500 X119.339 Y112.591
G1 F1350 X115.659 Y116.271 E98.10124
G0 F7500 X115.659 Y115.706
