;FLAVOR:Marlin
;TIME:596
;Filament used: 0.341526m
;Layer height: 0.28
;MINX:111.2
;MINY:111.2
;MINZ:0.28
;MAXX:123.8
;MAXY:123.8
;MAXZ:10.92
;Generated with Cura_SteamEngine 5.0.0
M140 S60
M105
M190 S60
M104 S200
M105
M109 S200
M82 ;absolute extrusion mode
; Ender 3 Custom Start G-code
G92 E0 ; Reset Extruder
G28 ; Home all axes
G1 Z2.0 F3000 ; Move Z Axis up little to prevent scratching of Heat Bed
G1 X0.1 Y20 Z0.3 F5000.0 ; Move to start position
G1 X0.1 Y200.0 Z0.3 F1500.0 E15 ; Draw the first line
G1 X0.4 Y200.0 Z0.3 F5000.0 ; Move to side a little
G1 X0.4 Y20 Z0.3 F1500.0 E30 ; Draw the second line
G92 E0 ; Reset Extruder
G1 Z2.0 F3000 ; Move Z Axis up little to prevent scratching of Heat Bed
G1 X5 Y20 Z0.3 F5000.0 ; Move over to prevent blob squish
G92 E0
G92 E0
G1 F1500 E-6.5
;LAYER_COUNT:39
;LAYER:0
M107
;MESH:microswitch holder.stl
G0 F6000 X113.605 Y116.699 Z0.28
;TYPE:WALL-OUTER
G1 F1500 E0
G1 F1203 X112.986 Y116.7 E0.02875
G1 F1200 X112.885 Y116.664 E0.03374
G1 X112.8 Y116.5 E0.04235
G1 X112.8 Y114 E0.15876
G1 X112.847 Y113.87 E0.16519
G1 X113 Y113.8 E0.17303
G1 X120 Y113.8 E0.49898
G1 X120.116 Y113.836 E0.50463
G1 X120.2 Y114 E0.51321
G1 X120.2 Y116.513 E0.63023
G1 F1203 X120.139 Y116.644 E0.63694
G1 X120 Y116.7 E0.6439
G1 X114.826 Y116.701 E0.88422
G1 X114.566 Y116.699 E0.8963
G1 X113.639 Y116.7 E0.93935
G1 X113.605 Y116.699 E0.94093
G0 F6000 X113.639 Y117.085
;TYPE:WALL-INNER
G1 F1293.8 X113.605 Y117.086 E0.9424
G1 F1243.5 X113.177 Y117.1 E0.96165
G1 F1200 X112.798 Y117.066 E0.97936
G1 X112.655 Y116.991 E0.98688
G1 X112.408 Y116.604 E1.00826
G1 X112.4 Y116.5 E1.01312
G1 X112.4 Y114 E1.12953
G1 X112.541 Y113.612 E1.14875
G1 X112.818 Y113.427 E1.16426
G1 X113 Y113.4 E1.17283
G1 X120 Y113.4 E1.49878
G1 X120.346 Y113.509 E1.51567
G1 X120.543 Y113.743 E1.52991
G1 X120.6 Y114 E1.54217
G1 X120.599 Y116.539 E1.6604
G1 X120.52 Y116.801 E1.67314
G1 F1126.8 X120.303 Y117.049 E1.68948
G1 F1064.3 X120.127 Y117.113 E1.69931
G1 F1129.4 X119.672 Y117.1 E1.72183
G1 F1200 X114.826 Y117.101 E1.94749
G1 F1224.5 X114.566 Y117.092 E1.95936
G1 F1300.8 X114.097 Y117.076 E1.97951
G1 F1329.6 X113.639 Y117.085 E1.99877
G1 F1500 E-4.50123
G0 F6000 X113.639 Y117.11
G0 X113.598 Y117.499
G0 X113.221 Y117.655
G0 X112.895 Y117.909
G0 X112.651 Y118.232
G0 X112.497 Y118.607
G0 X112.447 Y119.009
G0 X112.502 Y119.411
G0 X112.66 Y119.784
G0 X112.901 Y120.099
G0 X113.224 Y120.345
G0 X114.077 Y120.605
G1 F1500 E1.99877
G0 F6000 X114.026 Y120.199
;TYPE:WALL-OUTER
G1 F1200 X113.712 Y120.165 E2.01347
G1 X113.421 Y120.052 E2.02801
G1 X113.169 Y119.867 E2.04256
G1 X112.979 Y119.631 E2.05667
G1 X112.851 Y119.344 E2.07131
G1 X112.802 Y119.033 E2.08597
G1 X112.834 Y118.719 E2.10066
G1 X112.945 Y118.432 E2.11499
G1 X113.126 Y118.181 E2.1294
G1 X113.378 Y117.974 E2.14459
G1 F1203 X113.661 Y117.849 E2.15896
G1 X113.974 Y117.801 E2.17366
G1 F1200 X114.288 Y117.835 E2.18837
G1 X114.579 Y117.948 E2.20291
G1 X114.831 Y118.133 E2.21746
G1 X115.021 Y118.369 E2.23157
G1 X115.149 Y118.656 E2.2462
G1 X115.199 Y118.973 E2.26115
G1 X115.166 Y119.282 E2.27562
G1 X115.055 Y119.568 E2.2899
G1 X114.872 Y119.823 E2.30452
G1 X114.834 Y119.861 E2.30702
G1 X114.622 Y120.026 E2.31953
G1 X114.339 Y120.151 E2.33393
G1 X114.026 Y120.199 E2.34868
G0 F6000 X114.078 Y120.596
;TYPE:WALL-INNER
G1 F1200 X113.66 Y120.562 E2.36821
G1 X113.269 Y120.422 E2.38755
G1 X112.925 Y120.184 E2.40702
G1 X112.662 Y119.875 E2.42592
G1 X112.483 Y119.5 E2.44527
G1 X112.405 Y119.087 E2.46484
G1 X112.437 Y118.671 E2.48427
G1 X112.575 Y118.28 E2.50357
G1 X112.806 Y117.941 E2.52268
G1 X113.132 Y117.658 E2.54278
G1 F1224.5 X113.511 Y117.486 E2.56177
G1 F1300.8 X113.925 Y117.428 E2.57973
G1 F1329.6 X114.338 Y117.453 E2.59712
G1 F1246.8 X114.732 Y117.578 E2.61564
G1 F1200 X115.075 Y117.816 E2.63508
G1 X115.338 Y118.125 E2.65397
G1 X115.518 Y118.5 E2.67334
G1 X115.595 Y118.919 E2.69318
G1 X115.563 Y119.333 E2.71252
G1 X115.425 Y119.72 E2.73165
G1 X115.192 Y120.063 E2.75096
G1 X115.08 Y120.177 E2.7584
G1 X114.868 Y120.342 E2.77091
G1 X114.492 Y120.521 E2.7903
G1 X114.078 Y120.596 E2.80989
G1 F1500 E-3.69011
G0 F6000 X114.078 Y120.605
G0 X113.485 Y120.705
G0 X111.801 Y121.798
G0 X111.58 Y123.42
G1 F1500 E2.80989
G0 F6000 X111.201 Y123.799
;TYPE:WALL-OUTER
G1 F1200 X123.8 Y123.8 E3.39655
G1 X123.8 Y113.101 E3.89474
G1 X123.8 Y111.2 E3.98326
G1 X111.201 Y111.201 E4.56992
G1 X111.2 Y117.799 E4.87715
G1 X111.201 Y123.799 E5.15654
G0 F6000 X111.601 Y123.399
;TYPE:WALL-INNER
G1 F1200 X123.4 Y123.4 E5.70595
G1 X123.4 Y113.101 E6.18551
G1 X123.4 Y111.6 E6.25541
G1 X111.601 Y111.601 E6.80482
G1 X111.6 Y117.799 E7.09342
G1 X111.601 Y119.402 E7.16806
G1 X111.601 Y123.399 E7.35418
G1 F1500 E0.85418
G0 F6000 X111.61 Y123.399
G0 X121.077 Y123.57
G0 X121 Y120.78
G1 F1500 E7.35418
G0 F6000 X121.026 Y120.199
;TYPE:WALL-OUTER
G1 F1200 X120.712 Y120.165 E7.36889
G1 X120.421 Y120.052 E7.38342
G1 X120.169 Y119.867 E7.39798
G1 X119.979 Y119.631 E7.41209
G1 X119.851 Y119.344 E7.42672
G1 X119.802 Y119.033 E7.44138
G1 X119.834 Y118.719 E7.45608
G1 X119.945 Y118.432 E7.47041
G1 X120.128 Y118.176 E7.48506
G1 F1203 X120.378 Y117.974 E7.49999
G1 X120.661 Y117.849 E7.51436
G1 F1200 X120.974 Y117.801 E7.5291
G1 X121.288 Y117.835 E7.54381
G1 X121.579 Y117.948 E7.55835
G1 X121.831 Y118.133 E7.5729
G1 X122.021 Y118.369 E7.58701
G1 X122.149 Y118.656 E7.60164
G1 X122.199 Y118.973 E7.61659
G1 X122.2 Y119 E7.61784
G1 X122.166 Y119.282 E7.63107
G1 X122.055 Y119.568 E7.64536
G1 X121.871 Y119.823 E7.66
G1 X121.622 Y120.026 E7.67496
G1 X121.339 Y120.151 E7.68936
G1 X121.026 Y120.199 E7.70411
G0 F6000 X120.66 Y120.562
;TYPE:WALL-INNER
G1 F1200 X120.269 Y120.422 E7.72345
G1 X119.925 Y120.183 E7.74295
G1 X119.662 Y119.875 E7.76181
G1 X119.483 Y119.499 E7.7812
G1 X119.406 Y119.087 E7.80072
G1 X119.437 Y118.671 E7.82014
G1 X119.575 Y118.279 E7.83949
G1 X119.808 Y117.936 E7.8588
G1 F1173.6 X120.127 Y117.651 E7.87917
G1 F1106 X120.411 Y117.494 E7.89556
G1 F1103.4 X120.659 Y117.428 E7.90856
G1 F1170.7 X120.922 Y117.404 E7.92116
G1 F1200 X121.34 Y117.438 E7.94069
G1 X121.731 Y117.578 E7.96003
G1 X122.075 Y117.817 E7.97953
G1 X122.338 Y118.125 E7.99839
G1 X122.517 Y118.5 E8.01774
G1 X122.595 Y118.919 E8.03759
G1 X122.6 Y119 E8.04137
G1 X122.562 Y119.333 E8.05697
G1 X122.425 Y119.72 E8.07609
G1 X122.191 Y120.063 E8.09542
G1 X121.868 Y120.342 E8.1153
G1 X121.492 Y120.521 E8.13469
G1 X121.078 Y120.596 E8.15428
G1 X120.66 Y120.562 E8.17381
G0 F6000 X120.659 Y120.57
G0 X121.402 Y120.501
G0 X121.779 Y120.345
G0 X122.105 Y120.091
G0 X122.694 Y119.101
G0 X122.995 Y119.141
;TYPE:SKIN
G1 F983.6 X122.997 Y119.096 E8.17637
G1 F952.4 X122.979 Y118.616 E8.20455
G1 F977.6 X123.009 Y118.348 E8.21996
G1 F1116.3 X123.04 Y118.079 E8.23352
G1 F1200 X123.04 Y113.101 E8.46531
G1 X123.04 Y111.96 E8.51844
G1 X111.961 Y111.961 E9.03433
G1 X111.961 Y113.39 E9.10087
G1 F1134.8 X111.984 Y113.658 E9.11411
G1 F1023.5 X112.008 Y113.926 E9.1288
G1 X112.121 Y113.682 E9.14349
G1 F1134.8 X112.234 Y113.438 E9.15673
G1 F1200 X112.312 Y113.34 E9.16256
G1 X112.661 Y113.108 E9.18207
G1 X112.975 Y113.042 E9.19701
G1 X113.005 Y113.04 E9.19841
G1 X119.994 Y113.04 E9.52385
G1 X120.496 Y113.186 E9.54819
G1 X120.841 Y113.548 E9.57148
G1 X120.956 Y113.958 E9.59131
G1 X120.96 Y114.002 E9.59336
G1 X120.959 Y116.524 E9.7108
G1 X120.918 Y116.784 E9.72306
G1 X120.773 Y117.055 E9.73737
G1 X121.092 Y117.046 E9.75223
G1 X121.377 Y117.094 E9.76569
G1 X121.626 Y117.144 E9.77751
G1 X122.06 Y117.356 E9.8
G1 X122.434 Y117.666 E9.82262
G1 X122.728 Y118.082 E9.84634
G1 F1129.4 X122.841 Y118.317 E9.85924
G1 F1010.5 X122.954 Y118.552 E9.87366
G1 F939.3 X122.979 Y118.616 E9.87775
G1 F1500 E3.37775
G0 F6000 X123.3 Y118.616
G0 X123.2 Y118.907
G0 X122.414 Y118.999
G0 X122.401 Y118.615
G0 X122.253 Y118.267
G0 X122.027 Y117.973
G0 X121.727 Y117.742
G0 X121.376 Y117.597
G0 X119.945 Y117.28
G0 X114.322 Y117.265
G0 X113.272 Y117.742
G0 X113.025 Y117.934
G0 X112.306 Y118.907
G1 F1500 E9.87775
G0 F6000 X112.005 Y118.87
G1 F985.6 X112.003 Y118.914 E9.88025
G1 F948.6 X112.023 Y119.412 E9.9096
G0 F6000 X111.702 Y119.399
G0 X111.701 Y123.039
G0 X111.961 Y123.039
G1 F1200 X123.04 Y123.04 E10.42549
G1 X123.04 Y119.601 E10.58562
G1 F1078.7 X122.995 Y119.141 E10.60956
G1 X122.868 Y119.586 E10.63354
G1 F1200 X122.658 Y120.036 E10.65666
G1 X122.331 Y120.432 E10.68057
G1 X121.901 Y120.737 E10.70512
G1 X121.555 Y120.864 E10.72228
G1 X121.375 Y120.92 E10.73106
G1 X120.903 Y120.954 E10.7531
G1 X120.403 Y120.863 E10.77676
G1 X119.94 Y120.645 E10.80059
G1 X119.564 Y120.335 E10.82328
G1 X119.254 Y119.876 E10.84907
G1 X119.091 Y119.414 E10.87189
G1 X119.046 Y118.93 E10.89452
G1 X119.135 Y118.411 E10.91904
G1 X119.345 Y117.962 E10.94212
G1 X119.668 Y117.566 E10.96592
G1 X119.772 Y117.47 E10.97251
G1 X119.156 Y117.46 E11.00119
G1 X117.499 Y117.461 E11.07835
G1 X115.195 Y117.461 E11.18563
G1 X115.434 Y117.665 E11.20027
G1 X115.729 Y118.082 E11.22405
G1 X115.908 Y118.569 E11.24821
G1 X115.952 Y119.103 E11.27316
G1 X115.856 Y119.611 E11.29723
G1 X115.658 Y120.038 E11.31915
G1 X115.331 Y120.432 E11.34299
G1 X114.898 Y120.739 E11.36771
G1 X114.426 Y120.91 E11.39108
G1 X113.918 Y120.954 E11.41483
G1 X113.41 Y120.866 E11.43883
G1 X112.943 Y120.649 E11.46281
G1 X112.565 Y120.335 E11.48569
G1 X112.268 Y119.911 E11.5098
G1 F1121.5 X112.155 Y119.682 E11.52252
G1 F991.7 X112.041 Y119.453 E11.53694
G1 F924.9 X112.023 Y119.412 E11.53964
G1 F971.7 X111.992 Y119.662 E11.55413
G1 F1113.7 X111.961 Y119.912 E11.56677
G1 F1200 X111.961 Y123.039 E11.71237
G1 F1500 E5.21237
G0 F6000 X111.701 Y123.039
G0 X111.801 Y119.678
G0 X112.286 Y119.536
G0 X112.306 Y118.907
G1 F1500 E11.71237
G0 F6000 X112.005 Y118.87
G1 F958.1 X112.077 Y118.401 E11.74005
G1 F933.9 X112.292 Y117.936 E11.7707
G1 X112.471 Y117.714 E11.78776
G1 X112.639 Y117.515 E11.80335
G1 X112.699 Y117.469 E11.80787
G1 X112.453 Y117.355 E11.82409
G1 X112.351 Y117.263 E11.83231
G1 F943 X112.196 Y117.01 E11.84989
G1 F961.9 X112.041 Y116.756 E11.86718
G1 F977.6 X112.006 Y116.643 E11.87394
G1 X112.008 Y116.765 E11.88091
G1 F961.9 X112.013 Y117.063 E11.89823
G1 F943 X112.018 Y117.361 E11.91589
G1 F933.9 X112.018 Y118.396 E11.97782
G1 F958.1 X112.005 Y118.87 E12.00547
G0 F6000 X112.306 Y118.907
G0 X113.072 Y117.502
G0 X113.644 Y117.267
G0 X112.57 Y117.13
G0 X112.42 Y116.913
G0 X112.305 Y116.608
G0 X112.006 Y116.643
G1 F993.8 X112.001 Y116.5 E12.01352
G1 F1004.2 X112.001 Y114.01 E12.15207
G1 F989.7 X112.008 Y113.926 E12.15683
G1 F1500 E5.65683
G0 F6000 X112.3 Y114.031
G0 X112.468 Y116.831
G0 X113.644 Y117.267
G0 X112.616 Y117.903
G0 X112.447 Y119.009
G0 X112.816 Y120.327
G0 X112.816 Y123.199
G1 F1500 E12.15683
G0 F6000 X112.656 Y122.838
G1 F1200 X112.16 Y122.342 E12.18949
G0 F6000 X112.16 Y121.777
G1 F1200 X113.221 Y122.838 E12.25936
G0 F6000 X113.787 Y122.838
G1 F1200 X112.16 Y121.211 E12.3665
G0 F6000 X112.16 Y120.645
G1 F1200 X114.353 Y122.838 E12.51091
G0 F6000 X114.918 Y122.838
G1 F1200 X112.939 Y120.858 E12.64127
G0 F6000 X113.784 Y121.137
G1 F1200 X115.484 Y122.838 E12.75325
G0 F6000 X116.05 Y122.838
G1 F1200 X114.334 Y121.122 E12.86625
G0 F6000 X114.774 Y120.997
G1 F1200 X116.616 Y122.838 E12.98752
G0 F6000 X117.181 Y122.838
G1 F1200 X115.145 Y120.802 E13.12159
G0 F6000 X115.469 Y120.56
G1 F1200 X117.747 Y122.838 E13.2716
G0 F6000 X118.313 Y122.838
G1 F1200 X115.735 Y120.261 E13.44133
G0 F6000 X115.94 Y119.9
G1 F1200 X118.878 Y122.838 E13.6348
G0 F6000 X119.444 Y122.838
G1 F1200 X116.08 Y119.474 E13.85633
G0 F6000 X116.133 Y118.961
G1 F1200 X120.01 Y122.838 E14.11164
G0 F6000 X120.575 Y122.838
G1 F1200 X116.01 Y118.272 E14.41228
G0 F6000 X115.964 Y117.661
G1 F1200 X121.141 Y122.838 E14.7532
G0 F6000 X121.707 Y122.838
G1 F1200 X116.529 Y117.661 E15.09414
G0 F6000 X117.095 Y117.661
G1 F1200 X118.899 Y119.464 E15.21291
G0 F6000 X118.851 Y118.851
G1 F1200 X117.661 Y117.661 E15.29127
G0 F6000 X118.226 Y117.661
G1 F1200 X118.947 Y118.381 E15.33872
G0 F6000 X119.112 Y117.981
G1 F1200 X118.792 Y117.661 E15.35979
G0 F6000 X118.794 Y117.201
G0 X120.538 Y117.038
G0 X120.7 Y116.546
G0 X121.145 Y116.619
G1 F1200 X121.424 Y116.898 E15.37816
G0 F6000 X121.157 Y116.066
G1 F1200 X122.839 Y117.748 E15.48893
G0 F6000 X122.839 Y117.182
G1 F1200 X121.157 Y115.5 E15.59969
G0 F6000 X121.158 Y114.935
G1 F1200 X122.839 Y116.616 E15.71038
G0 F6000 X122.839 Y116.051
G1 F1200 X121.158 Y114.37 E15.82108
G0 F6000 X121.11 Y113.756
G1 F1200 X122.839 Y115.485 E15.93494
G0 F6000 X122.839 Y114.919
G1 F1200 X120.08 Y112.16 E16.11662
G0 F6000 X120.645 Y112.16
G1 F1200 X122.839 Y114.354 E16.2611
G0 F6000 X122.839 Y113.788
G1 F1200 X121.211 Y112.16 E16.36831
G0 F6000 X121.777 Y112.16
G1 F1200 X122.839 Y113.222 E16.43824
G0 F6000 X122.839 Y112.656
G1 F1200 X122.342 Y112.16 E16.47094
G1 F1500 E9.97094
G0 F6000 X122.342 Y111.7
G0 X120.114 Y111.8
G0 X119.997 Y113.219
G1 F1500 E16.47094
G0 F6000 X120.254 Y112.9
G1 F1200 X119.514 Y112.16 E16.51967
G0 F6000 X118.948 Y112.16
G1 F1200 X119.628 Y112.84 E16.56445
G0 F6000 X119.062 Y112.84
G1 F1200 X118.383 Y112.16 E16.60919
G0 F6000 X117.817 Y112.16
G1 F1200 X118.497 Y112.84 E16.65397
G0 F6000 X117.931 Y112.84
G1 F1200 X117.251 Y112.16 E16.69875
G0 F6000 X116.686 Y112.16
G1 F1200 X117.366 Y112.84 E16.74353
G0 F6000 X116.801 Y112.841
G1 F1200 X116.12 Y112.16 E16.78838
G0 F6000 X115.554 Y112.16
G1 F1200 X116.235 Y112.841 E16.83322
G0 F6000 X115.67 Y112.842
G1 F1200 X114.988 Y112.16 E16.87813
G0 F6000 X114.423 Y112.16
G1 F1200 X115.104 Y112.842 E16.92301
G0 F6000 X114.539 Y112.842
G1 F1200 X113.857 Y112.16 E16.96792
G0 F6000 X113.291 Y112.16
G1 F1200 X113.974 Y112.842 E17.01287
G0 F6000 X113.408 Y112.842
G1 F1200 X112.726 Y112.16 E17.05778
G0 F6000 X112.16 Y112.16
G1 F1200 X112.857 Y112.857 E17.10368
G0 F6000 X112.45 Y113.016
G1 F1200 X112.16 Y112.726 E17.12277
G1 F1500 E10.62277
G0 F6000 X111.701 Y112.725
G0 X111.8 Y117.799
G0 X112.505 Y118.038
G0 X113.598 Y117.499
G0 X114.322 Y117.265
G0 X120.175 Y117.296
G0 X119.24 Y119.004
G0 X119.813 Y120.163
G0 X120.627 Y120.656
G1 F1500 E17.12277
G0 F6000 X120.513 Y121.079
G1 F1200 X122.272 Y122.838 E17.23861
G0 F6000 X122.839 Y122.839
G1 F1200 X121.132 Y121.132 E17.35101
G0 F6000 X121.613 Y121.048
G1 F1200 X122.839 Y122.273 E17.43172
G0 F6000 X122.839 Y121.707
G1 F1200 X122.016 Y120.885 E17.48588
G0 F6000 X122.359 Y120.662
G1 F1200 X122.839 Y121.142 E17.51749
G0 F6000 X122.839 Y120.576
G1 F1200 X122.634 Y120.372 E17.53095
G1 F1500 E11.03095
;MESH:NONMESH
G0 F300 X122.634 Y120.372 Z0.56
G0 F6000 X122.285 Y120.106
G0 X121.402 Y120.501
G0 X121 Y120.554
G0 X120.598 Y120.501
G0 X120.224 Y120.345
G0 X119.901 Y120.099
G0 X119.242 Y119.072
G0 X120.062 Y117.476
G0 X119.604 Y117.292
G0 X113.177 Y117.11
G1 F1500 E17.53095
G0 F6000 X113.177 Y116.7
;TIME_ELAPSED:37.516446
;LAYER:1
M106 S85
;TYPE:WALL-OUTER
;MESH:microswitch holder.stl
G1 F1350 X112.928 Y116.687 E17.54256
G1 X112.802 Y116.535 E17.55176
G1 X112.8 Y116.5 E17.55339
G1 X112.8 Y114 E17.6698
G1 X112.847 Y113.87 E17.67624
G1 X113 Y113.8 E17.68407
G1 X120 Y113.8 E18.01002
G1 X120.116 Y113.836 E18.01568
G1 X120.2 Y114 E18.02426
G1 X120.2 Y116.513 E18.14127
G1 F1353.4 X120.139 Y116.644 E18.14798
G1 X120 Y116.701 E18.15496
G1 F1350 X113.177 Y116.7 E18.47267
G0 F7500 X113.639 Y117.085
;TYPE:WALL-INNER
G1 F1402.6 X113.177 Y117.1 E18.49339
G1 F1350 X112.784 Y117.061 E18.51178
G1 X112.655 Y116.992 E18.51859
G1 X112.408 Y116.604 E18.54001
G1 X112.4 Y116.5 E18.54486
G1 X112.4 Y114 E18.66127
G1 X112.541 Y113.612 E18.6805
G1 X112.818 Y113.427 E18.69601
G1 X113 Y113.4 E18.70457
G1 X120 Y113.4 E19.03052
G1 X120.346 Y113.509 E19.04741
G1 X120.543 Y113.743 E19.06166
G1 X120.6 Y114 E19.07392
G1 X120.599 Y116.539 E19.19214
G1 X120.52 Y116.801 E19.20488
G1 F1317.1 X120.425 Y116.94 E19.21292
G1 F1241.4 X120.24 Y117.078 E19.22461
G1 F1232.9 X120 Y117.114 E19.23698
G1 F1307.5 X119.646 Y117.101 E19.25401
G1 F1350 X114.826 Y117.101 E19.47845
G1 F1377.6 X114.566 Y117.092 E19.49032
G1 F1463.4 X114.097 Y117.076 E19.51048
G1 F1495.8 X113.639 Y117.085 E19.52973
G1 F1500 E13.02973
G0 F7500 X113.639 Y117.11
G0 X113.598 Y117.499
