;FLAVOR:Marlin
;TIME:4699
;Filament used: 5.02419m
;Layer height: 0.28
;MINX:98.1
;MINY:83.2
;MINZ:0.28
;MAXX:136.9
;MAXY:152.665
;MAXZ:17.08
;Generated with Cura_SteamEngine 5.0.0
M140 S60
M105
M190 S60
M104 S200
M105
M109 S200
M82 ;absolute extrusion mode
; Ender 3 Custom Start G-code
G92 E0 ; Reset Extruder
G28 ; Home all axes
G1 Z2.0 F3000 ; Move Z Axis up little to prevent scratching of Heat Bed
G1 X0.1 Y20 Z0.3 F5000.0 ; Move to start position
G1 X0.1 Y200.0 Z0.3 F1500.0 E15 ; Draw the first line
G1 X0.4 Y200.0 Z0.3 F5000.0 ; Move to side a little
G1 X0.4 Y20 Z0.3 F1500.0 E30 ; Draw the second line
G92 E0 ; Reset Extruder
G1 Z2.0 F3000 ; Move Z Axis up little to prevent scratching of Heat Bed
G1 X5 Y20 Z0.3 F5000.0 ; Move over to prevent blob squish
G92 E0
G92 E0
G1 F1500 E-6.5
;LAYER_COUNT:61
;LAYER:0
M107
;MESH:battery holder.stl
G0 F6000 X98.2 Y151.8 Z0.28
;TYPE:WALL-OUTER
G1 F1500 E0
G1 F1200 X136.8 Y151.8 E1.79738
G1 X136.8 Y102.5 E4.09299
G1 X136.8 Y83.2 E4.99168
G1 X98.2 Y83.2 E6.78906
G1 X98.2 Y151.8 E9.98336
G0 F6000 X98.6 Y151.4
;TYPE:WALL-INNER
G1 F1200 X136.4 Y151.4 E11.74349
G1 X136.4 Y102.5 E14.02048
G1 X136.4 Y83.6 E14.90054
G1 X98.6 Y83.6 E16.66067
G1 X98.6 Y151.4 E19.81772
G0 F6000 X98.96 Y151.04
;TYPE:SKIN
G1 F1200 X136.04 Y151.04 E21.54432
G1 X136.04 Y102.5 E23.80454
G1 X136.04 Y83.96 E24.66784
G1 X98.96 Y83.96 E26.39444
G1 X98.96 Y151.04 E29.51797
G0 F6000 X99.361 Y150.839
G1 F1200 X99.158 Y150.636 E29.53134
G0 F6000 X99.158 Y150.07
G1 F1200 X99.927 Y150.839 E29.58198
G0 F6000 X100.493 Y150.839
G1 F1200 X99.158 Y149.505 E29.66986
G0 F6000 X99.158 Y148.939
G1 F1200 X101.058 Y150.839 E29.79498
G0 F6000 X101.624 Y150.839
G1 F1200 X99.158 Y148.373 E29.95737
G0 F6000 X99.158 Y147.807
G1 F1200 X102.19 Y150.839 E30.15703
G0 F6000 X102.756 Y150.839
G1 F1200 X99.158 Y147.242 E30.39393
G0 F6000 X99.158 Y146.676
G1 F1200 X103.321 Y150.839 E30.66807
G0 F6000 X103.887 Y150.839
G1 F1200 X99.158 Y146.11 E30.97948
G0 F6000 X99.158 Y145.545
G1 F1200 X104.453 Y150.839 E31.32814
G0 F6000 X105.018 Y150.839
G1 F1200 X99.158 Y144.979 E31.71403
G0 F6000 X99.158 Y144.413
G1 F1200 X105.584 Y150.839 E32.13719
G0 F6000 X106.15 Y150.839
G1 F1200 X99.158 Y143.848 E32.59759
G0 F6000 X99.158 Y143.282
G1 F1200 X106.715 Y150.839 E33.09523
G0 F6000 X107.281 Y150.839
G1 F1200 X99.158 Y142.716 E33.63015
G0 F6000 X99.158 Y142.151
G1 F1200 X107.847 Y150.839 E34.2023
G0 F6000 X108.412 Y150.839
G1 F1200 X99.158 Y141.585 E34.81169
G0 F6000 X99.158 Y141.019
G1 F1200 X108.978 Y150.839 E35.45835
G0 F6000 X109.544 Y150.839
G1 F1200 X99.158 Y140.454 E36.14226
G0 F6000 X99.158 Y139.888
G1 F1200 X110.109 Y150.839 E36.8634
G0 F6000 X110.675 Y150.839
G1 F1200 X99.158 Y139.322 E37.62181
G0 F6000 X99.158 Y138.756
G1 F1200 X111.241 Y150.839 E38.4175
G0 F6000 X111.807 Y150.839
G1 F1200 X99.158 Y138.191 E39.25043
G0 F6000 X99.158 Y137.625
G1 F1200 X112.372 Y150.839 E40.12059
G0 F6000 X112.938 Y150.839
G1 F1200 X99.158 Y137.059 E41.02803
G0 F6000 X99.158 Y136.494
G1 F1200 X113.504 Y150.839 E41.9727
G0 F6000 X114.069 Y150.839
G1 F1200 X99.158 Y135.928 E42.95462
G0 F6000 X99.158 Y135.362
G1 F1200 X114.635 Y150.839 E43.9738
G0 F6000 X115.201 Y150.839
G1 F1200 X99.158 Y134.797 E45.03023
G0 F6000 X99.158 Y134.231
G1 F1200 X115.766 Y150.839 E46.12389
G0 F6000 X116.332 Y150.839
G1 F1200 X99.158 Y133.665 E47.25483
G0 F6000 X99.158 Y133.1
G1 F1200 X116.898 Y150.839 E48.42301
G0 F6000 X117.463 Y150.839
G1 F1200 X99.158 Y132.534 E49.62842
G0 F6000 X99.158 Y131.968
G1 F1200 X118.029 Y150.839 E50.87111
G0 F6000 X118.595 Y150.839
G1 F1200 X99.158 Y131.403 E52.15104
G0 F6000 X99.158 Y130.837
G1 F1200 X119.16 Y150.839 E53.4682
G0 F6000 X119.726 Y150.839
G1 F1200 X99.158 Y130.271 E54.82264
G0 F6000 X99.158 Y129.706
G1 F1200 X120.292 Y150.839 E56.21432
G0 F6000 X120.857 Y150.839
G1 F1200 X99.158 Y129.14 E57.64324
G0 F6000 X99.158 Y128.574
G1 F1200 X121.423 Y150.839 E59.10942
G0 F6000 X121.989 Y150.839
G1 F1200 X99.158 Y128.008 E60.61288
G0 F6000 X99.158 Y127.443
G1 F1200 X122.555 Y150.839 E62.15358
G0 F6000 X123.12 Y150.839
G1 F1200 X99.158 Y126.877 E63.73152
G0 F6000 X99.158 Y126.311
G1 F1200 X123.686 Y150.839 E65.34673
G0 F6000 X124.252 Y150.839
G1 F1200 X99.158 Y125.746 E66.99918
G0 F6000 X99.158 Y125.18
G1 F1200 X124.817 Y150.839 E68.68887
G0 F6000 X125.383 Y150.839
G1 F1200 X99.158 Y124.614 E70.41583
G0 F6000 X99.158 Y124.049
G1 F1200 X125.949 Y150.839 E72.18003
G0 F6000 X126.514 Y150.839
G1 F1200 X99.158 Y123.483 E73.98147
G0 F6000 X99.158 Y122.917
G1 F1200 X127.08 Y150.839 E75.82018
G0 F6000 X127.646 Y150.839
G1 F1200 X99.158 Y122.352 E77.69613
G0 F6000 X99.158 Y121.786
G1 F1200 X128.211 Y150.839 E79.60932
G0 F6000 X128.777 Y150.839
G1 F1200 X99.158 Y121.22 E81.55979
G0 F6000 X99.158 Y120.655
G1 F1200 X129.343 Y150.839 E83.54749
G0 F6000 X129.908 Y150.839
G1 F1200 X99.158 Y120.089 E85.57243
G0 F6000 X99.158 Y119.523
G1 F1200 X130.474 Y150.839 E87.63464
G0 F6000 X131.04 Y150.839
G1 F1200 X99.158 Y118.957 E89.73412
G0 F6000 X99.158 Y118.392
G1 F1200 X131.606 Y150.839 E91.87085
G0 F6000 X132.171 Y150.839
G1 F1200 X99.158 Y117.826 E94.04481
G0 F6000 X99.158 Y117.26
G1 F1200 X132.737 Y150.839 E96.25604
G0 F6000 X133.303 Y150.839
G1 F1200 X99.158 Y116.695 E98.50452
G0 F6000 X99.158 Y116.129
G1 F1200 X133.868 Y150.839 E100.79023
G0 F6000 X134.434 Y150.839
G1 F1200 X99.158 Y115.563 E103.11321
G0 F6000 X99.158 Y114.998
G1 F1200 X135 Y150.839 E105.47344
G0 F6000 X135.565 Y150.839
G1 F1200 X99.158 Y114.432 E107.8709
G0 F6000 X99.158 Y113.866
G1 F1200 X135.84 Y150.547 E110.28644
G0 F6000 X135.84 Y149.982
G1 F1200 X99.158 Y113.301 E112.70198
G0 F6000 X99.158 Y112.735
G1 F1200 X135.84 Y149.416 E115.11752
G0 F6000 X135.84 Y148.85
G1 F1200 X99.158 Y112.169 E117.53306
G0 F6000 X99.158 Y111.604
G1 F1200 X135.84 Y148.285 E119.9486
G0 F6000 X135.84 Y147.719
G1 F1200 X99.158 Y111.038 E122.36414
G0 F6000 X99.158 Y110.472
G1 F1200 X135.84 Y147.153 E124.77968
G0 F6000 X135.84 Y146.588
G1 F1200 X99.158 Y109.907 E127.19522
G0 F6000 X99.158 Y109.341
G1 F1200 X135.84 Y146.022 E129.61076
G0 F6000 X135.84 Y145.456
G1 F1200 X99.158 Y108.775 E132.02629
G0 F6000 X99.158 Y108.209
G1 F1200 X135.84 Y144.891 E134.44187
G0 F6000 X135.84 Y144.325
G1 F1200 X99.158 Y107.644 E136.85741
G0 F6000 X99.158 Y107.078
G1 F1200 X135.84 Y143.759 E139.27295
G0 F6000 X135.84 Y143.194
G1 F1200 X99.158 Y106.512 E141.68852
G0 F6000 X99.158 Y105.947
G1 F1200 X135.84 Y142.628 E144.10406
G0 F6000 X135.84 Y142.062
G1 F1200 X99.158 Y105.381 E146.5196
G0 F6000 X99.158 Y104.815
G1 F1200 X135.84 Y141.497 E148.93517
G0 F6000 X135.84 Y140.931
G1 F1200 X99.158 Y104.25 E151.35071
G0 F6000 X99.158 Y103.684
G1 F1200 X135.84 Y140.365 E153.76625
G0 F6000 X135.84 Y139.799
G1 F1200 X99.158 Y103.118 E156.18179
G0 F6000 X99.158 Y102.553
G1 F1200 X135.84 Y139.234 E158.59733
G0 F6000 X135.84 Y138.668
G1 F1200 X99.158 Y101.987 E161.01287
G0 F6000 X99.158 Y101.421
G1 F1200 X135.84 Y138.102 E163.42841
G0 F6000 X135.84 Y137.537
G1 F1200 X99.158 Y100.856 E165.84395
G0 F6000 X99.158 Y100.29
G1 F1200 X135.84 Y136.971 E168.25948
G0 F6000 X135.84 Y136.405
G1 F1200 X99.158 Y99.724 E170.67502
G0 F6000 X99.158 Y99.158
G1 F1200 X135.84 Y135.84 E173.0906
G0 F6000 X135.84 Y135.274
G1 F1200 X99.158 Y98.593 E175.50614
G0 F6000 X99.158 Y98.027
G1 F1200 X135.84 Y134.708 E177.92168
G0 F6000 X135.84 Y134.143
G1 F1200 X99.158 Y97.461 E180.33725
G0 F6000 X99.158 Y96.896
G1 F1200 X135.84 Y133.577 E182.75279
G0 F6000 X135.84 Y133.011
G1 F1200 X99.158 Y96.33 E185.16833
G0 F6000 X99.158 Y95.764
G1 F1200 X135.84 Y132.446 E187.5839
G0 F6000 X135.84 Y131.88
G1 F1200 X99.158 Y95.199 E189.99944
G0 F6000 X99.158 Y94.633
G1 F1200 X135.84 Y131.314 E192.41498
G0 F6000 X135.84 Y130.748
G1 F1200 X99.158 Y94.067 E194.83052
G0 F6000 X99.158 Y93.502
G1 F1200 X135.84 Y130.183 E197.24606
G0 F6000 X135.84 Y129.617
G1 F1200 X99.158 Y92.936 E199.6616
G0 F6000 X99.158 Y92.37
G1 F1200 X135.84 Y129.051 E202.07714
G0 F6000 X135.84 Y128.486
G1 F1200 X99.158 Y91.805 E204.49267
G0 F6000 X99.158 Y91.239
G1 F1200 X135.84 Y127.92 E206.90821
G0 F6000 X135.84 Y127.354
G1 F1200 X99.158 Y90.673 E209.32375
G0 F6000 X99.158 Y90.108
G1 F1200 X135.84 Y126.789 E211.73929
G0 F6000 X135.84 Y126.223
G1 F1200 X99.158 Y89.542 E214.15483
G0 F6000 X99.158 Y88.976
G1 F1200 X135.84 Y125.657 E216.57037
G0 F6000 X135.84 Y125.092
G1 F1200 X99.158 Y88.41 E218.98594
G0 F6000 X99.158 Y87.845
G1 F1200 X135.84 Y124.526 E221.40148
G0 F6000 X135.84 Y123.96
G1 F1200 X99.158 Y87.279 E223.81702
G0 F6000 X99.158 Y86.713
G1 F1200 X135.84 Y123.395 E226.2326
G0 F6000 X135.84 Y122.829
G1 F1200 X99.158 Y86.148 E228.64813
G0 F6000 X99.158 Y85.582
G1 F1200 X135.84 Y122.263 E231.06367
G0 F6000 X135.84 Y121.698
G1 F1200 X99.158 Y85.016 E233.47925
G0 F6000 X99.158 Y84.451
G1 F1200 X135.84 Y121.132 E235.89479
G0 F6000 X135.84 Y120.566
G1 F1200 X99.433 Y84.159 E238.29225
G0 F6000 X99.999 Y84.159
G1 F1200 X135.84 Y120 E240.65244
G0 F6000 X135.84 Y119.435
G1 F1200 X100.564 Y84.159 E242.97543
G0 F6000 X101.13 Y84.159
G1 F1200 X135.84 Y118.869 E245.26114
G0 F6000 X135.84 Y118.303
G1 F1200 X101.696 Y84.159 E247.50958
G0 F6000 X102.261 Y84.159
G1 F1200 X135.84 Y117.738 E249.72081
G0 F6000 X135.84 Y117.172
G1 F1200 X102.827 Y84.159 E251.89478
G0 F6000 X103.393 Y84.159
G1 F1200 X135.84 Y116.606 E254.03147
G0 F6000 X135.84 Y116.041
G1 F1200 X103.958 Y84.159 E256.13095
G0 F6000 X104.524 Y84.159
G1 F1200 X135.84 Y115.475 E258.19316
G0 F6000 X135.84 Y114.909
G1 F1200 X105.09 Y84.159 E260.2181
G0 F6000 X105.655 Y84.159
G1 F1200 X135.84 Y114.344 E262.20584
G0 F6000 X135.84 Y113.778
G1 F1200 X106.221 Y84.159 E264.1563
G0 F6000 X106.787 Y84.159
G1 F1200 X135.84 Y113.212 E266.06949
G0 F6000 X135.84 Y112.647
G1 F1200 X107.352 Y84.159 E267.94547
G0 F6000 X107.918 Y84.159
G1 F1200 X135.84 Y112.081 E269.78418
G0 F6000 X135.84 Y111.515
G1 F1200 X108.484 Y84.159 E271.58562
G0 F6000 X109.05 Y84.159
G1 F1200 X135.84 Y110.95 E273.34982
G0 F6000 X135.84 Y110.384
G1 F1200 X109.615 Y84.159 E275.07678
G0 F6000 X110.181 Y84.159
G1 F1200 X135.84 Y109.818 E276.76647
G0 F6000 X135.84 Y109.252
G1 F1200 X110.747 Y84.159 E278.41889
G0 F6000 X111.312 Y84.159
G1 F1200 X135.84 Y108.687 E280.0341
G0 F6000 X135.84 Y108.121
G1 F1200 X111.878 Y84.159 E281.61204
G0 F6000 X112.444 Y84.159
G1 F1200 X135.84 Y107.555 E283.1527
G0 F6000 X135.84 Y106.99
G1 F1200 X113.009 Y84.159 E284.65616
G0 F6000 X113.575 Y84.159
G1 F1200 X135.84 Y106.424 E286.12235
G0 F6000 X135.84 Y105.858
G1 F1200 X114.141 Y84.159 E287.55127
G0 F6000 X114.706 Y84.159
G1 F1200 X135.84 Y105.293 E288.94298
G0 F6000 X135.84 Y104.727
G1 F1200 X115.272 Y84.159 E290.29742
G0 F6000 X115.838 Y84.159
G1 F1200 X135.84 Y104.161 E291.61458
G0 F6000 X135.84 Y103.596
G1 F1200 X116.403 Y84.159 E292.89454
G0 F6000 X116.969 Y84.159
G1 F1200 X135.84 Y103.03 E294.13723
G0 F6000 X135.84 Y102.464
G1 F1200 X117.535 Y84.159 E295.34265
G0 F6000 X118.1 Y84.159
G1 F1200 X135.84 Y101.899 E296.51086
G0 F6000 X135.84 Y101.333
G1 F1200 X118.666 Y84.159 E297.64179
G0 F6000 X119.232 Y84.159
G1 F1200 X135.84 Y100.767 E298.73546
G0 F6000 X135.84 Y100.201
G1 F1200 X119.798 Y84.159 E299.79185
G0 F6000 X120.363 Y84.159
G1 F1200 X135.84 Y99.636 E300.81104
G0 F6000 X135.84 Y99.07
G1 F1200 X120.929 Y84.159 E301.79295
G0 F6000 X121.495 Y84.159
G1 F1200 X135.84 Y98.504 E302.73759
G0 F6000 X135.84 Y97.939
G1 F1200 X122.06 Y84.159 E303.64503
G0 F6000 X122.626 Y84.159
G1 F1200 X135.84 Y97.373 E304.5152
G0 F6000 X135.84 Y96.807
G1 F1200 X123.192 Y84.159 E305.34809
G0 F6000 X123.757 Y84.159
G1 F1200 X135.84 Y96.242 E306.14377
G0 F6000 X135.84 Y95.676
G1 F1200 X124.323 Y84.159 E306.90219
G0 F6000 X124.889 Y84.159
G1 F1200 X135.84 Y95.11 E307.62333
G0 F6000 X135.84 Y94.545
G1 F1200 X125.454 Y84.159 E308.30727
G0 F6000 X126.02 Y84.159
G1 F1200 X135.84 Y93.979 E308.95393
G0 F6000 X135.84 Y93.413
G1 F1200 X126.586 Y84.159 E309.56332
G0 F6000 X127.151 Y84.159
G1 F1200 X135.84 Y92.848 E310.13551
G0 F6000 X135.84 Y92.282
G1 F1200 X127.717 Y84.159 E310.67042
G0 F6000 X128.283 Y84.159
G1 F1200 X135.84 Y91.716 E311.16806
G0 F6000 X135.84 Y91.151
G1 F1200 X128.848 Y84.159 E311.6285
G0 F6000 X129.414 Y84.159
G1 F1200 X135.84 Y90.585 E312.05166
G0 F6000 X135.84 Y90.019
G1 F1200 X129.98 Y84.159 E312.43755
G0 F6000 X130.546 Y84.159
G1 F1200 X135.84 Y89.453 E312.78617
G0 F6000 X135.84 Y88.888
G1 F1200 X131.111 Y84.159 E313.09758
G0 F6000 X131.677 Y84.159
G1 F1200 X135.84 Y88.322 E313.37172
G0 F6000 X135.84 Y87.756
G1 F1200 X132.243 Y84.159 E313.60859
G0 F6000 X132.808 Y84.159
G1 F1200 X135.84 Y87.191 E313.80825
G0 F6000 X135.84 Y86.625
G1 F1200 X133.374 Y84.159 E313.97065
G0 F6000 X133.94 Y84.159
G1 F1200 X135.84 Y86.059 E314.09576
G0 F6000 X135.84 Y85.494
G1 F1200 X134.505 Y84.159 E314.18368
G0 F6000 X135.071 Y84.159
G1 F1200 X135.84 Y84.928 E314.23432
G0 F6000 X135.84 Y84.362
G1 F1200 X135.637 Y84.159 E314.24768
G1 F1500 E307.74768
;MESH:NONMESH
G0 F300 X135.637 Y84.159 Z0.56
G0 F6000 X135.637 Y83.7
G0 X98.772 Y83.772
G0 X98.58 Y151.42
G1 F1500 E314.24768
G0 F6000 X98.2 Y151.8
;TIME_ELAPSED:357.302615
;LAYER:1
M106 S85
;TYPE:WALL-OUTER
;MESH:battery holder.stl
G1 F1350 X136.8 Y151.8 E316.04506
G1 X136.8 Y102.5 E318.34068
G1 X136.8 Y83.2 E319.23936
G1 X98.2 Y83.2 E321.03674
G1 X98.2 Y151.8 E324.23105
G0 F7500 X98.6 Y151.4
;TYPE:WALL-INNER
G1 F1350 X136.4 Y151.4 E325.99117
G1 X136.4 Y102.5 E328.26816
G1 X136.4 Y83.6 E329.14822
G1 X98.6 Y83.6 E330.90835
G1 X98.6 Y151.4 E334.0654
G0 F7500 X98.96 Y151.04
;TYPE:SKIN
G1 F1350 X136.04 Y151.04 E335.792
G1 X136.04 Y83.96 E338.91553
G1 X98.96 Y83.96 E340.64213
G1 X98.96 Y151.04 E343.76565
G1 F1500 E337.26565
G0 F7500 X98.7 Y151.04
G0 X135.397 Y151.3
G1 F1500 E343.76565
G0 F7500 X135.397 Y150.839
G1 F1350 X135.839 Y150.397 E343.79476
G0 F7500 X135.839 Y149.831
G1 F1350 X134.831 Y150.839 E343.86114
G0 F7500 X134.266 Y150.839
G1 F1350 X135.839 Y149.265 E343.96476
G0 F7500 X135.839 Y148.7
G1 F1350 X133.7 Y150.839 E344.10561
G0 F7500 X133.134 Y150.839
G1 F1350 X135.839 Y148.134 E344.28374
G0 F7500 X135.839 Y147.568
G1 F1350 X132.569 Y150.839 E344.49911
G0 F7500 X132.003 Y150.839
G1 F1350 X135.839 Y147.003 E344.75172
G0 F7500 X135.839 Y146.437
G1 F1350 X131.437 Y150.839 E345.0416
G0 F7500 X130.872 Y150.839
G1 F1350 X135.839 Y145.871 E345.36872
G0 F7500 X135.839 Y145.306
G1 F1350 X130.306 Y150.839 E345.73307
G0 F7500 X129.74 Y150.839
G1 F1350 X135.839 Y144.74 E346.1347
G0 F7500 X135.839 Y144.174
G1 F1350 X129.174 Y150.839 E346.5736
G0 F7500 X128.609 Y150.839
G1 F1350 X135.839 Y143.609 E347.04971
G0 F7500 X135.839 Y143.043
G1 F1350 X128.043 Y150.839 E347.56309
G0 F7500 X127.477 Y150.839
G1 F1350 X135.839 Y142.477 E348.11374
G0 F7500 X135.839 Y141.912
G1 F1350 X126.912 Y150.839 E348.7016
G0 F7500 X126.346 Y150.839
G1 F1350 X135.839 Y141.346 E349.32673
G0 F7500 X135.839 Y140.78
G1 F1350 X125.78 Y150.839 E349.98913
G0 F7500 X125.215 Y150.839
G1 F1350 X135.839 Y140.215 E350.68874
G0 F7500 X135.839 Y139.649
G1 F1350 X124.649 Y150.839 E351.42562
G0 F7500 X124.083 Y150.839
G1 F1350 X135.839 Y139.083 E352.19978
G0 F7500 X135.839 Y138.517
G1 F1350 X123.518 Y150.839 E353.01117
G0 F7500 X122.952 Y150.839
G1 F1350 X135.839 Y137.952 E353.8598
G0 F7500 X135.839 Y137.386
G1 F1350 X122.386 Y150.839 E354.7457
G0 F7500 X121.821 Y150.839
G1 F1350 X135.839 Y136.82 E355.66884
G0 F7500 X135.839 Y136.255
G1 F1350 X121.255 Y150.839 E356.62923
G0 F7500 X120.689 Y150.839
G1 F1350 X135.839 Y135.689 E357.62688
G0 F7500 X135.839 Y135.123
G1 F1350 X120.124 Y150.839 E358.66177
G0 F7500 X119.558 Y150.839
G1 F1350 X135.839 Y134.558 E359.7339
G0 F7500 X135.839 Y133.992
G1 F1350 X118.992 Y150.839 E360.84331
G0 F7500 X118.426 Y150.839
G1 F1350 X135.839 Y133.426 E361.98998
G0 F7500 X135.839 Y132.861
G1 F1350 X117.861 Y150.839 E363.17386
G0 F7500 X117.295 Y150.839
G1 F1350 X135.839 Y132.295 E364.39502
G0 F7500 X135.839 Y131.729
G1 F1350 X116.729 Y150.839 E365.65344
G0 F7500 X116.164 Y150.839
G1 F1350 X135.839 Y131.164 E366.94908
G0 F7500 X135.839 Y130.598
G1 F1350 X115.598 Y150.839 E368.28198
G0 F7500 X115.032 Y150.839
