;FLAVOR:Marlin
;TIME:2321
;Filament used: 2.38183m
;Layer height: 0.28
;MINX:81.833
;MINY:92.834
;MINZ:0.28
;MAXX:153.246
;MAXY:141.298
;MAXZ:10.92
;Generated with Cura_SteamEngine 5.0.0
M140 S60
M105
M190 S60
M104 S200
M105
M109 S200
M82 ;absolute extrusion mode
; Ender 3 Custom Start G-code
G92 E0 ; Reset Extruder
G28 ; Home all axes
G1 Z2.0 F3000 ; Move Z Axis up little to prevent scratching of Heat Bed
G1 X0.1 Y20 Z0.3 F5000.0 ; Move to start position
G1 X0.1 Y200.0 Z0.3 F1500.0 E15 ; Draw the first line
G1 X0.4 Y200.0 Z0.3 F5000.0 ; Move to side a little
G1 X0.4 Y20 Z0.3 F1500.0 E30 ; Draw the second line
G92 E0 ; Reset Extruder
G1 Z2.0 F3000 ; Move Z Axis up little to prevent scratching of Heat Bed
G1 X5 Y20 Z0.3 F5000.0 ; Move over to prevent blob squish
G92 E0
G92 E0
G1 F1500 E-6.5
;LAYER_COUNT:39
;LAYER:0
M107
;MESH:main arm.stl
G0 F6000 X117.498 Y141.298 Z0.28
;TYPE:WALL-OUTER
G1 F1500 E0
G1 F1200 X122.939 Y140.869 E0.25414
G1 X128.238 Y139.597 E0.5079
G1 X133.298 Y137.505 E0.76285
G1 X137.954 Y134.652 E1.01712
G1 X142.107 Y131.106 E1.2714
G1 X145.653 Y126.952 E1.52572
G1 X148.507 Y122.295 E1.78005
G1 X150.601 Y117.239 E2.03487
G1 X151.868 Y111.939 E2.28862
G1 X152.297 Y106.496 E2.54285
G1 X152.268 Y106.123 E2.56027
G1 X152.238 Y105.748 E2.57779
G1 X152.066 Y105.03 E2.61217
G1 X151.774 Y104.318 E2.648
G1 X151.38 Y103.677 E2.68304
G1 X150.892 Y103.103 E2.71812
G1 X150.34 Y102.635 E2.75182
G1 X149.696 Y102.235 E2.78712
G1 X148.991 Y101.938 E2.82274
G1 X148.272 Y101.766 E2.85717
G1 X147.523 Y101.702 E2.89217
G1 X146.777 Y101.758 E2.927
G1 X146.054 Y101.928 E2.96159
G1 X145.341 Y102.214 E2.99736
G1 X144.698 Y102.603 E3.03235
G1 X144.124 Y103.088 E3.06734
G1 X143.614 Y103.68 E3.10373
G1 X143.22 Y104.323 E3.13884
G1 X142.928 Y105.03 E3.17446
G1 X142.756 Y105.779 E3.21025
G1 X142.389 Y110.444 E3.42814
G1 X141.466 Y114.284 E3.61204
G1 X139.953 Y117.939 E3.79624
G1 X137.887 Y121.31 E3.98034
G1 X135.331 Y124.306 E4.16372
G1 X135.308 Y124.329 E4.16523
G1 X132.31 Y126.886 E4.34871
G1 X128.938 Y128.954 E4.5329
G1 X125.286 Y130.465 E4.71693
G1 X121.443 Y131.389 E4.90098
G1 X117.514 Y131.699 E5.0845
G1 X117.482 Y131.699 E5.08599
G1 X113.553 Y131.389 E5.26951
G1 X109.711 Y130.465 E5.45351
G1 X106.059 Y128.954 E5.63754
G1 X102.687 Y126.886 E5.82173
G1 X99.689 Y124.329 E6.00521
G1 X99.666 Y124.306 E6.00673
G1 X97.11 Y121.31 E6.1901
G1 X95.043 Y117.939 E6.37423
G1 X93.531 Y114.284 E6.55841
G1 X92.608 Y110.442 E6.7424
G1 X92.298 Y106.515 E6.92583
G1 X92.298 Y93.699 E7.52259
G1 X82.698 Y93.699 E7.96961
G1 X82.698 Y106.49 E8.56521
G1 X83.128 Y111.939 E8.81973
G1 X84.4 Y117.239 E9.07353
G1 X86.49 Y122.295 E9.32828
G1 X89.344 Y126.952 E9.58261
G1 X92.89 Y131.106 E9.83693
G1 X97.043 Y134.652 E10.09121
G1 X101.699 Y137.505 E10.34548
G1 X106.759 Y139.602 E10.60052
G1 X112.058 Y140.869 E10.85422
G1 X117.498 Y141.298 E11.10832
G0 F6000 X117.498 Y140.897
;TYPE:WALL-INNER
G1 F1200 X122.876 Y140.473 E11.35952
G1 X128.114 Y139.215 E11.61036
G1 X133.116 Y137.147 E11.86239
G1 X137.718 Y134.328 E12.11369
G1 X141.823 Y130.822 E12.36506
G1 X145.328 Y126.716 E12.61644
G1 X148.149 Y122.113 E12.86782
G1 X150.219 Y117.115 E13.11972
G1 X151.472 Y111.877 E13.37051
G1 X151.868 Y106.836 E13.60596
G1 X151.896 Y106.496 E13.62185
G1 X151.869 Y106.154 E13.63782
G1 X151.842 Y105.811 E13.65384
G1 X151.684 Y105.154 E13.68531
G1 X151.416 Y104.5 E13.71822
G1 X151.055 Y103.913 E13.75031
G1 X150.608 Y103.387 E13.78245
G1 X150.104 Y102.959 E13.81324
G1 X149.512 Y102.591 E13.84569
G1 X148.866 Y102.32 E13.87831
G1 X148.208 Y102.162 E13.90982
G1 X147.521 Y102.104 E13.94193
G1 X146.838 Y102.155 E13.97382
G1 X146.175 Y102.311 E14.00554
G1 X145.521 Y102.573 E14.03834
G1 X144.932 Y102.929 E14.07039
G1 X144.406 Y103.373 E14.10244
G1 X143.938 Y103.916 E14.13582
G1 X143.578 Y104.505 E14.16796
G1 X143.31 Y105.152 E14.20057
G1 X143.152 Y105.84 E14.23344
G1 X142.79 Y110.46 E14.44923
G1 X142.775 Y110.553 E14.45361
G1 X141.847 Y114.407 E14.6382
G1 X141.83 Y114.452 E14.64044
G1 X140.329 Y118.078 E14.82318
G1 X140.286 Y118.162 E14.82757
G1 X138.237 Y121.506 E15.01019
G1 X138.182 Y121.582 E15.01456
G1 X135.635 Y124.566 E15.19724
G1 X135.568 Y124.633 E15.20165
G1 X132.582 Y127.181 E15.38443
G1 X132.506 Y127.236 E15.3888
G1 X129.161 Y129.287 E15.5715
G1 X129.077 Y129.33 E15.5759
G1 X125.454 Y130.829 E15.75847
G1 X125.365 Y130.858 E15.76283
G1 X121.552 Y131.775 E15.94544
G1 X121.459 Y131.79 E15.94983
G1 X117.546 Y132.098 E16.1326
G1 X117.45 Y132.098 E16.13707
G1 X113.537 Y131.79 E16.31984
G1 X113.444 Y131.775 E16.32422
G1 X109.632 Y130.858 E16.50679
G1 X109.543 Y130.829 E16.51115
G1 X105.92 Y129.33 E16.69372
G1 X105.836 Y129.287 E16.69811
G1 X102.491 Y127.236 E16.88082
G1 X102.415 Y127.181 E16.88519
G1 X99.429 Y124.633 E17.06797
G1 X99.362 Y124.566 E17.07238
G1 X96.815 Y121.582 E17.25506
G1 X96.76 Y121.506 E17.25943
G1 X94.71 Y118.162 E17.44207
G1 X94.667 Y118.078 E17.44646
G1 X93.167 Y114.452 E17.62918
G1 X93.138 Y114.363 E17.63354
G1 X92.222 Y110.551 E17.8161
G1 X92.207 Y110.458 E17.82048
G1 X91.899 Y106.547 E18.00316
G1 X91.898 Y94.099 E18.58279
G1 X83.098 Y94.099 E18.99256
G1 X83.098 Y106.474 E19.56879
G1 X83.524 Y111.876 E19.82111
G1 X84.782 Y117.115 E20.07199
G1 X86.848 Y122.113 E20.32382
G1 X89.283 Y126.088 E20.54088
G1 X89.669 Y126.716 E20.5752
G1 X93.174 Y130.822 E20.82658
G1 X97.279 Y134.328 E21.07796
G1 X101.881 Y137.147 E21.32925
G1 X106.883 Y139.22 E21.58138
G1 X112.121 Y140.473 E21.83216
G1 X117.154 Y140.869 E22.06724
G1 X117.498 Y140.897 E22.08331
G0 F6000 X117.498 Y140.535
;TYPE:SKIN
G1 F1200 X122.816 Y140.116 E22.33171
G1 X127.988 Y138.874 E22.57939
G1 X132.954 Y136.825 E22.82953
G1 X137.507 Y134.034 E23.0782
G1 X141.569 Y130.566 E23.32691
G1 X145.037 Y126.503 E23.57564
G1 X147.829 Y121.946 E23.8245
G1 X149.877 Y116.989 E24.07424
G1 X151.115 Y111.816 E24.32192
G1 X151.534 Y106.493 E24.57055
G1 X151.51 Y106.184 E24.58498
G1 X151.485 Y105.867 E24.59978
G1 X151.343 Y105.279 E24.62795
G1 X151.093 Y104.662 E24.65895
G1 X150.762 Y104.124 E24.68836
G1 X150.352 Y103.641 E24.71786
G1 X149.891 Y103.251 E24.74598
G1 X149.344 Y102.911 E24.77597
G1 X148.74 Y102.661 E24.80641
G1 X148.147 Y102.519 E24.8348
G1 X147.519 Y102.465 E24.86415
G1 X146.897 Y102.512 E24.8932
G1 X146.283 Y102.657 E24.92258
G1 X145.68 Y102.897 E24.9528
G1 X145.142 Y103.223 E24.98209
G1 X144.659 Y103.63 E25.0115
G1 X144.229 Y104.131 E25.04224
G1 X143.899 Y104.671 E25.07171
G1 X143.653 Y105.276 E25.10212
G1 X143.509 Y105.898 E25.13185
G1 X143.14 Y110.563 E25.34975
G1 X142.21 Y114.446 E25.53567
G1 X142.163 Y114.592 E25.54281
G1 X140.631 Y118.283 E25.7289
G1 X138.505 Y121.756 E25.91851
G1 X135.902 Y124.808 E26.10529
G1 X135.802 Y124.909 E26.11191
G1 X132.759 Y127.5 E26.29801
G1 X129.336 Y129.603 E26.48508
G1 X129.215 Y129.663 E26.49137
G1 X125.534 Y131.184 E26.67683
G1 X125.504 Y131.193 E26.67828
G1 X121.619 Y132.129 E26.86436
G1 X121.483 Y132.149 E26.87076
G1 X117.498 Y132.459 E27.05688
G1 X113.448 Y132.142 E27.24604
G1 X113.417 Y132.137 E27.24751
G1 X109.525 Y131.202 E27.43389
G1 X109.389 Y131.156 E27.44058
G1 X105.711 Y129.631 E27.62598
G1 X102.238 Y127.502 E27.81566
G1 X99.149 Y124.866 E28.00475
G1 X99.126 Y124.843 E28.00627
G1 X96.494 Y121.757 E28.19513
G1 X94.401 Y118.35 E28.38132
G1 X94.334 Y118.216 E28.38829
G1 X92.806 Y114.513 E28.57482
G1 X91.86 Y110.575 E28.76341
G1 X91.855 Y110.544 E28.76487
G1 X91.54 Y106.56 E28.95096
G1 X91.538 Y94.459 E29.51444
G1 X83.458 Y94.459 E29.89067
G1 X83.458 Y106.459 E30.44944
G1 X83.881 Y111.816 E30.69967
G1 X85.123 Y116.989 E30.94739
G1 X87.168 Y121.947 E31.19712
G1 X89.96 Y126.503 E31.44593
G1 X93.428 Y130.566 E31.69467
G1 X97.49 Y134.034 E31.94337
G1 X102.044 Y136.825 E32.19208
G1 X107.009 Y138.883 E32.44235
G1 X111.546 Y139.964 E32.65952
G1 X112.181 Y140.116 E32.68993
G1 X117.498 Y140.535 E32.93827
G0 F6000 X117.478 Y140.793
G0 X112.146 Y140.314
G0 X106.933 Y139.067
G0 X101.954 Y137.003
G0 X97.374 Y134.197
G0 X93.842 Y131.26
G0 X94.141 Y130.91
G1 F1200 X93.082 Y129.852 E33.00798
G0 F6000 X92.732 Y130.149
G0 X89.638 Y126.473
G0 X90.03 Y126.234
G1 F1200 X97.761 Y133.964 E33.51705
G0 F6000 X97.52 Y134.357
G0 X98.98 Y135.251
G0 X99.221 Y134.86
G1 F1200 X89.135 Y124.773 E34.18126
G0 F6000 X88.742 Y125.013
G0 X87.846 Y123.551
G0 X88.239 Y123.311
G1 F1200 X100.682 Y135.754 E35.00065
G0 F6000 X100.441 Y136.147
G0 X101.962 Y137.071
G0 X102.139 Y136.646
G1 F1200 X87.345 Y121.852 E35.97486
G0 F6000 X86.921 Y122.027
G0 X86.523 Y121.064
G0 X86.948 Y120.889
G1 F1200 X103.106 Y137.047 E37.03889
G0 F6000 X102.929 Y137.472
G0 X103.895 Y137.873
G0 X104.072 Y137.448
G1 F1200 X86.551 Y119.926 E38.19271
G0 F6000 X86.125 Y120.101
G0 X85.727 Y119.14
G0 X86.154 Y118.964
G1 F1200 X105.038 Y137.848 E39.43626
G0 F6000 X104.861 Y138.273
G0 X105.828 Y138.674
G0 X106.005 Y138.249
G1 F1200 X85.757 Y118.001 E40.76962
G0 F6000 X85.329 Y118.177
G0 X84.931 Y117.213
G0 X85.359 Y117.038
G1 F1200 X106.971 Y138.649 E42.19278
G0 F6000 X107.736 Y138.849
G1 F1200 X85.155 Y116.268 E43.67977
G0 F6000 X84.976 Y115.523
G1 F1200 X108.48 Y139.027 E45.22755
G0 F6000 X109.223 Y139.204
G1 F1200 X84.797 Y114.778 E46.83605
G0 F6000 X84.618 Y114.034
G1 F1200 X109.965 Y139.381 E48.50519
G0 F6000 X110.708 Y139.558
G1 F1200 X84.439 Y113.289 E50.23505
G0 F6000 X84.26 Y112.545
G1 F1200 X111.451 Y139.735 E52.02559
G0 F6000 X112.194 Y139.913
G1 F1200 X84.082 Y111.8 E53.87685
G0 F6000 X84.031 Y111.184
G1 F1200 X112.811 Y139.964 E55.77206
G0 F6000 X113.425 Y140.012
G1 F1200 X83.982 Y110.569 E57.71093
G0 F6000 X83.934 Y109.955
G1 F1200 X114.039 Y140.06 E59.6934
G0 F6000 X114.653 Y140.108
G1 F1200 X102.35 Y127.806 E60.50354
G0 F6000 X102.59 Y127.415
G0 X104.05 Y128.31
G0 X103.81 Y128.7
G1 F1200 X115.266 Y140.157 E61.25797
G0 F6000 X115.881 Y140.205
G1 F1200 X105.269 Y129.594 E61.95675
G0 F6000 X105.509 Y129.204
G0 X106.529 Y129.691
G0 X106.354 Y130.113
G1 F1200 X116.495 Y140.253 E62.62452
G0 F6000 X117.108 Y140.302
G1 F1200 X107.321 Y130.514 E63.26904
G0 F6000 X107.497 Y130.091
G0 X108.463 Y130.491
G0 X108.287 Y130.914
G1 F1200 X117.69 Y140.317 E63.88825
G0 F6000 X118.214 Y140.276
G1 F1200 X109.253 Y131.315 E64.47835
G0 F6000 X110.035 Y131.531
G1 F1200 X118.738 Y140.234 E65.05145
G0 F6000 X119.263 Y140.193
G1 F1200 X110.779 Y131.709 E65.61014
G0 F6000 X111.522 Y131.887
G1 F1200 X119.788 Y140.152 E66.15444
G0 F6000 X120.312 Y140.111
G1 F1200 X112.266 Y132.065 E66.68428
G0 F6000 X113.01 Y132.243
G1 F1200 X120.836 Y140.07 E67.19967
G0 F6000 X121.361 Y140.029
G1 F1200 X113.692 Y132.36 E67.70468
G0 F6000 X114.306 Y132.408
G1 F1200 X121.886 Y139.988 E68.20384
G0 F6000 X122.41 Y139.946
G1 F1200 X114.92 Y132.456 E68.69707
G0 F6000 X115.534 Y132.504
G1 F1200 X122.914 Y139.885 E69.18309
G0 F6000 X123.371 Y139.775
G1 F1200 X116.147 Y132.552 E69.65877
G0 F6000 X116.761 Y132.6
G1 F1200 X123.827 Y139.666 E70.12408
G0 F6000 X124.283 Y139.557
G1 F1200 X117.375 Y132.648 E70.57901
G0 F6000 X117.917 Y132.625
G1 F1200 X124.74 Y139.447 E71.02829
G0 F6000 X125.196 Y139.338
G1 F1200 X118.442 Y132.584 E71.47305
G0 F6000 X118.967 Y132.544
G1 F1200 X125.652 Y139.228 E71.91323
G0 F6000 X126.108 Y139.119
G1 F1200 X119.492 Y132.503 E72.34891
G0 F6000 X120.017 Y132.462
G1 F1200 X126.564 Y139.009 E72.78004
G0 F6000 X127.02 Y138.899
G1 F1200 X120.541 Y132.421 E73.20666
G0 F6000 X121.066 Y132.38
G1 F1200 X127.476 Y138.79 E73.62877
G0 F6000 X127.931 Y138.679
G1 F1200 X121.587 Y132.335 E74.04653
G0 F6000 X122.049 Y132.231
G1 F1200 X128.332 Y138.514 E74.46028
G0 F6000 X128.733 Y138.349
G1 F1200 X122.504 Y132.121 E74.87044
G0 F6000 X122.96 Y132.011
G1 F1200 X129.133 Y138.184 E75.27694
G0 F6000 X129.533 Y138.018
G1 F1200 X123.415 Y131.9 E75.67982
G0 F6000 X123.87 Y131.79
G1 F1200 X129.933 Y137.853 E76.07908
G0 F6000 X130.334 Y137.688
G1 F1200 X124.326 Y131.68 E76.47472
G0 F6000 X124.781 Y131.569
G1 F1200 X130.734 Y137.523 E76.86676
G0 F6000 X131.135 Y137.357
G1 F1200 X125.237 Y131.459 E77.25516
G0 F6000 X125.681 Y131.338
G1 F1200 X131.535 Y137.192 E77.64065
G0 F6000 X131.936 Y137.027
G1 F1200 X126.082 Y131.173 E78.02615
G0 F6000 X126.483 Y131.008
G1 F1200 X132.336 Y136.861 E78.41158
G0 F6000 X132.736 Y136.696
G1 F1200 X126.883 Y130.843 E78.79701
G0 F6000 X127.283 Y130.677
G1 F1200 X133.102 Y136.497 E79.18023
G0 F6000 X133.453 Y136.282
G1 F1200 X127.683 Y130.512 E79.5602
G0 F6000 X128.083 Y130.346
G1 F1200 X133.804 Y136.067 E79.93693
G0 F6000 X134.155 Y135.852
G1 F1200 X128.484 Y130.181 E80.31038
G0 F6000 X128.884 Y130.015
G1 F1200 X134.505 Y135.637 E80.68057
G0 F6000 X134.857 Y135.422
G1 F1200 X129.284 Y129.85 E81.04752
G0 F6000 X129.647 Y129.647
G1 F1200 X135.208 Y135.208 E81.41373
G0 F6000 X135.558 Y134.993
G1 F1200 X129.997 Y129.431 E81.77996
G0 F6000 X130.347 Y129.215
G1 F1200 X135.909 Y134.778 E82.14626
G0 F6000 X136.26 Y134.563
G1 F1200 X130.697 Y129 E82.51259
G0 F6000 X131.047 Y128.784
G1 F1200 X136.61 Y134.348 E82.87896
G0 F6000 X136.961 Y134.133
G1 F1200 X131.397 Y128.568 E83.24539
G0 F6000 X131.747 Y128.353
G1 F1200 X137.312 Y133.918 E83.61186
G0 F6000 X137.627 Y133.667
G1 F1200 X132.097 Y128.137 E83.97602
G0 F6000 X132.448 Y127.922
G1 F1200 X137.932 Y133.407 E84.33718
G0 F6000 X138.237 Y133.146
G1 F1200 X132.798 Y127.707 E84.69535
G0 F6000 X133.116 Y127.459
G1 F1200 X138.542 Y132.885 E85.05266
G0 F6000 X138.847 Y132.624
G1 F1200 X133.421 Y127.199 E85.40994
G0 F6000 X133.726 Y126.938
G1 F1200 X139.152 Y132.364 E85.76725
G0 F6000 X139.457 Y132.103
G1 F1200 X134.032 Y126.678 E86.12449
G0 F6000 X134.336 Y126.417
G1 F1200 X139.763 Y131.843 E86.48184
G0 F6000 X140.067 Y131.582
G1 F1200 X134.642 Y126.157 E86.83908
G0 F6000 X134.947 Y125.896
G1 F1200 X140.373 Y131.322 E87.19639
G0 F6000 X140.678 Y131.061
G1 F1200 X135.252 Y125.635 E87.55371
G0 F6000 X135.558 Y125.375
G1 F1200 X140.983 Y130.801 E87.91098
G0 F6000 X141.288 Y130.54
G1 F1200 X135.863 Y125.115 E88.26823
G0 F6000 X136.144 Y124.83
G1 F1200 X141.569 Y130.256 E88.62551
G0 F6000 X141.83 Y129.951
G1 F1200 X136.404 Y124.525 E88.98282
G0 F6000 X136.664 Y124.219
G1 F1200 X142.09 Y129.645 E89.34013
G0 F6000 X142.351 Y129.34
G1 F1200 X136.924 Y123.914 E89.69747
G0 F6000 X137.185 Y123.608
G1 F1200 X142.612 Y129.035 E90.05485
G0 F6000 X142.872 Y128.73
G1 F1200 X137.445 Y123.303 E90.41223
G0 F6000 X137.704 Y122.996
G1 F1200 X143.133 Y128.425 E90.76974
G0 F6000 X143.393 Y128.119
G1 F1200 X137.965 Y122.691 E91.12718
G0 F6000 X138.225 Y122.386
G1 F1200 X143.653 Y127.814 E91.48462
G0 F6000 X143.914 Y127.509
G1 F1200 X138.485 Y122.08 E91.84213
G0 F6000 X138.735 Y121.764
G1 F1200 X144.174 Y127.204 E92.20033
G0 F6000 X144.435 Y126.899
G1 F1200 X138.949 Y121.413 E92.5616
G0 F6000 X139.163 Y121.061
G1 F1200 X144.695 Y126.594 E92.92592
G0 F6000 X144.942 Y126.274
G1 F1200 X139.377 Y120.71 E93.29235
G0 F6000 X139.592 Y120.358
G1 F1200 X145.157 Y125.923 E93.65882
G0 F6000 X145.371 Y125.572
G1 F1200 X139.806 Y120.007 E94.02528
G0 F6000 X140.021 Y119.656
G1 F1200 X145.586 Y125.222 E94.39178
G0 F6000 X145.801 Y124.871
G1 F1200 X140.235 Y119.305 E94.75831
G0 F6000 X140.449 Y118.953
G1 F1200 X146.016 Y124.52 E95.12491
G0 F6000 X146.231 Y124.17
G1 F1200 X140.664 Y118.602 E95.49154
G0 F6000 X140.865 Y118.238
G1 F1200 X146.446 Y123.818 E95.85902
G0 F6000 X146.661 Y123.467
G1 F1200 X141.031 Y117.837 E96.22977
G0 F6000 X141.197 Y117.438
G1 F1200 X146.875 Y123.117 E96.60371
G0 F6000 X147.09 Y122.766
G1 F1200 X141.362 Y117.038 E96.9809
G0 F6000 X141.528 Y116.638
G1 F1200 X147.305 Y122.415 E97.36133
G0 F6000 X147.52 Y122.065
G1 F1200 X141.695 Y116.239 E97.74495
G0 F6000 X141.86 Y115.838
G1 F1200 X147.716 Y121.694 E98.13058
G0 F6000 X147.881 Y121.294
G1 F1200 X142.026 Y115.439 E98.51614
G0 F6000 X142.192 Y115.039
G1 F1200 X148.046 Y120.893 E98.90163
G0 F6000 X148.211 Y120.493
G1 F1200 X142.358 Y114.639 E99.2871
G0 F6000 X142.475 Y114.191
G1 F1200 X148.377 Y120.092 E99.67572
G0 F6000 X148.542 Y119.692
G1 F1200 X142.585 Y113.735 E100.068
G0 F6000 X142.694 Y113.279
G1 F1200 X148.708 Y119.292 E100.464
G0 F6000 X148.873 Y118.892
G1 F1200 X142.803 Y112.822 E100.86372
G0 F6000 X142.913 Y112.366
