;FLAVOR:Marlin
;TIME:2467
;Filament used: 2.9016m
;Layer height: 0.28
;MINX:95.2
;MINY:106.2
;MINZ:0.28
;MAXX:139.8
;MAXY:128.8
;MAXZ:22.96
;Generated with Cura_SteamEngine 5.0.0
M140 S60
M105
M190 S60
M104 S200
M105
M109 S200
M82 ;absolute extrusion mode
; Ender 3 Custom Start G-code
G92 E0 ; Reset Extruder
G28 ; Home all axes
G1 Z2.0 F3000 ; Move Z Axis up little to prevent scratching of Heat Bed
G1 X0.1 Y20 Z0.3 F5000.0 ; Move to start position
G1 X0.1 Y200.0 Z0.3 F1500.0 E15 ; Draw the first line
G1 X0.4 Y200.0 Z0.3 F5000.0 ; Move to side a little
G1 X0.4 Y20 Z0.3 F1500.0 E30 ; Draw the second line
G92 E0 ; Reset Extruder
G1 Z2.0 F3000 ; Move Z Axis up little to prevent scratching of Heat Bed
G1 X5 Y20 Z0.3 F5000.0 ; Move over to prevent blob squish
G92 E0
G92 E0
G1 F1500 E-6.5
;LAYER_COUNT:82
;LAYER:0
M107
;MESH:main arm holder.stl
G0 F6000 X95.2 Y128.8 Z0.28
;TYPE:WALL-OUTER
G1 F1500 E0
G1 F1200 X139.8 Y128.8 E2.07676
G1 X139.8 Y117.5 E2.60294
G1 X139.8 Y106.2 E3.12911
G1 X95.2 Y106.2 E5.20588
G1 X95.2 Y128.8 E6.25823
G0 F6000 X95.6 Y128.4
;TYPE:WALL-INNER
G1 F1200 X139.4 Y128.4 E8.29774
G1 X139.4 Y117.5 E8.80529
G1 X139.4 Y106.6 E9.31284
G1 X95.6 Y106.6 E11.35235
G1 X95.6 Y128.4 E12.36745
G0 F6000 X95.96 Y128.04
;TYPE:SKIN
G1 F1200 X139.04 Y128.04 E14.37343
G1 X139.04 Y117.5 E14.86422
G1 X139.04 Y106.96 E15.35501
G1 X95.96 Y106.96 E17.36099
G1 X95.96 Y128.04 E18.34257
G0 F6000 X96.726 Y127.839
G1 F1200 X96.159 Y127.272 E18.3799
G0 F6000 X96.159 Y126.706
G1 F1200 X97.292 Y127.839 E18.45451
G0 F6000 X97.857 Y127.839
G1 F1200 X96.159 Y126.14 E18.56636
G0 F6000 X96.159 Y125.575
G1 F1200 X98.423 Y127.839 E18.71545
G0 F6000 X98.989 Y127.839
G1 F1200 X96.159 Y125.009 E18.90181
G0 F6000 X96.159 Y124.443
G1 F1200 X99.554 Y127.839 E19.12541
G0 F6000 X100.12 Y127.839
G1 F1200 X96.159 Y123.878 E19.38625
G0 F6000 X96.159 Y123.312
G1 F1200 X100.686 Y127.839 E19.68436
G0 F6000 X101.252 Y127.839
G1 F1200 X96.159 Y122.746 E20.01974
G0 F6000 X96.159 Y122.18
G1 F1200 X101.817 Y127.839 E20.39236
G0 F6000 X102.383 Y127.839
G1 F1200 X96.159 Y121.615 E20.80223
G0 F6000 X96.159 Y121.049
G1 F1200 X102.949 Y127.839 E21.24936
G0 F6000 X103.514 Y127.839
G1 F1200 X96.159 Y120.483 E21.73373
G0 F6000 X96.159 Y119.918
G1 F1200 X104.08 Y127.839 E22.25534
G0 F6000 X104.646 Y127.839
G1 F1200 X96.159 Y119.352 E22.81423
G0 F6000 X96.159 Y118.786
G1 F1200 X105.211 Y127.839 E23.41035
G0 F6000 X105.777 Y127.839
G1 F1200 X96.159 Y118.221 E24.04371
G0 F6000 X96.159 Y117.655
G1 F1200 X106.343 Y127.839 E24.71434
G0 F6000 X106.908 Y127.839
G1 F1200 X96.159 Y117.089 E25.42222
G0 F6000 X96.159 Y116.524
G1 F1200 X107.474 Y127.839 E26.16733
G0 F6000 X108.04 Y127.839
G1 F1200 X96.159 Y115.958 E26.94971
G0 F6000 X96.159 Y115.392
G1 F1200 X108.605 Y127.839 E27.76934
G0 F6000 X109.171 Y127.839
G1 F1200 X96.159 Y114.827 E28.6262
G0 F6000 X96.159 Y114.261
G1 F1200 X109.737 Y127.839 E29.52033
G0 F6000 X110.303 Y127.839
G1 F1200 X96.159 Y113.695 E30.45174
G0 F6000 X96.159 Y113.13
G1 F1200 X110.868 Y127.839 E31.42035
G0 F6000 X111.434 Y127.839
G1 F1200 X96.159 Y112.564 E32.42624
G0 F6000 X96.159 Y111.998
G1 F1200 X112 Y127.839 E33.46939
G0 F6000 X112.565 Y127.839
G1 F1200 X96.159 Y111.432 E34.54979
G0 F6000 X96.159 Y110.867
G1 F1200 X113.131 Y127.839 E35.66743
G0 F6000 X113.697 Y127.839
G1 F1200 X96.159 Y110.301 E36.82233
G0 F6000 X96.159 Y109.735
G1 F1200 X114.262 Y127.839 E38.01448
G0 F6000 X114.828 Y127.839
G1 F1200 X96.159 Y109.17 E39.24386
G0 F6000 X96.159 Y108.604
G1 F1200 X115.394 Y127.839 E40.51052
G0 F6000 X115.959 Y127.839
G1 F1200 X96.159 Y108.038 E41.81442
G0 F6000 X96.159 Y107.473
G1 F1200 X116.525 Y127.839 E43.15555
G0 F6000 X117.091 Y127.839
G1 F1200 X96.411 Y107.159 E44.51737
G0 F6000 X96.977 Y107.159
G1 F1200 X117.656 Y127.839 E45.87915
G0 F6000 X118.222 Y127.839
G1 F1200 X97.543 Y107.159 E47.24093
G0 F6000 X98.108 Y107.159
G1 F1200 X118.788 Y127.839 E48.60274
G0 F6000 X119.353 Y127.839
G1 F1200 X98.674 Y107.159 E49.96452
G0 F6000 X99.24 Y107.159
G1 F1200 X119.919 Y127.839 E51.3263
G0 F6000 X120.485 Y127.839
G1 F1200 X99.806 Y107.159 E52.68808
G0 F6000 X100.371 Y107.159
G1 F1200 X121.051 Y127.839 E54.0499
G0 F6000 X121.616 Y127.839
G1 F1200 X100.937 Y107.159 E55.41168
G0 F6000 X101.503 Y107.159
G1 F1200 X122.182 Y127.839 E56.77346
G0 F6000 X122.748 Y127.839
G1 F1200 X102.068 Y107.159 E58.13527
G0 F6000 X102.634 Y107.159
G1 F1200 X123.313 Y127.839 E59.49705
G0 F6000 X123.879 Y127.839
G1 F1200 X103.2 Y107.159 E60.85883
G0 F6000 X103.765 Y107.159
G1 F1200 X124.445 Y127.839 E62.22064
G0 F6000 X125.01 Y127.839
G1 F1200 X104.331 Y107.159 E63.58243
G0 F6000 X104.897 Y107.159
G1 F1200 X125.576 Y127.839 E64.94421
G0 F6000 X126.142 Y127.839
G1 F1200 X105.462 Y107.159 E66.30602
G0 F6000 X106.028 Y107.159
G1 F1200 X126.707 Y127.839 E67.6678
G0 F6000 X127.273 Y127.839
G1 F1200 X106.594 Y107.159 E69.02958
G0 F6000 X107.159 Y107.159
G1 F1200 X127.839 Y127.839 E70.39139
G0 F6000 X128.404 Y127.839
G1 F1200 X107.725 Y107.159 E71.75317
G0 F6000 X108.291 Y107.159
G1 F1200 X128.97 Y127.839 E73.11495
G0 F6000 X129.536 Y127.839
G1 F1200 X108.856 Y107.159 E74.47677
G0 F6000 X109.422 Y107.159
G1 F1200 X130.101 Y127.839 E75.83855
G0 F6000 X130.667 Y127.839
G1 F1200 X109.988 Y107.159 E77.20033
G0 F6000 X110.554 Y107.159
G1 F1200 X131.233 Y127.839 E78.56211
G0 F6000 X131.799 Y127.839
G1 F1200 X111.119 Y107.159 E79.92392
G0 F6000 X111.685 Y107.159
G1 F1200 X132.364 Y127.839 E81.2857
G0 F6000 X132.93 Y127.839
G1 F1200 X112.251 Y107.159 E82.64748
G0 F6000 X112.816 Y107.159
G1 F1200 X133.496 Y127.839 E84.0093
G0 F6000 X134.061 Y127.839
G1 F1200 X113.382 Y107.159 E85.37108
G0 F6000 X113.948 Y107.159
G1 F1200 X134.627 Y127.839 E86.73286
G0 F6000 X135.193 Y127.839
G1 F1200 X114.513 Y107.159 E88.09467
G0 F6000 X115.079 Y107.159
G1 F1200 X135.758 Y127.839 E89.45645
G0 F6000 X136.324 Y127.839
G1 F1200 X115.645 Y107.159 E90.81823
G0 F6000 X116.21 Y107.159
G1 F1200 X136.89 Y127.839 E92.18004
G0 F6000 X137.455 Y127.839
G1 F1200 X116.776 Y107.159 E93.54182
G0 F6000 X117.342 Y107.159
G1 F1200 X138.021 Y127.839 E94.9036
G0 F6000 X138.587 Y127.839
G1 F1200 X117.907 Y107.159 E96.26542
G0 F6000 X118.473 Y107.159
G1 F1200 X138.839 Y127.526 E97.60659
G0 F6000 X138.839 Y126.96
G1 F1200 X119.039 Y107.159 E98.91048
G0 F6000 X119.604 Y107.159
G1 F1200 X138.839 Y126.394 E100.17714
G0 F6000 X138.839 Y125.828
G1 F1200 X120.17 Y107.159 E101.40653
G0 F6000 X120.736 Y107.159
G1 F1200 X138.839 Y125.263 E102.59867
G0 F6000 X138.839 Y124.697
G1 F1200 X121.302 Y107.159 E103.75355
G0 F6000 X121.867 Y107.159
G1 F1200 X138.839 Y124.131 E104.87118
G0 F6000 X138.839 Y123.566
G1 F1200 X122.433 Y107.159 E105.95158
G0 F6000 X122.999 Y107.159
G1 F1200 X138.839 Y123 E106.9947
G0 F6000 X138.839 Y122.434
G1 F1200 X123.564 Y107.159 E108.00059
G0 F6000 X124.13 Y107.159
G1 F1200 X138.839 Y121.869 E108.96923
G0 F6000 X138.839 Y121.303
G1 F1200 X124.696 Y107.159 E109.90061
G0 F6000 X125.261 Y107.159
G1 F1200 X138.839 Y120.737 E110.79474
G0 F6000 X138.839 Y120.172
G1 F1200 X125.827 Y107.159 E111.65164
G0 F6000 X126.393 Y107.159
G1 F1200 X138.839 Y119.606 E112.47126
G0 F6000 X138.839 Y119.04
G1 F1200 X126.958 Y107.159 E113.25364
G0 F6000 X127.524 Y107.159
G1 F1200 X138.839 Y118.475 E113.99879
G0 F6000 X138.839 Y117.909
G1 F1200 X128.09 Y107.159 E114.70666
G0 F6000 X128.655 Y107.159
G1 F1200 X138.839 Y117.343 E115.3773
G0 F6000 X138.839 Y116.777
G1 F1200 X129.221 Y107.159 E116.01066
G0 F6000 X129.787 Y107.159
G1 F1200 X138.839 Y116.212 E116.60678
G0 F6000 X138.839 Y115.646
G1 F1200 X130.353 Y107.159 E117.16563
G0 F6000 X130.918 Y107.159
G1 F1200 X138.839 Y115.08 E117.68724
G0 F6000 X138.839 Y114.515
G1 F1200 X131.484 Y107.159 E118.17161
G0 F6000 X132.05 Y107.159
G1 F1200 X138.839 Y113.949 E118.61871
G0 F6000 X138.839 Y113.383
G1 F1200 X132.615 Y107.159 E119.02858
G0 F6000 X133.181 Y107.159
G1 F1200 X138.839 Y112.818 E119.4012
G0 F6000 X138.839 Y112.252
G1 F1200 X133.747 Y107.159 E119.73655
G0 F6000 X134.312 Y107.159
G1 F1200 X138.839 Y111.686 E120.03466
G0 F6000 X138.839 Y111.121
G1 F1200 X134.878 Y107.159 E120.29553
G0 F6000 X135.444 Y107.159
G1 F1200 X138.839 Y110.555 E120.51913
G0 F6000 X138.839 Y109.989
G1 F1200 X136.009 Y107.159 E120.70549
G0 F6000 X136.575 Y107.159
G1 F1200 X138.839 Y109.424 E120.85461
G0 F6000 X138.839 Y108.858
G1 F1200 X137.141 Y107.159 E120.96646
G0 F6000 X137.706 Y107.159
G1 F1200 X138.839 Y108.292 E121.04107
G0 F6000 X138.839 Y107.727
G1 F1200 X138.272 Y107.159 E121.07844
G1 F1500 E114.57844
;MESH:NONMESH
G0 F300 X138.272 Y107.159 Z0.56
G0 F6000 X138.272 Y106.7
G0 X95.772 Y106.772
G0 X95.58 Y128.42
G1 F1500 E121.07844
G0 F6000 X95.2 Y128.8
;TIME_ELAPSED:144.418934
;LAYER:1
M106 S85
;TYPE:WALL-OUTER
;MESH:main arm holder.stl
G1 F1350 X139.8 Y128.8 E123.1552
G1 X139.8 Y117.5 E123.68138
G1 X139.8 Y106.2 E124.20755
G1 X95.2 Y106.2 E126.28432
G1 X95.2 Y128.8 E127.33667
G0 F7500 X95.6 Y128.4
;TYPE:WALL-INNER
G1 F1350 X139.4 Y128.4 E129.37618
G1 X139.4 Y117.5 E129.88373
G1 X139.4 Y106.6 E130.39128
G1 X95.6 Y106.6 E132.43079
G1 X95.6 Y128.4 E133.44589
G0 F7500 X95.96 Y128.04
;TYPE:SKIN
G1 F1350 X128.5 Y128.04 E134.96109
G1 X139.04 Y128.04 E135.45187
G1 X139.04 Y106.96 E136.43345
G1 X95.96 Y106.96 E138.43943
G1 X95.96 Y128.04 E139.42101
G0 F7500 X95.7 Y128.04
G0 X95.7 Y107.487
G0 X96.159 Y107.487
G1 F1350 X96.487 Y107.159 E139.4426
G0 F7500 X97.053 Y107.159
G1 F1350 X96.159 Y108.052 E139.50144
G0 F7500 X96.159 Y108.618
G1 F1350 X97.618 Y107.159 E139.59752
G0 F7500 X98.184 Y107.159
G1 F1350 X96.159 Y109.184 E139.73087
G0 F7500 X96.159 Y109.75
G1 F1350 X98.75 Y107.159 E139.90149
G0 F7500 X99.315 Y107.159
G1 F1350 X96.159 Y110.315 E140.10932
G0 F7500 X96.159 Y110.881
G1 F1350 X99.881 Y107.159 E140.35442
G0 F7500 X100.447 Y107.159
G1 F1350 X96.159 Y111.447 E140.63679
G0 F7500 X96.159 Y112.012
G1 F1350 X101.013 Y107.159 E140.9564
G0 F7500 X101.578 Y107.159
G1 F1350 X96.159 Y112.578 E141.31325
G0 F7500 X96.159 Y113.144
G1 F1350 X102.144 Y107.159 E141.70738
G0 F7500 X102.71 Y107.159
G1 F1350 X96.159 Y113.709 E142.13874
G0 F7500 X96.159 Y114.275
G1 F1350 X103.275 Y107.159 E142.60734
G0 F7500 X103.841 Y107.159
G1 F1350 X96.159 Y114.841 E143.11321
G0 F7500 X96.159 Y115.406
G1 F1350 X104.407 Y107.159 E143.65632
G0 F7500 X104.972 Y107.159
G1 F1350 X96.159 Y115.972 E144.23668
G0 F7500 X96.159 Y116.538
G1 F1350 X105.538 Y107.159 E144.8543
G0 F7500 X106.104 Y107.159
G1 F1350 X96.159 Y117.103 E145.50916
G0 F7500 X96.159 Y117.669
G1 F1350 X106.669 Y107.159 E146.20126
G0 F7500 X107.235 Y107.159
G1 F1350 X96.159 Y118.235 E146.93064
G0 F7500 X96.159 Y118.801
G1 F1350 X107.801 Y107.159 E147.69728
G0 F7500 X108.366 Y107.159
G1 F1350 X96.159 Y119.366 E148.50113
G0 F7500 X96.159 Y119.932
G1 F1350 X108.932 Y107.159 E149.34226
G0 F7500 X109.498 Y107.159
G1 F1350 X96.159 Y120.498 E150.22065
G0 F7500 X96.159 Y121.063
G1 F1350 X110.063 Y107.159 E151.13625
G0 F7500 X110.629 Y107.159
G1 F1350 X96.159 Y121.629 E152.08913
G0 F7500 X96.159 Y122.195
G1 F1350 X111.195 Y107.159 E153.07928
G0 F7500 X111.761 Y107.159
G1 F1350 X96.159 Y122.76 E154.10666
G0 F7500 X96.159 Y123.326
G1 F1350 X112.326 Y107.159 E155.17129
G0 F7500 X112.892 Y107.159
G1 F1350 X96.159 Y123.892 E156.27318
G0 F7500 X96.159 Y124.457
G1 F1350 X113.458 Y107.159 E157.41232
G0 F7500 X114.023 Y107.159
G1 F1350 X96.159 Y125.023 E158.58869
G0 F7500 X96.159 Y125.589
G1 F1350 X114.589 Y107.159 E159.80234
G0 F7500 X115.155 Y107.159
G1 F1350 X96.159 Y126.154 E161.05323
G0 F7500 X96.159 Y126.72
G1 F1350 X115.72 Y107.159 E162.34135
G0 F7500 X116.286 Y107.159
G1 F1350 X96.159 Y127.286 E163.66675
G0 F7500 X96.171 Y127.839
G1 F1350 X116.852 Y107.159 E165.02859
G0 F7500 X117.417 Y107.159
G1 F1350 X96.737 Y127.839 E166.39041
G0 F7500 X97.302 Y127.839
G1 F1350 X117.983 Y107.159 E167.75225
G0 F7500 X118.549 Y107.159
G1 F1350 X97.868 Y127.839 E169.1141
G0 F7500 X98.434 Y127.839
G1 F1350 X119.114 Y107.159 E170.47591
G0 F7500 X119.68 Y107.159
G1 F1350 X98.999 Y127.839 E171.83776
G0 F7500 X99.565 Y127.839
G1 F1350 X120.246 Y107.159 E173.19961
G0 F7500 X120.812 Y107.159
G1 F1350 X100.131 Y127.839 E174.56145
G0 F7500 X100.696 Y127.839
G1 F1350 X121.377 Y107.159 E175.9233
G0 F7500 X121.943 Y107.159
G1 F1350 X101.262 Y127.839 E177.28514
G0 F7500 X101.828 Y127.839
G1 F1350 X122.509 Y107.159 E178.64699
G0 F7500 X123.074 Y107.159
G1 F1350 X102.394 Y127.839 E180.0088
G0 F7500 X102.959 Y127.839
G1 F1350 X123.64 Y107.159 E181.37065
G0 F7500 X124.206 Y107.159
G1 F1350 X103.525 Y127.839 E182.7325
G0 F7500 X104.091 Y127.839
G1 F1350 X124.771 Y107.159 E184.09431
G0 F7500 X125.337 Y107.159
G1 F1350 X104.656 Y127.839 E185.45616
G0 F7500 X105.222 Y127.839
G1 F1350 X125.903 Y107.159 E186.818
G0 F7500 X126.468 Y107.159
G1 F1350 X105.788 Y127.839 E188.17982
G0 F7500 X106.353 Y127.839
G1 F1350 X127.034 Y107.159 E189.54166
G0 F7500 X127.6 Y107.159
G1 F1350 X106.919 Y127.839 E190.90351
G0 F7500 X107.485 Y127.839
G1 F1350 X128.165 Y107.159 E192.26532
G0 F7500 X128.731 Y107.159
G1 F1350 X108.05 Y127.839 E193.62717
G0 F7500 X108.616 Y127.839
G1 F1350 X129.297 Y107.159 E194.98901
G0 F7500 X129.862 Y107.159
G1 F1350 X109.182 Y127.839 E196.35083
G0 F7500 X109.747 Y127.839
G1 F1350 X130.428 Y107.159 E197.71267
G0 F7500 X130.994 Y107.159
G1 F1350 X110.313 Y127.839 E199.07452
G0 F7500 X110.879 Y127.839
G1 F1350 X131.56 Y107.159 E200.43637
G0 F7500 X132.125 Y107.159
G1 F1350 X111.444 Y127.839 E201.79821
G0 F7500 X112.01 Y127.839
G1 F1350 X132.691 Y107.159 E203.16006
G0 F7500 X133.257 Y107.159
G1 F1350 X112.576 Y127.839 E204.52191
G0 F7500 X113.142 Y127.839
G1 F1350 X133.822 Y107.159 E205.88372
G0 F7500 X134.388 Y107.159
G1 F1350 X113.707 Y127.839 E207.24556
G0 F7500 X114.273 Y127.839
G1 F1350 X134.954 Y107.159 E208.60741
G0 F7500 X135.519 Y107.159
G1 F1350 X114.839 Y127.839 E209.96922
G0 F7500 X115.404 Y127.839
G1 F1350 X136.085 Y107.159 E211.33107
G0 F7500 X136.651 Y107.159
G1 F1350 X115.97 Y127.839 E212.69292
G0 F7500 X116.536 Y127.839
G1 F1350 X137.216 Y107.159 E214.05473
G0 F7500 X137.782 Y107.159
G1 F1350 X117.101 Y127.839 E215.41658
G0 F7500 X117.667 Y127.839
G1 F1350 X138.348 Y107.159 E216.77842
G0 F7500 X138.839 Y107.233
G1 F1350 X118.233 Y127.839 E218.13536
G0 F7500 X118.798 Y127.839
G1 F1350 X138.839 Y107.799 E219.45506
G0 F7500 X138.839 Y108.364
G1 F1350 X119.364 Y127.839 E220.73753
G0 F7500 X119.93 Y127.839
G1 F1350 X138.839 Y108.93 E221.98272
G0 F7500 X138.839 Y109.496
G1 F1350 X120.495 Y127.839 E223.19067
G0 F7500 X121.061 Y127.839
G1 F1350 X138.839 Y110.061 E224.36138
G0 F7500 X138.839 Y110.627
G1 F1350 X121.627 Y127.839 E225.49482
G0 F7500 X122.193 Y127.839
G1 F1350 X138.839 Y111.193 E226.59099
G0 F7500 X138.839 Y111.758
G1 F1350 X122.758 Y127.839 E227.64995
G0 F7500 X123.324 Y127.839
G1 F1350 X138.839 Y112.324 E228.67164
G0 F7500 X138.839 Y112.89
G1 F1350 X123.89 Y127.839 E229.65605
G0 F7500 X124.455 Y127.839
G1 F1350 X138.839 Y113.455 E230.60326
G0 F7500 X138.839 Y114.021
G1 F1350 X125.021 Y127.839 E231.5132
G0 F7500 X125.587 Y127.839
G1 F1350 X138.839 Y114.587 E232.38587
G0 F7500 X138.839 Y115.153
G1 F1350 X126.152 Y127.839 E233.2213
G0 F7500 X126.718 Y127.839
G1 F1350 X138.839 Y115.718 E234.01949
G0 F7500 X138.839 Y116.284
G1 F1350 X127.284 Y127.839 E234.7804
G0 F7500 X127.849 Y127.839
G1 F1350 X138.839 Y116.85 E235.50408
G0 F7500 X138.839 Y117.415
G1 F1350 X128.415 Y127.839 E236.19052
G0 F7500 X128.981 Y127.839
G1 F1350 X138.839 Y117.981 E236.83968
G0 F7500 X138.839 Y118.547
G1 F1350 X129.546 Y127.839 E237.45161
G0 F7500 X130.112 Y127.839
G1 F1350 X138.839 Y119.112 E238.0263
G0 F7500 X138.839 Y119.678
G1 F1350 X130.678 Y127.839 E238.56371
G0 F7500 X131.243 Y127.839
G1 F1350 X138.839 Y120.244 E239.06389
G0 F7500 X138.839 Y120.809
G1 F1350 X131.809 Y127.839 E239.52683
G0 F7500 X132.375 Y127.839
G1 F1350 X138.839 Y121.375 E239.95249
G0 F7500 X138.839 Y121.941
G1 F1350 X132.941 Y127.839 E240.34089
G0 F7500 X133.506 Y127.839
G1 F1350 X138.839 Y122.506 E240.69207
G0 F7500 X138.839 Y123.072
G1 F1350 X134.072 Y127.839 E241.00599
G0 F7500 X134.638 Y127.839
G1 F1350 X138.839 Y123.638 E241.28263
