;FLAVOR:Marlin
;TIME:877
;Filament used: 0.931742m
;Layer height: 0.28
;MINX:106.2
;MINY:106.2
;MINZ:0.28
;MAXX:128.8
;MAXY:128.8
;MAXZ:10.08
;Generated with Cura_SteamEngine 5.0.0
M140 S60
M105
M190 S60
M104 S200
M105
M109 S200
M82 ;absolute extrusion mode
; Ender 3 Custom Start G-code
G92 E0 ; Reset Extruder
G28 ; Home all axes
G1 Z2.0 F3000 ; Move Z Axis up little to prevent scratching of Heat Bed
G1 X0.1 Y20 Z0.3 F5000.0 ; Move to start position
G1 X0.1 Y200.0 Z0.3 F1500.0 E15 ; Draw the first line
G1 X0.4 Y200.0 Z0.3 F5000.0 ; Move to side a little
G1 X0.4 Y20 Z0.3 F1500.0 E30 ; Draw the second line
G92 E0 ; Reset Extruder
G1 Z2.0 F3000 ; Move Z Axis up little to prevent scratching of Heat Bed
G1 X5 Y20 Z0.3 F5000.0 ; Move over to prevent blob squish
G92 E0
G92 E0
G1 F1500 E-6.5
;LAYER_COUNT:36
;LAYER:0
M107
;MESH:microswitch servo spacer.stl
G0 F6000 X106.2 Y128.8 Z0.28
;TYPE:WALL-OUTER
G1 F1500 E0
G1 F1200 X128.8 Y128.8 E1.05235
G1 X128.8 Y117.5 E1.57853
G1 X128.8 Y106.2 E2.1047
G1 X106.2 Y106.2 E3.15705
G1 X106.2 Y128.8 E4.2094
G0 F6000 X106.6 Y128.4
;TYPE:WALL-INNER
G1 F1200 X128.4 Y128.4 E5.2245
G1 X128.4 Y117.5 E5.73205
G1 X128.4 Y106.6 E6.2396
G1 X106.6 Y106.6 E7.2547
G1 X106.6 Y128.4 E8.2698
G0 F6000 X106.96 Y128.04
;TYPE:SKIN
G1 F1200 X128.04 Y128.04 E9.25137
G1 X128.04 Y117.5 E9.74216
G1 X128.04 Y106.96 E10.23295
G1 X106.96 Y106.96 E11.21452
G1 X106.96 Y128.04 E12.19609
G0 F6000 X107.474 Y127.839
G1 F1200 X107.159 Y127.524 E12.21684
G0 F6000 X107.159 Y126.958
G1 F1200 X108.04 Y127.839 E12.27485
G0 F6000 X108.605 Y127.839
G1 F1200 X107.159 Y126.393 E12.37007
G0 F6000 X107.159 Y125.827
G1 F1200 X109.171 Y127.839 E12.50257
G0 F6000 X109.737 Y127.839
G1 F1200 X107.159 Y125.261 E12.67233
G0 F6000 X107.159 Y124.696
G1 F1200 X110.303 Y127.839 E12.87934
G0 F6000 X110.868 Y127.839
G1 F1200 X107.159 Y124.13 E13.12358
G0 F6000 X107.159 Y123.564
G1 F1200 X111.434 Y127.839 E13.4051
G0 F6000 X112 Y127.839
G1 F1200 X107.159 Y122.999 E13.72385
G0 F6000 X107.159 Y122.433
G1 F1200 X112.565 Y127.839 E14.07985
G0 F6000 X113.131 Y127.839
G1 F1200 X107.159 Y121.867 E14.47311
G0 F6000 X107.159 Y121.302
G1 F1200 X113.697 Y127.839 E14.90362
G0 F6000 X114.262 Y127.839
G1 F1200 X107.159 Y120.736 E15.37136
G0 F6000 X107.159 Y120.17
G1 F1200 X114.828 Y127.839 E15.87638
G0 F6000 X115.394 Y127.839
G1 F1200 X107.159 Y119.604 E16.41867
G0 F6000 X107.159 Y119.039
G1 F1200 X115.959 Y127.839 E16.99816
G0 F6000 X116.525 Y127.839
G1 F1200 X107.159 Y118.473 E17.61493
G0 F6000 X107.159 Y117.907
G1 F1200 X117.091 Y127.839 E18.26897
G0 F6000 X117.656 Y127.839
G1 F1200 X107.159 Y117.342 E18.96022
G0 F6000 X107.159 Y116.776
G1 F1200 X118.222 Y127.839 E19.68873
G0 F6000 X118.788 Y127.839
G1 F1200 X107.159 Y116.21 E20.45452
G0 F6000 X107.159 Y115.645
G1 F1200 X119.353 Y127.839 E21.25752
G0 F6000 X119.919 Y127.839
G1 F1200 X107.159 Y115.079 E22.09779
G0 F6000 X107.159 Y114.513
G1 F1200 X120.485 Y127.839 E22.97533
G0 F6000 X121.051 Y127.839
G1 F1200 X107.159 Y113.948 E23.8901
G0 F6000 X107.159 Y113.382
G1 F1200 X121.616 Y127.839 E24.84212
G0 F6000 X122.182 Y127.839
G1 F1200 X107.159 Y112.816 E25.83141
G0 F6000 X107.159 Y112.251
G1 F1200 X122.748 Y127.839 E26.85794
G0 F6000 X123.313 Y127.839
G1 F1200 X107.159 Y111.685 E27.92171
G0 F6000 X107.159 Y111.119
G1 F1200 X123.879 Y127.839 E29.02275
G0 F6000 X124.445 Y127.839
G1 F1200 X107.159 Y110.554 E30.16103
G0 F6000 X107.159 Y109.988
G1 F1200 X125.01 Y127.839 E31.33655
G0 F6000 X125.576 Y127.839
G1 F1200 X107.159 Y109.422 E32.54934
G0 F6000 X107.159 Y108.856
G1 F1200 X126.142 Y127.839 E33.7994
G0 F6000 X126.707 Y127.839
G1 F1200 X107.159 Y108.291 E35.08667
G0 F6000 X107.159 Y107.725
G1 F1200 X127.273 Y127.839 E36.41121
G0 F6000 X127.839 Y127.839
G1 F1200 X107.159 Y107.159 E37.77303
G0 F6000 X107.726 Y107.16
G1 F1200 X127.839 Y127.274 E39.09754
G0 F6000 X127.839 Y126.708
G1 F1200 X108.291 Y107.16 E40.3848
G0 F6000 X108.857 Y107.16
G1 F1200 X127.839 Y126.142 E41.6348
G0 F6000 X127.839 Y125.577
G1 F1200 X109.423 Y107.16 E42.84756
G0 F6000 X109.989 Y107.16
G1 F1200 X127.839 Y125.011 E44.02305
G0 F6000 X127.839 Y124.445
G1 F1200 X110.554 Y107.16 E45.16129
G0 F6000 X111.12 Y107.16
G1 F1200 X127.839 Y123.88 E46.2623
G0 F6000 X127.839 Y123.314
G1 F1200 X111.686 Y107.16 E47.32604
G0 F6000 X112.251 Y107.16
G1 F1200 X127.839 Y122.748 E48.35253
G0 F6000 X127.839 Y122.183
G1 F1200 X112.817 Y107.16 E49.34179
G0 F6000 X113.383 Y107.16
G1 F1200 X127.839 Y121.617 E50.29377
G0 F6000 X127.839 Y121.051
G1 F1200 X113.948 Y107.16 E51.20852
G0 F6000 X114.514 Y107.16
G1 F1200 X127.839 Y120.486 E52.08603
G0 F6000 X127.839 Y119.92
G1 F1200 X115.08 Y107.16 E52.92626
G0 F6000 X115.645 Y107.16
G1 F1200 X127.839 Y119.354 E53.72926
G0 F6000 X127.839 Y118.788
G1 F1200 X116.211 Y107.16 E54.49498
G0 F6000 X116.777 Y107.16
G1 F1200 X127.839 Y118.223 E55.22347
G0 F6000 X127.839 Y117.657
G1 F1200 X117.342 Y107.16 E55.91471
G0 F6000 X117.908 Y107.16
G1 F1200 X127.839 Y117.091 E56.56869
G0 F6000 X127.839 Y116.526
G1 F1200 X118.474 Y107.16 E57.18542
G0 F6000 X119.04 Y107.16
G1 F1200 X127.839 Y115.96 E57.76488
G0 F6000 X127.839 Y115.394
G1 F1200 X119.605 Y107.16 E58.3071
G0 F6000 X120.171 Y107.16
G1 F1200 X127.839 Y114.829 E58.81209
G0 F6000 X127.839 Y114.263
G1 F1200 X120.737 Y107.16 E59.2798
G0 F6000 X121.302 Y107.16
G1 F1200 X127.839 Y113.697 E59.71027
G0 F6000 X127.839 Y113.132
G1 F1200 X121.868 Y107.16 E60.10351
G0 F6000 X122.434 Y107.16
G1 F1200 X127.839 Y112.566 E60.45947
G0 F6000 X127.839 Y112
G1 F1200 X122.999 Y107.16 E60.77819
G0 F6000 X123.565 Y107.16
G1 F1200 X127.839 Y111.435 E61.05967
G0 F6000 X127.839 Y110.869
G1 F1200 X124.131 Y107.16 E61.30388
G0 F6000 X124.696 Y107.16
G1 F1200 X127.839 Y110.303 E61.51086
G0 F6000 X127.839 Y109.738
G1 F1200 X125.262 Y107.16 E61.68059
G0 F6000 X125.828 Y107.16
G1 F1200 X127.839 Y109.172 E61.81305
G0 F6000 X127.839 Y108.606
G1 F1200 X126.393 Y107.16 E61.90827
G0 F6000 X126.959 Y107.16
G1 F1200 X127.839 Y108.04 E61.96622
G0 F6000 X127.839 Y107.475
G1 F1200 X127.525 Y107.16 E61.98693
G1 F1500 E55.48693
;MESH:NONMESH
G0 F300 X127.525 Y107.16 Z0.56
G0 F6000 X127.525 Y106.7
G0 X106.772 Y106.772
G0 X106.58 Y128.42
G1 F1500 E61.98693
G0 F6000 X106.2 Y128.8
;TIME_ELAPSED:78.067805
;LAYER:1
M106 S85
;TYPE:WALL-OUTER
;MESH:microswitch servo spacer.stl
G1 F1350 X128.8 Y128.8 E63.03928
G1 X128.8 Y117.5 E63.56546
G1 X128.8 Y106.2 E64.09163
G1 X106.2 Y106.2 E65.14398
G1 X106.2 Y128.8 E66.19633
G0 F7500 X106.6 Y128.4
;TYPE:WALL-INNER
G1 F1350 X128.4 Y128.4 E67.21143
G1 X128.4 Y117.5 E67.71898
G1 X128.4 Y106.6 E68.22653
G1 X106.6 Y106.6 E69.24163
G1 X106.6 Y128.4 E70.25673
G0 F7500 X106.96 Y128.04
;TYPE:SKIN
G1 F1350 X128.04 Y128.04 E71.2383
G1 X128.04 Y117.5 E71.72909
G1 X128.04 Y106.96 E72.21988
G1 X106.96 Y106.96 E73.20145
G1 X106.96 Y128.04 E74.18302
G0 F7500 X106.7 Y128.04
G0 X106.772 Y106.772
G0 X107.234 Y106.7
G0 X107.234 Y107.159
G1 F1350 X107.16 Y107.234 E74.18793
G0 F7500 X107.16 Y107.799
G1 F1350 X107.8 Y107.159 E74.23007
G0 F7500 X108.366 Y107.159
G1 F1350 X107.16 Y108.365 E74.30949
G0 F7500 X107.16 Y108.931
G1 F1350 X108.931 Y107.159 E74.42615
G0 F7500 X109.497 Y107.159
G1 F1350 X107.16 Y109.496 E74.58004
G0 F7500 X107.16 Y110.062
G1 F1350 X110.063 Y107.159 E74.77121
G0 F7500 X110.628 Y107.159
G1 F1350 X107.16 Y110.628 E74.99962
G0 F7500 X107.16 Y111.193
G1 F1350 X111.194 Y107.159 E75.26526
G0 F7500 X111.76 Y107.159
G1 F1350 X107.16 Y111.759 E75.56818
G0 F7500 X107.16 Y112.325
G1 F1350 X112.326 Y107.159 E75.90837
G0 F7500 X112.891 Y107.159
G1 F1350 X107.16 Y112.891 E76.2858
G0 F7500 X107.16 Y113.456
G1 F1350 X113.457 Y107.159 E76.70047
G0 F7500 X114.023 Y107.159
G1 F1350 X107.16 Y114.022 E77.15241
G0 F7500 X107.16 Y114.588
G1 F1350 X114.588 Y107.159 E77.64159
G0 F7500 X115.154 Y107.159
G1 F1350 X107.16 Y115.153 E78.16801
G0 F7500 X107.16 Y115.719
G1 F1350 X115.72 Y107.159 E78.7317
G0 F7500 X116.285 Y107.159
G1 F1350 X107.16 Y116.285 E79.33263
G0 F7500 X107.16 Y116.85
G1 F1350 X116.851 Y107.159 E79.9708
G0 F7500 X117.417 Y107.159
G1 F1350 X107.16 Y117.416 E80.64624
G0 F7500 X107.16 Y117.982
G1 F1350 X117.982 Y107.159 E81.35892
G0 F7500 X118.548 Y107.159
G1 F1350 X107.16 Y118.547 E82.10884
G0 F7500 X107.16 Y119.113
G1 F1350 X119.114 Y107.159 E82.89603
G0 F7500 X119.679 Y107.159
G1 F1350 X107.16 Y119.679 E83.72046
G0 F7500 X107.16 Y120.244
G1 F1350 X120.245 Y107.159 E84.58213
G0 F7500 X120.811 Y107.159
G1 F1350 X107.16 Y120.81 E85.48107
G0 F7500 X107.16 Y121.376
G1 F1350 X121.377 Y107.159 E86.41728
G0 F7500 X121.942 Y107.159
G1 F1350 X107.16 Y121.941 E87.3907
G0 F7500 X107.16 Y122.507
G1 F1350 X122.508 Y107.159 E88.40139
G0 F7500 X123.074 Y107.159
G1 F1350 X107.16 Y123.073 E89.44936
G0 F7500 X107.16 Y123.639
G1 F1350 X123.639 Y107.159 E90.53456
G0 F7500 X124.205 Y107.159
G1 F1350 X107.16 Y124.204 E91.657
G0 F7500 X107.16 Y124.77
G1 F1350 X124.771 Y107.159 E92.81672
G0 F7500 X125.336 Y107.159
G1 F1350 X107.16 Y125.336 E94.01367
G0 F7500 X107.16 Y125.901
G1 F1350 X125.902 Y107.159 E95.24787
G0 F7500 X126.468 Y107.159
G1 F1350 X107.16 Y126.467 E96.51933
G0 F7500 X107.16 Y127.033
G1 F1350 X127.033 Y107.159 E97.82803
G0 F7500 X127.599 Y107.159
G1 F1350 X107.16 Y127.598 E99.17398
G0 F7500 X107.485 Y127.839
G1 F1350 X127.839 Y107.485 E100.51432
G0 F7500 X127.839 Y108.051
G1 F1350 X108.05 Y127.839 E101.81743
G0 F7500 X108.616 Y127.839
G1 F1350 X127.839 Y108.617 E103.08326
G0 F7500 X127.839 Y109.182
G1 F1350 X109.182 Y127.839 E104.31186
G0 F7500 X109.747 Y127.839
G1 F1350 X127.839 Y109.748 E105.50322
G0 F7500 X127.839 Y110.314
G1 F1350 X110.313 Y127.839 E106.6573
G0 F7500 X110.879 Y127.839
G1 F1350 X127.839 Y110.88 E107.77411
G0 F7500 X127.839 Y111.445
G1 F1350 X111.444 Y127.839 E108.85372
G0 F7500 X112.01 Y127.839
G1 F1350 X127.839 Y112.011 E109.89605
G0 F7500 X127.839 Y112.577
G1 F1350 X112.576 Y127.839 E110.90111
G0 F7500 X113.142 Y127.839
G1 F1350 X127.839 Y113.142 E111.86893
G0 F7500 X127.839 Y113.708
G1 F1350 X113.707 Y127.839 E112.79952
G0 F7500 X114.273 Y127.839
G1 F1350 X127.839 Y114.274 E113.69283
G0 F7500 X127.839 Y114.839
G1 F1350 X114.839 Y127.839 E114.5489
G0 F7500 X115.404 Y127.839
G1 F1350 X127.839 Y115.405 E115.36773
G0 F7500 X127.839 Y115.971
G1 F1350 X115.97 Y127.839 E116.1493
G0 F7500 X116.536 Y127.839
G1 F1350 X127.839 Y116.536 E116.89362
G0 F7500 X127.839 Y117.102
G1 F1350 X117.101 Y127.839 E117.6007
G0 F7500 X117.667 Y127.839
G1 F1350 X127.839 Y117.668 E118.27051
G0 F7500 X127.839 Y118.233
G1 F1350 X118.233 Y127.839 E118.90308
G0 F7500 X118.798 Y127.839
G1 F1350 X127.839 Y118.799 E119.49842
G0 F7500 X127.839 Y119.365
G1 F1350 X119.364 Y127.839 E120.05648
G0 F7500 X119.93 Y127.839
G1 F1350 X127.839 Y119.93 E120.5773
G0 F7500 X127.839 Y120.496
G1 F1350 X120.495 Y127.839 E121.06088
G0 F7500 X121.061 Y127.839
G1 F1350 X127.839 Y121.062 E121.50719
G0 F7500 X127.839 Y121.628
G1 F1350 X121.627 Y127.839 E121.91623
G0 F7500 X122.193 Y127.839
G1 F1350 X127.839 Y122.193 E122.28803
G0 F7500 X127.839 Y122.759
G1 F1350 X122.758 Y127.839 E122.62258
G0 F7500 X123.324 Y127.839
G1 F1350 X127.839 Y123.325 E122.91987
G0 F7500 X127.839 Y123.89
G1 F1350 X123.89 Y127.839 E123.17992
G0 F7500 X124.455 Y127.839
G1 F1350 X127.839 Y124.456 E123.40273
G0 F7500 X127.839 Y125.022
G1 F1350 X125.021 Y127.839 E123.58827
G0 F7500 X125.587 Y127.839
G1 F1350 X127.839 Y125.587 E123.73657
G0 F7500 X127.839 Y126.153
G1 F1350 X126.152 Y127.839 E123.84762
G0 F7500 X126.718 Y127.839
G1 F1350 X127.839 Y126.719 E123.92141
G0 F7500 X127.839 Y127.284
G1 F1350 X127.284 Y127.839 E123.95796
G1 F1500 E117.45796
;MESH:NONMESH
G0 F300 X127.284 Y127.839 Z0.84
G0 F7500 X127.284 Y128.3
G0 X106.58 Y128.42
G1 F1500 E123.95796
G0 F7500 X106.2 Y128.8
;TIME_ELAPSED:144.668050
;LAYER:2
M106 S170
;TYPE:WALL-OUTER
;MESH:microswitch servo spacer.stl
G1 F1500 X128.8 Y128.8 E125.01031
G1 X128.8 Y106.2 E126.06266
G1 X106.2 Y106.2 E127.11501
G1 X106.2 Y128.8 E128.16736
G0 F9000 X106.6 Y128.4
;TYPE:WALL-INNER
G1 F1500 X128.4 Y128.4 E129.18246
G1 X128.4 Y106.6 E130.19756
G1 X106.6 Y106.6 E131.21266
G1 X106.6 Y128.4 E132.22776
G0 F9000 X106.96 Y128.04
;TYPE:SKIN
G1 F1500 X128.04 Y128.04 E133.20933
G1 X128.04 Y117.5 E133.70012
G1 X128.04 Y106.96 E134.1909
G1 X106.96 Y106.96 E135.17248
G1 X106.96 Y128.04 E136.15405
G0 F9000 X107.474 Y127.839
G1 F1500 X107.159 Y127.524 E136.17479
G0 F9000 X107.159 Y126.958
G1 F1500 X108.04 Y127.839 E136.23281
G0 F9000 X108.605 Y127.839
G1 F1500 X107.159 Y126.393 E136.32803
G0 F9000 X107.159 Y125.827
G1 F1500 X109.171 Y127.839 E136.46052
G0 F9000 X109.737 Y127.839
G1 F1500 X107.159 Y125.261 E136.63029
G0 F9000 X107.159 Y124.696
G1 F1500 X110.303 Y127.839 E136.8373
G0 F9000 X110.868 Y127.839
G1 F1500 X107.159 Y124.13 E137.08154
G0 F9000 X107.159 Y123.564
G1 F1500 X111.434 Y127.839 E137.36306
G0 F9000 X112 Y127.839
G1 F1500 X107.159 Y122.999 E137.68181
G0 F9000 X107.159 Y122.433
G1 F1500 X112.565 Y127.839 E138.0378
G0 F9000 X113.131 Y127.839
G1 F1500 X107.159 Y121.867 E138.43107
G0 F9000 X107.159 Y121.302
G1 F1500 X113.697 Y127.839 E138.86158
G0 F9000 X114.262 Y127.839
G1 F1500 X107.159 Y120.736 E139.32932
G0 F9000 X107.159 Y120.17
G1 F1500 X114.828 Y127.839 E139.83434
G0 F9000 X115.394 Y127.839
G1 F1500 X107.159 Y119.604 E140.37663
G0 F9000 X107.159 Y119.039
G1 F1500 X115.959 Y127.839 E140.95612
G0 F9000 X116.525 Y127.839
G1 F1500 X107.159 Y118.473 E141.57289
G0 F9000 X107.159 Y117.907
G1 F1500 X117.091 Y127.839 E142.22693
G0 F9000 X117.656 Y127.839
G1 F1500 X107.159 Y117.342 E142.91817
G0 F9000 X107.159 Y116.776
G1 F1500 X118.222 Y127.839 E143.64669
G0 F9000 X118.788 Y127.839
G1 F1500 X107.159 Y116.21 E144.41248
G0 F9000 X107.159 Y115.645
G1 F1500 X119.353 Y127.839 E145.21548
G0 F9000 X119.919 Y127.839
G1 F1500 X107.159 Y115.079 E146.05574
G0 F9000 X107.159 Y114.513
G1 F1500 X120.485 Y127.839 E146.93328
G0 F9000 X121.051 Y127.839
G1 F1500 X107.159 Y113.948 E147.84806
G0 F9000 X107.159 Y113.382
G1 F1500 X121.616 Y127.839 E148.80008
G0 F9000 X122.182 Y127.839
G1 F1500 X107.159 Y112.816 E149.78937
G0 F9000 X107.159 Y112.251
G1 F1500 X122.748 Y127.839 E150.8159
G0 F9000 X123.313 Y127.839
G1 F1500 X107.159 Y111.685 E151.87967
G0 F9000 X107.159 Y111.119
G1 F1500 X123.879 Y127.839 E152.98071
G0 F9000 X124.445 Y127.839
G1 F1500 X107.159 Y110.554 E154.11899
G0 F9000 X107.159 Y109.988
G1 F1500 X125.01 Y127.839 E155.29451
G0 F9000 X125.576 Y127.839
G1 F1500 X107.159 Y109.422 E156.5073
G0 F9000 X107.159 Y108.856
G1 F1500 X126.142 Y127.839 E157.75736
G0 F9000 X126.707 Y127.839
G1 F1500 X107.159 Y108.291 E159.04463
G0 F9000 X107.159 Y107.725
G1 F1500 X127.273 Y127.839 E160.36917
G0 F9000 X127.839 Y127.839
G1 F1500 X107.159 Y107.159 E161.73099
G0 F9000 X107.726 Y107.16
G1 F1500 X127.839 Y127.274 E163.05549
G0 F9000 X127.839 Y126.708
G1 F1500 X108.291 Y107.16 E164.34276
G0 F9000 X108.857 Y107.16
G1 F1500 X127.839 Y126.142 E165.59276
G0 F9000 X127.839 Y125.577
G1 F1500 X109.423 Y107.16 E166.80552
G0 F9000 X109.989 Y107.16
G1 F1500 X127.839 Y125.011 E167.981
G0 F9000 X127.839 Y124.445
G1 F1500 X110.554 Y107.16 E169.11925
G0 F9000 X111.12 Y107.16
G1 F1500 X127.839 Y123.88 E170.22026
G0 F9000 X127.839 Y123.314
G1 F1500 X111.686 Y107.16 E171.28399
G0 F9000 X112.251 Y107.16
G1 F1500 X127.839 Y122.748 E172.31049
G0 F9000 X127.839 Y122.183
G1 F1500 X112.817 Y107.16 E173.29975
G0 F9000 X113.383 Y107.16
G1 F1500 X127.839 Y121.617 E174.25173
G0 F9000 X127.839 Y121.051
G1 F1500 X113.948 Y107.16 E175.16648
G0 F9000 X114.514 Y107.16
G1 F1500 X127.839 Y120.486 E176.04399
G0 F9000 X127.839 Y119.92
G1 F1500 X115.08 Y107.16 E176.88422
G0 F9000 X115.645 Y107.16
G1 F1500 X127.839 Y119.354 E177.68722
G0 F9000 X127.839 Y118.788
G1 F1500 X116.211 Y107.16 E178.45294
G0 F9000 X116.777 Y107.16
G1 F1500 X127.839 Y118.223 E179.18143
G0 F9000 X127.839 Y117.657
G1 F1500 X117.342 Y107.16 E179.87267
G0 F9000 X117.908 Y107.16
G1 F1500 X127.839 Y117.091 E180.52664
G0 F9000 X127.839 Y116.526
G1 F1500 X118.474 Y107.16 E181.14338
G0 F9000 X119.04 Y107.16
G1 F1500 X127.839 Y115.96 E181.72284
G0 F9000 X127.839 Y115.394
G1 F1500 X119.605 Y107.16 E182.26506
